/* XPM */
static char *flor1754264455[] = {
/* columns rows colors chars-per-pixel */
"128 128 210 2 ",
"   c #4E2E06",
".  c #512F07",
"X  c #4F320A",
"o  c #4D3106",
"O  c #53340C",
"+  c #55380F",
"@  c #58370E",
"#  c #553515",
"$  c #583715",
"%  c #563912",
"&  c #5B3C15",
"*  c #553419",
"=  c #593619",
"-  c #573819",
";  c #5C3E19",
":  c #603F1B",
">  c #603F20",
",  c #5D4116",
"<  c #5E401A",
"1  c #614615",
"2  c #634B15",
"3  c #61421C",
"4  c #634C18",
"5  c #6A5414",
"6  c #6D5A14",
"7  c #725E14",
"8  c #746214",
"9  c #7B6B13",
"0  c #776714",
"q  c #5E4321",
"w  c #5F4822",
"e  c #634523",
"r  c #684626",
"t  c #644825",
"y  c #654B2B",
"u  c #6B4C2C",
"i  c #6A4729",
"p  c #714C2E",
"a  c #6A502E",
"s  c #694F32",
"d  c #714E32",
"f  c #6D5334",
"g  c #6F583A",
"h  c #745236",
"j  c #79553B",
"k  c #735B3B",
"l  c #7D593E",
"z  c #775239",
"x  c #765E41",
"c  c #7D5941",
"v  c #7A6345",
"b  c #7C654B",
"n  c #7E694B",
"m  c #766144",
"M  c #7D6B53",
"N  c #817413",
"B  c #857A13",
"V  c #887C16",
"C  c #825D46",
"Z  c #865F4A",
"A  c #816B4F",
"S  c #88634D",
"D  c #8D6653",
"F  c #826D52",
"G  c #8C6A54",
"H  c #946C5B",
"J  c #916B55",
"K  c #89745C",
"L  c #887359",
"P  c #98705E",
"I  c #8D7B62",
"U  c #8A7760",
"Y  c #9C7363",
"T  c #917C64",
"R  c #967D68",
"E  c #976E60",
"W  c #A3786B",
"Q  c #AA7E72",
"!  c #A67C70",
"~  c #8B8213",
"^  c #878011",
"/  c #918C13",
"(  c #908711",
")  c #9A9515",
"_  c #9C9A12",
"`  c #969311",
"'  c #A39E10",
"]  c #A8A90F",
"[  c #ADB20E",
"{  c #B2BA0F",
"}  c #A4A512",
"|  c #AAAB12",
" . c #ADB211",
".. c #B4BB12",
"X. c #B0B212",
"o. c #BAC40E",
"O. c #BAC311",
"+. c #BDC711",
"@. c #C1CD0E",
"#. c #C5D30E",
"$. c #CCDF0A",
"%. c #CADC0A",
"&. c #C2CC11",
"*. c #C5D311",
"=. c #CCDB11",
"-. c #CEE20A",
";. c #CEE307",
":. c #D1E50B",
">. c #D3E90B",
",. c #D4E711",
"<. c #95836B",
"1. c #96836A",
"2. c #998671",
"3. c #9A8973",
"4. c #9C8D78",
"5. c #9E907B",
"6. c #8F8067",
"7. c #AA8478",
"8. c #B2867C",
"9. c #B3877C",
"0. c #A3937D",
"q. c #B68982",
"w. c #B98C85",
"e. c #BB8D88",
"r. c #A59684",
"t. c #AA9D8B",
"y. c #A89986",
"u. c #BE918A",
"i. c #AD9D90",
"p. c #ADA18E",
"a. c #B2A593",
"s. c #B6AA9B",
"d. c #B9AD9E",
"f. c #B5A897",
"g. c #B0A191",
"h. c #BBAFA0",
"j. c #BDB2A3",
"k. c #BEB6A9",
"l. c #C2938E",
"z. c #C59691",
"x. c #C79995",
"c. c #C99995",
"v. c #CD9D9C",
"b. c #D09D9B",
"n. c #D0A19E",
"m. c #CFA09D",
"M. c #CF9FA0",
"N. c #D4A3A4",
"B. c #D9A6AB",
"V. c #DCAAAD",
"C. c #D8A6A7",
"Z. c #C1B6A9",
"A. c #C4BAAC",
"S. c #C0B4A7",
"D. c #DEABB1",
"F. c #C7BCB2",
"G. c #C9BEB3",
"H. c #CFA1A0",
"J. c #E1AEB3",
"K. c #E5B2B7",
"L. c #E6B2B9",
"P. c #E9B5BC",
"I. c #CAC2B5",
"U. c #CCC4BC",
"Y. c #CCC6BA",
"T. c #D2CABE",
"R. c #D0C6BB",
"E. c #EEBAC2",
"W. c #EDB7C1",
"Q. c #F3BBC6",
"!. c #F5BDCA",
"~. c #F8BFCD",
"^. c #F6B7C6",
"/. c #F9BFD0",
"(. c #D3CBC2",
"). c #D9CECA",
"_. c #DAD3CB",
"`. c #D7D2C8",
"'. c #DDD9D3",
"]. c #F5C1CC",
"[. c #F9C1CE",
"{. c #FDC4D3",
"}. c #FFC8D7",
"|. c #F6C8D4",
" X c #E2DCD5",
".X c #E1DED9",
"XX c #F5D4DC",
"oX c #F6D9DE",
"OX c #E5E1DC",
"+X c #EAE5DD",
"@X c #F7D8E1",
"#X c #E6E4E1",
"$X c #E9E7E3",
"%X c #EBE9E6",
"&X c #ECECEC",
"*X c #EAE6E9",
"=X c #F1EFED",
"-X c #F8E7EA",
";X c #F2F1EE",
":X c #EEEFF1",
">X c #F7EEF0",
",X c #EFF1F1",
"<X c #F4F4F4",
"1X c #FAF5F5",
"2X c #F9F8F6",
"3X c #F6F7F9",
"4X c #FBF6F9",
"5X c #F6F8FA",
"6X c #FDFDFD",
"7X c #EFF0EF",
/* pixels */
"6X6X6X&X&X&X6X6X6X<X&X&X6X6X6X<X&X&X6X6X6X<X&X&X<X6X6X<X&X&X<X6X6X<X&X&X<X6X6X6X&X&X<X6X6X6X&X&X&X6X6X6X&X&X&X6X6X6X$XI.i.<.L F n F <.s._.1X6X3X&X<X6X6X6X&X&X<X6X6X6X&X&X<X6X6X6X&X&X&X6X6X6X<X&X&X6X6X6X<X&X&X<X6X6X<X&X&X<X6X6X<X&X&X<X6X6X<X&X&X<X6X6X6X<X&X",
"6X6X6X<X&X&X6X6X6X&X&X&X6X6X6X<X&X&X6X6X6X<X&X&X6X6X6X<X&X&X6X6X6X6X&X&X<X6X6X<X&X&X<X6X6X6X&X&X7X6X6X6X&X&X6X5X(.<.f ; O % O % O % # % ; k 3.U.<X6X6X6X<X&X&X<X6X6X<X&X&X<X6X6X6X&X&X<X6X6X6X<X&X&X6X6X6X<X&X&X6X6X6X<X&X&X<X6X6X6X&X&X<X6X6X6X&X&X<X6X6X6X<X&X",
"6X6X6X&X&X&X6X6X6X<X&X&X6X6X6X<X&X&X<X6X6X<X&X<X<X6X6X<X<X&X<X6X6X6X&X&X<X6X6X6X&X=X<X6X6X6X7X7X7X6X6X6X3X<Xj.b % O % ; < < < < < < ; ; ; % o & A R.6X6X<X&X&X<X5X6X6X&X&X<X6X6X<X&X&X<X6X6X6X<X&X<X6X6X6X<X&X&X<X6X6X<X<X&X<X6X6X6X&X&X<X6X6X<X<X&X<X6X6X6X&X&X",
"<X&X&X6X6X6X<X&X&X6X6X6X&X&X&X6X6X6X<X&X&X6X6X6X<X&X&X6X6X6X<X&X&X<X6X6X6X&X&X<X6X5X6X&X&X<X6X6X5X=X&X5XOXK @ O ; 3 ; ; ; ; ; ; ; ; ; ; ; ; 3 ; O % I .X6X6X6X<X&X&X<X6X6X6X&X&X<X6X6X6X&X&X&X<X6X6X&X&X&X6X6X6X<X&X<X<X6X6X<X<X&X<X6X6X<X&X<X<X6X6X6X&X&X&X6X6X",
"&X&X&X6X6X6X<X&X&X6X6X6X&X&X&X6X6X6X<X&X&X<X6X6X<X&X&X<X6X6X<X&X&X<X6X6X6X&X&X<X6X6X6X&X&X&X6X6X6X&X<Xj.e O < < ; & ; ; < ; ; & & ; ; < ; ; ; ; < ; O y R.6X6X<X&X&X<X6X6X6X&X&X<X6X6X6X&X&X&X6X6X6X<X&X&X6X6X6X<X&X&X<X6X6X<X&X&X<X6X6X<X&X&X<X6X6X6X&X&X&X6X6X",
"&X<X&X6X6X6X<X&X&X6X6X6X<X&X&X6X6X6X<X&X<X<X6X6X<X&X<X<X6X6X<X<X<X<X6X6X<X&X&X<X6X6X6X&X&X<X6X6X6X4Xy.# % < ; ; < < ; % O + ; < : ; % O % ; : ; ; ; ; & ; j.6X<X&X7X<X6X6X<X&X<X<X6X6X<X&X<X&X6X6X6X<X&X&X<X6X6X<X&X&X6X6X6X<X&X&X<X6X6X6X&X&X<X6X6X<X&X<X&X6X6X",
"6X6X6X&X&X&X6X6X6X<X&X&X6X6X6X<X&X<X<X6X6X<X&X&X<X6X6X<X&X&X<X6X6X<X&X&X<X6X6X6X&X<X<X6X6X6X&X&X3Xr.O ; < ; ; < < O ; c Q c.B.K.J.C.l.W j % O ; ; ; ; < & % f.6X6X6X<X&X&X<X6X6X6X&X&X<X6X6X6X<X&X&X6X6X6X<X&X&X<X6X6X<X&X&X<X6X6X<X&X&X<X6X6X<X&X&X<X6X6X6X&X&X",
"6X6X6X<X&X&X6X6X6X&X&X&X6X6X6X&X&X&X6X6X6X<X&X&X6X6X6X<X&X&X6X6X6X6X&X&X<X6X6X5X&X&X&X6X6X6X&X<Xy.o , ; ; ; ; % = H C.].}.{.[.[.[.{.{.{.!.N.D % & < ; ; ; ; % j.6X6X<X&X&X<X6X6X<X&X&X<X6X6X6X<X&X&X6X6X6X<X&X&X6X6X6X<X&X&X6X6X6X6X&X&X<X6X6X6X&X&X<X6X6X6X<X&X",
"6X6X6X&X<X&X6X6X6X<X&X&X6X6X6X<X&X&X<X6X6X<X7X&X<X6X6X<X<X&X<X6X6X<X&X&X<X6X6X<X7X&X7X6X6X2X6Xk.% , < & ; < X j N.{.{.!.!.!.!.^.^.!.!.Q.!.{.{.c.u % 3 ; ; < & ; _.6X<X:X:X<X5X6X2X7X&X<X6X6X6X<X&X&X6X6X6X<X&X&X6X6X6X<X<X&X<X6X6X<X&X<X<X6X6X<X7X&X<X6X6X6X<X&X",
"&X<X&X6X6X6X&X&X&X6X6X6X,X&X&X<X6X6X<X&X&X6X6X6X<X&X&X<X6X6X<X&X&X<X6X6X6X&X&X<X6X6X4X&X&X<X+Xt @ < ; < < O J !.{.E.!.!.!.!.!.!.!.!.!.!.!.Q.Q.{.P.C O < & ; 3 O g $X2X6X6X<X&X&X<X6X6X2X&X&X&X<X6X6X<X&X&X<X6X6X<X&X&X<X6X6X<X&X&X<X6X6X<X&X&X<X6X6X<X&X&X&X6X6X",
"&X&X&X6X6X6X&X&X&X6X6X6X<X&X&X4X6X6X<X&X&X<X6X6X<X&X&X<X6X6X6X&X&X<X6X6X6X&X&X<X6X6X6X&X&X3XI O < ; & < O P {.!.E.!.!.!.!.!.!.!.!.!.!.!.!.!.!.^.~.!.D O < ; ; < O 3.6X6X6X2X&X&X,X6X6X6X&X&X&X6X6X6X<X&X&X6X6X6X<X&X&X6X6X6X<X&X&X<X6X6X6X&X&X<X6X6X6X&X&X&X6X6X",
"&X&X<X6X6X6X<X&X&X6X6X6X<X&X&X6X6X6X<X7X&X4X6X6X<X&X&X6X6X6X<X&X<X<X6X6X<X&X&X<X6X6X6X&X3XF.% ; ; < < O D {.!.!.!.!.!.!.!.!.!.!.!.!.!.!.!.!.!.!.Q./.!.l % : ; < ; < _.6X6X2X7X7X<X6X6X2X&X<X&X6X6X6X<X&X<X<X6X6X<X7X&X<X6X6X<X&X<X<X6X6X<X&X<X<X6X6X6X&X&X<X<X6X",
"6X6X6X<X&X&X6X6X6X&X&X&X6X6X6X<X&X&X6X6X6X<X&X&X6X6X6X<X&X&X<X6X6X<X&X&X<X6X6X6X&X&X<X6X6XA + ; ; < % d Q.!.!.!.!.!.!.!.!.!.!.!.!.!.!.!.!.!.!.!.!.Q.{.L.e & ; ; , O I <X&X<X6X6X2X&X&X,X6X6X6X<X&X&X6X6X6X<X&X&X4X6X6X<X7X&X6X6X6X6X&X&X<X6X6X<X&X&X<X6X6X6X<X&X",
"6X6X6X&X&X&X6X6X6X7X&X&X6X6X6X7X&X&X6X6X6X<X&X&X<X6X6X<X&X&X6X6X6X6X&X&X7X6X6X6X&X&X&X6XY.% 3 ; ; ; $ M.{.Q.!.!.!.!.!.~.!.!.!.!.!.!.].!.!.!.!.!.!.!.Q.{.w.% ; ; ; : ; (.<X<X6X6X6X&X&X<X6X6X6X<X&X&X6X6X6X<X&X&X6X6X6X<X&X&X<X6X6X<X&X&X<X6X6X6X&X&X<X6X6X6X<X&X",
"6X6X6X<X&X<X6X6X6X<X&X7X6X6X6X7X&X<X<X6X6X<X&X&X6X6X6X<X<X&X<X6X6X4X&X&X<X6X5X6X;X,X<X6XI O < ; < O J {.Q.!.!.!.!.!.!.!.!.!.!.!.!.!.!.!.!.!.!.!.!.!.!.!.!.l % ; ; 3 O 4.5X7X6X5X<X<X&X<X6X6X6X&X&X<X<X6X6X<X&X<X<X6X6X<X&X<X<X6X6X6X&X&X<X6X6X6X&X&X<X6X6X6X<X&X",
"&X&X&X6X6X6X&X&X&X6X6X6X&X&X&X6X6X6X<X&X&X6X6X6X<X&X&X<X6X6X<X&X&X<X6X6X6X&X&X<X6X6X6X'.e & < ; , ; C.{.!.!.!.!.!.!.!.!.!.!.!.!.!.!.!.!.!.!.!.!.!.!.!.^.{.z.% ; ; ; % k 2X5X&X&X<X6X6X3X&X&X&X6X6X6X<X&X&X<X6X6X<X&X&X<X6X6X<X&X&X<X6X6X<X&X&X<X6X6X<X&X&X&X6X6X",
"&X&X&X6X6X6X&X&X&X6X6X6X<X&X&X6X6X6X<X&X&X<X6X6X<X&X&X<X6X6X<X&X&X<X6X6X6X&X&X<X6X6X6Xd.O < ; < + S [.!.!.!.!.!.!.!.!.!.!.!.!.~.!.!.!.!.!.!.!.!.!.!.!.!.!.!.h & , ; ; % _.6X&X&X<X6X6X2X&X&X&X6X6X6X<X&X&X2X6X6X<X&X&X6X6X6X<X&X&X<X6X6X2X&X&X<X6X6X6X&X&X&X6X6X",
"&X<X&X6X6X6X<X&X&X6X6X6X<X&X&X<X6X6X<X&X&X6X6X6X<X&X&X6X6X6X<X<X,X<X6X5X6X&X&X<X6X2X6X<.O < ; < + w.}.Q.!.!.!.!.!.!.!.~.!.!.!.!.!.!.!.!.!.!.!.!.!.!.!.!.!.{.! O ; ; < O i.6X&X&X<X6X6X6X7X7X&X6X5X6X<X&X&X4X6X5X<X&X&X<X6X6X<X&X&X<X6X6X<X<X&X<X6X6X<X<X&X<X<X6X",
"6X6X6X&X&X&X6X6X6X<X&X&X2X6X6X<X&X&X6X6X6X<X&X&X6X6X6X<X&X&X<X6X6X<X&X&X&X6X6X6X&X&X;Xm O < < ; < V.[.^.!.!.!.!.!.!.!.!.!.!.!.!.!.!.!.!.!.!.!.!.!.!.!.!.!.{.m.% ; ; < O L 6X6X6X<X&X&X=X5X6X6X,X&X&X6X6X6X<X&X&X6X6X6X<X&X&X<X6X6X<X&X&X<X6X6X6X&X&X<X6X6X6X<X&X",
"6X6X6X<X&X&X6X6X6X&X&X&X5X6X6X<X&X&X6X6X6X<X&X&X<X6X6X<X&X&X<X6X6X6X<X3X6X6X6X6X<X<X.Xy - ; < $ j !.~.!.!.!.!.!.!.!.!.!.!.!.!.!.!.!.!.!.~.!.!.!.!.!.!.!.!.!.P.r & ; ; % g ;X6X6X6X4X3X6X6X6X6X2X&X&X4X6X6X<X&X&X2X6X6X<X&X&X6X6X6X<X&X&X<X6X6X<X&X&X,X6X6X6X&X&X",
"6X6X6X<X<X&X6X6X6X<X&X&X<X6X5X<X&X&X<X6X6X<X<X&X<X6X6X<X<X5X6X1X.XR.h.t.p.a.s.A.I..X(.< & ; < O D [.!.].!.!.!.!.!.!.~.^.!.!.!.!.!.!.!.].!.!.!.!.!.!.!.!.!.!.].l + < ; & t  XOXR.j.t.y.y.f.Z.(.'.&X5X6X6X6X7X=X7X<X6X6X<X<X&X<X6X6X<X<X&X<X6X6X<X7X7X<X6X6X6X<X=X",
"&X&X&X6X6X6X&X&X&X6X6X6X<X&X=X6X6X6X<X&X&X6X6X6X,X&X<X6X$Xj.I f < % O O O O O O $ t f ; ; ; < + W {.!.!.!.[.!.!.!.!.Q.[.!.!.!.!.!.!.!.!.!.!.!.!.!.!.].!.!.!.[.D O < ; ; 3 a 3 @ O O O . O + % e x 3.Z.OX3X6X6X6X<X&X&X<X6X6X<X&X&X4X6X6X6X&X&X<X6X6X<X&X&X&X6X6X",
"&X&X&X6X6X6X&X&X&X6X6X6X&X&X&X6X6X6X<X&X&X2X6X6X5X<XI.I e O O % ; ; < ; ; < < < < $ % ; ; & < X Q }.Q.!.!.!.!.!.!.!.!.!.!.!.!.!.!.!.!.!.!.!.!.!.!.!.!.!.!.Q.{.P O < ; & & & ; < , < < < 3 , < & % X + a 2.'.6X6X<X&X&X3X6X6X<X&X&X<X6X6X<X&X&X<X6X6X6X&X&X&X6X6X",
"<X<X&X6X6X6X<X&X&X6X6X6X<X<X&X<X6X6X<X&X&X<X6X6X`.L $ O & 3 3 , ; ; ; ; ; ; ; & ; ; < , ; ; < O 9.{.Q.!.!.!.!.!.!.!.!.!.~.!.!.!.!.!.!.!.!.!.!.!.!.!.!.!.!.Q.{.P O < ; ; ; ; ; & ; ; ; ; ; ; ; ; < < ; & O < 3.+X6X&X&X2X6X5X<X<X,X<X6X5X<X<X&X<X6X6X3X7X,X7X2X6X",
"6X6X6X<X&X&X6X6X6X<X&X&X6X6X6X<X&X&X6X6X6X2X&Xr.; O ; < ; ; ; ; ; < < < ; ; < , < < ; ; ; ; < O Q {.!.!.!.!.!.!.!.!.!.!.!.~.!.!.!.!.!.!.!.!.!.!.!.!.!.!.!.Q.{.H O < & < ; ; < < < < , ; ; 3 : ; ; & ; ; < & O e h.6X6X<X&X&X<X6X6X<X&X&X<X6X6X6X&X&X<X6X6X6X<X&X",
"6X6X6X&X&X&X6X6X6X&X&X&X6X6X6X<X&X&X2X6X6X$XM O ; < ; ; ; < < ; % O O % % % % % X O & < 3 ; < O W {.^.!.!.!.!.!.!.!.!.!.!.!.!.!.!.~.!.!.!.!.!.!.~.!.!.!.!.Q.[.D + < ; < < & O O + % $ $ % O O % ; < ; ; ; ; < & O <.6X2X*X&X2X6X6X<X&X&X<X6X6X<X&X&X&X6X6X6X&X&X",
"6X6X6X&X<X&X6X6X6X&X<X&X6X6X6X<X&X,X<X6X+Xk O 3 ; ; ; < ; + O e C W q.z.n.m.z.w.W S i # % & 3 O S [.!.!.!.!.!.!.!.].!.!.!.!.!.!.!.!.!.!.!.!.!.~.!.!.!.!.!.!.].j % < & X & p D 7.u.c.N.H.c.w.W C 3 O % ; ; ; ; ; < . A &X<X&X2X5X6X<X<X<X<X6X6X<X&X<X<X6X6X<X<X<X",
"&X&X&X6X6X6X&X&X&X6X6X6X&X&X&X<X6X6X3X.Xf O < ; ; ; ; $ % C e.L.[.}.{.{.{.{.{.{.{.{.P.x.J < O + z Q.!.!.!.!.!.!.!.!.!.!.!.!.!.!.!.!.!.!.!.!.!.!.!.!.!.!.!.].K.r & O t Y b.P.[.[.{.{.[.{.{.{.{.].L.w.c $ % < ; ; ; < O b 2X6X<X&X&X<X6X6X<X&X&X<X6X6X6X&X&X&X6X6X",
"&X&X&X6X6X6X&X&X&X6X6X6X&X&X&X6X6X6X;Xb O 3 ; ; ; , O j c.].{.~.Q.Q.Q.!.Q.!.!.Q.!.Q.].{.{.J.Y ; + V.[.!.!.!.!.!.!.!.!.!.!.!.!.!.!.~.!.!.!.~.!.!.!.~.!.!.^.{.v.o e 7.P.{.[.[.Q.Q.!.!.Q.Q.!.Q.Q.!.[.{.].z.h X < < ; ; < O I 6X<X&X&X<X6X6X6X&X&X<X6X6X<X&X&X&X6X6X",
"<X&X<X6X6X6X<X<X&X6X6X6X<X<X&X4X6X6X4.O < ; ; ; & % ! !.{.!.Q.!.!.!.!.!.].!.!.!.!.!.Q.Q.^.[.{.V.h ! }.!.!.!.!.!.!.!.!.!.!.!.!.!.!.!.!.!.!.!.!.!.!.!.!.!.!.{.H C J.{.].^.!.!.!.!.!.!.!.!.!.!.!.!.!.Q.!.{.Q.Y % ; ; ; ; < O a.6X=X<X<X6X6X<X<X&X<X6X6X6X<X<X&X6X6X",
"6X6X6X&X&X&X6X6X6X<X&X&X6X6X6X7X3XI.$ ; ; ; ; ; ; u.{.!.!.!.!.!.!.!.!.!.!.!.!.!.!.!.!.!.!.!.Q.{.Q.l.Q.!.!.!.!.!.!.!.!.!.!.!.!.!.!.!.!.!.!.!.!.!.!.!.!.!.].P.z.].[.^.!.!.!.!.!.!.!.!.!.!.!.!.!.!.!.!.!.Q.~.{.9.$ & ; ; ; & ; '.6X6X<X&X&X<X6X6X<X&X&X<X6X6X6X&X&X",
"6X6X6X&X&X&X6X6X6X;X&X&X5X6X6X<X&Xb O < ; ; ; & u.}.Q.!.!.!.!.!.!.!.!.!.!.!.!.!.!.!.!.!.!.!.!.Q.!.[.!.!.!.!.!.!.!.!.!.!.!.!.!.!.!.!.!.!.!.!.!.!.!.!.!.!.!.!.[.!.!.!.!.!.!.!.!.!.!.!.!.!.!.~.!.!.!.!.!.!.!.Q.}.q.% , ; ; ; O K 6X6X<X&X&X<X6X6X<X&X&X<X6X6X6X&X&X",
"6X6X6X&X<X<X<X6X<X<X<X&X6X6X<X6XZ.+ < ; ; < X 7.{.Q.!.!.!.!.!.!.!.!.!.!.!.!.!.!.!.!.!.!.!.[.!.!.~.^.!.!.!.!.!.~.!.!.!.!.!.!.!.!.!.!.!.!.!.!.!.!.!.!.!.!.!.!.!.!.!.!.!.!.!.!.!.!.!.!.!.~.!.!.!.!.!.!.!.!.!.!.Q.{.Y O ; ; ; ; & (.6X<X;X<X<X6X6X<X<X&X<X6X6X<X<X<X",
"&X&X&X6X6X6X<X&X&X6X6X6X&X&X&X6XK O < ; ; % c ~.!.!.!.!.!.!.!.!.!.!.!.!.!.~.!.!.!.!.!.!.!.!.!.!.!.!.!.!.!.!.!.].!.!.!.!.!.!.!.!.!.!.!.!.!.!.!.!.!.!.!.!.!.!.!.~.!.!.!.!.!.!.!.!.!.!.!.Q.!.!.!.!.!.!.!.!.!.!.Q.~.Q.d % < ; < O <.<X<X6X6X<X&X&X<X6X6X<X&X&X&X6X6X",
"&X&X&X6X6X6X7X&X&X6X6X6X7X&X<X.Xq & ; ; ; $ v.{.^.!.!.!.!.!.!.!.!.!.!.!.!.!.!.!.!.~.!.!.!.!.!.!.!.!.!.!.!.!.!.!.!.!.!.!.!.!.!.!.~.^.!.!.!.~.!.!.!.!.!.!.!.!.!.!.!.!.!.!.!.!.!.!.!.!.!.!.!.!.!.!.!.!.Q.~.!.!.~.Q.{.u.# ; ; ; % u OX2X6X6X3X&X&X<X6X6X6X&X&X&X6X6X",
"<X7X7X6X3X6X<X,X<X<X6X6X<X7X5Xd.O < ; < % l ].!.!.!.!.!.!.!.!.!.~.!.!.!.!.!.!.!.!.!.!.^.!.!.!.!.!.!.!.!.!.!.!.!.~.!.!.!.!.!.!.Q.!.!.!.!.!.!.!.!.!.!.!.!.!.!.!.!.!.!.!.!.!.!.!.!.!.!.!.!.!.!.!.!.~.!.!.!.!.!.!.!.!.Q.p % < ; , % A.6X2X6X<X,X<X<X6X6X<X<X&X<X<X6X",
"6X6X6X7X&X&X6X6X6X&X&X&X5X6X6X<.. 3 ; < O 8.{.Q.!.!.!.!.!.!.!.!.!.!.!.~.!.!.!.!.!.!.!.!.!.!.!.!.!.!.!.!.!.!.!.!.!.!.!.!.!.!.!.!.!.!.!.!.!.!.!.!.!.!.!.!.!.!.!.!.!.!.!.!.!.!.!.!.Q.!.!.!.Q.~.!.!.!.!.!.!.!.!.!.!.Q.{.Y O < ; < O t.6X%X&X<X6X6X2X&X&X<X6X6X6X<X&X",
"6X6X6X&X&X&X6X6X6X&X&X&X6X6X6Xv @ ; ; , % N.{.!.!.!.!.!.!.!.!.!.!.!.!.!.!.!.!.!.!.!.!.!.!.!.!.!.!.!.!.!.!.!.!.!.!.!.!.!.!.!.!.!.!.!.!.!.!.!.!.!.!.!.!.!.!.!.!.!.!.!.~.!.!.!.!.~.~.!.!.!.!.!.!.!.!.!.!.!.!.!.!.!.Q.{.x.% , ; ; O I 6X%X&X<X6X6X2X*X&X<X6X6X6X&X&X",
"6X6X4X<X<X<X2X6X6X<X<X<X<X6X$Xt & ; < % r L.~.!.!.!.!.!.!.!.!.!.!.!.!.!.!.!.!.!.~.!.!.!.!.!.!.!.!.!.!.!.!.!.!.!.!.!.~.].!.!.!.!.!.^.~.~.!.!.!.!.!.~.!.!.!.!.!.!.!.!.!.!.!.!.!.!.!.!.!.!.!.!.!.!.!.!.!.!.!.!.!.!.!.{.V.; ; ; < O n <X<X<X<X5X6X<X7X7X<X6X<X6X<X<X",
"&X&X&X6X6X6X&X&X&X6X6X6X7X<X'.q ; ; ; % d ^.~.!.!.!.!.!.!.!.!.].!.!.!.!.!.!.!.!.!.!.!.!.!.!.!.!.!.!.!.!.!.!.!.!.!.!.!.^.^.!.!.].].!.~.P.~.!.!.!.!.!.!.!.!.!.!.!.!.!.!.!.!.!.!.!.!.!.!.!.!.!.!.~.!.!.!.!.!.!.~.!.!.[.L.r % ; < % k <X6X6X2X&X&X<X6X6X6X&X&X&X6X6X",
"&X&X&X6X6X6X&X&X&X6X6X6X<X,X'.e & ; : % z !.!.!.!.!.!.!.!.!.~.!.!.!.!.[.[.!.!.!.!.!.!.!.!.!.!.!.!.!.!.!.!.!.!.!.!.~.^.~.@X-X1X6X2X1X-XoX~.^.!.!.!.!.!.!.!.!.!.!.!.!.!.!.!.!.!.!.!.!.!.!.!.!.!.!.!.!.!.!.!.!.!.!.!.!.P.u & ; < % k ;X6X6X<X&X&X<X6X6X6X&X&X&X6X6X",
"<X<X<X<X6X6X<X<X<X<X<X6X<X<X.X3 ; ; ; % d E.!.!.!.!.!.!.!.!.!.!.!.!.!.^.!.!.!.!.!.!.!.~.!.!.^.!.!.!.!.!.!.!.!.!.!.E.@X6X6X6X6X6X6X6X6X6X4XXXQ.!.!.!.!.!.!.!.!.!.!.!.!.!.!.!.!.!.!.!.!.!.!.!.!.Q.!.!.!.!.!.!.!.!.!.~.K.e & ; < O k <X6X<X<X&X<X<X6X6X<X<X<X<X6X<X",
"6X6X6X<X&X&X6X6X6X<X&X&X6X6X&Xy & ; < & e J.~.!.!.!.!.!.!.!.!.!.!.!.!.!.!.!.!.!.!.!.!.!.!.!.[.!.!.!.!.!.!.!.!.!.E.>X6X6X6X6X6X6X6X6X6X6X6X6X@X!.^.!.!.!.!.!.!.!.!.!.!.!.!.!.!.!.!.!.!.~.!.!.!.!.!.!.!.!.!.!.!.!.Q.{.C.& ; ; ; O L 6X&X&X<X6X6X6X&X&X<X6X6X6X&X&X",
"6X6X6X&X&X&X6X6X6X&X&X&X6X6X6Xn O < ; ; & v.{.!.!.!.!.!.!.!.!.!.!.!.!.!.!.!.!.!.!.!.!.!.!.!.!.!.!.!.!.!.!.~.!.!.-X6X6X6X6X6X6X6X6X6X6X6X6X6X6X-XQ.!.!.!.!.!.!.!.!.!.!.!.~.!.!.!.Q.!.!.!.!.!.!.~.!.!.!.!.!.!.!.!.Q.{.e.% < ; < O 2.6X&X&X<X6X6X<X&X&X&X6X6X6X&X&X",
"6X6X<X<X<X<X<X<X2X<X<X<X<X<X6X3.O < ; < O Q {.Q.!.!.!.!.!.!.!.!.!.!.!.!.!.!.!.!.!.!.!.!.!.!.!.!.!.!.!.].!.!.^.@X6X6X6X6X6X6X6X6X6X6X6X6X6X6X6X6XXX^.!.!.!.!.!.!.!.!.!.!.!.!.!.!.!.!.!.!.~.!.!.!.!.!.!.!.!.!.!.!.Q.{.H O ; ; < O a.6X&X<X<X<X6X<X&X<X<X<X6X6X<X&X",
"&X&X&X6X6X6X<X&X&X6X6X6X<X$X2XZ.O < ; ; % j !.!.!.!.!.!.!.!.!.!.!.!.!.!.!.!.!.!.!.!.!.].!.!.!.!.!.!.!.!.!.!.].6X6X6X6X6X6X6X6X6X6X6X6X6X6X6X6X6X1X!.!.!.!.!.!.!.!.!.!.!.!.!.!.!.!.!.!.!.!.!.!.!.!.!.~.!.!.!.!.!.~.P.u & ; ; & & U.6X6X6X6X&X&X<X6X6X6X&X&X&X6X6X",
"&X&X&X6X6X6X&X&X&X5X6X6X&X&X,XOXt & < ; < % c.{.!.!.!.!.!.!.!.!.Q.[.!.!.!.!.!.!.!.!.[.Q.!.!.!.!.!.!.!.!.!.^.@X6X6X6X6X6X6X6X6X6X6X6X6X6X6X6X6X6X6XXX^.].!.!.!.!.!.!.!.!.!.!.!.!.!.!.!.!.!.!.!.!.!.!.!.!.!.!.!.!.{.q.O < ; < + g #X<X6X6X<X&X&X<X6X6X6X&X&X&X6X6X",
"<X<X<X6X6X<X<X<X<X6X2X2X<X<X<X6XK O < ; < O l [.^.!.~.!.!.!.!.!.!.!.!.!.!.!.!.!.!.!.^.[.!.!.!.!.!.!.!.!.!.Q.>X6X6X6X6X6X6X6X6X6X6X6X6X6X6X6X6X6X6X-X^.!.!.~.!.!.~.!.!.!.~.!.!.!.!.!.!.!.!.!.!.!.!.!.!.!.!.!.!.!.Q.u % : & q O r.6X<X6X6X<X<X&X<X6X6X<X<X<X<X<X6X",
"6X6X6X&X&X&X6X6X6X<X&X&X6X6X6X5XA.O < ; ; < % 9.{.Q.!.!.!.!.!.!.!.!.!.!.[.!.!.!.!.!.!.!.!.!.!.!.!.!.!.!.^.].1X6X6X6X6X6X6X6X6X6X6X6X6X6X6X6X6X6X6X1X!.!.!.!.!.!.!.!.!.!.!.!.!.!.!.!.!.!.~.Q.~.!.!.!.!.!.!.!.Q.}.Y O < ; & & e OX6X<X&X&X<X6X6X<X&X&X<X6X6X6X<X&X",
"6X6X6X&X&X&X6X6X6X<X&X&X6X6X6X&X=Xb % < & ; ; < B.{.Q.Q.!.!.!.!.!.!.!.!.!.!.[.^.~.!.!.!.!.!.!.!.!.!.!.!.~.].2X6X6X6X6X6X6X6X6X6X6X6X6X6X6X6X6X6X6X1X!.!.!.^.!.!.!.!.!.!.!.!.!.!.!.!.!.!.Q.!.Q.~.!.!.!.!.!.^.{.c.& < ; ; < O 2.6X6X3X&X&X<X6X6X6X&X&X<X6X6X6X&X&X",
"6X<X6X<X<X<X6X<X<X<X<X<X<X6X<X<X5XI.% ; & ; < % p P.{.Q.!.!.!.!.!.!.!.!.!.!.Q.!.!.!.!.!.!.!.!.!.!.!.~.!.!.~.2X6X6X6X6X6X6X6X6X6X6X6X6X6X6X6X6X6X6X1X!.!.!.!.!.!.!.!.!.!.!.!.!.!.!.!.!.!.!.!.!.!.!.!.].!.Q.{.B.e & < ; ; & e OX6X6X<X<X<X<X6X6X<X<X<X<X<X<X6X<X<X",
"&X&X&X6X6X6X&X&X&X6X6X6X&X&X&X6X6X6X<.O < ; ; < % d K.{.Q.!.!.!.!.!.!.!.!.!.!.].!.!.!.!.!.!.~.!.!.!.!.!.!.!.1X6X6X6X6X6X6X6X6X6X6X6X6X6X6X6X6X6X6X-X^.~.!.!.!.!.!.!.!.!.!.!.!.!.!.!.!.!.!.!.~.!.!.!.Q.Q.}.B.i % < - ; < X f.6X$X&X<X6X6X<X&X&X<X6X6X6X&X&X&X6X6X",
"&X&X&X6X6X6X<X&X&X6X6X6X&X*X&X6X6X6X$Xf $ < < < < + u C.{.!.Q.!.!.!.!.!.!.!.!.!.!.!.!.!.!.!.!.!.!.!.!.!.!.^.-X6X6X6X6X6X6X6X6X6X6X6X6X6X6X6X6X6X6X@X^.!.!.!.!.!.!.!.!.!.!.!.!.!.!.!.!.!.!.!.!.!.!.!.!.}.c.e % ; < , < X K 6X<X&X&X<X6X6X6X&X&X<X6X6X6X&X&X&X6X6X",
"<X<X<X6X6X<X<X<X<X<X6X<X<X<X<X<X6X<X6X`.q % < & , < % ; 8.].{.!.!.!.!.!.!.!.!.!.!.!.!.!.!.!.!.!.!.!.!.!.!.!.|.6X6X6X6X6X6X6X6X6X6X6X6X6X6X6X6X6X6X].!.!.!.!.!.!.!.!.~.!.!.!.!.!.!.!.!.!.!.!.!.Q.!.[.Q.W % & 3 ; < < O g $X6X<X<X<X<X2X<X<X<X<X<X6X<X<X<X<X<X<X<X",
"6X6X6X&X&X&X6X6X6X<X&X&X5X6X6X<X&X&X<X6XY.& & < & < < ; O c c.].{.[.!.!.Q.!.Q.!.!.!.!.!.!.!.!.!.!.!.!.!.!.!.Q.-X6X6X6X6X6X6X6X6X6X6X6X6X6X6X6X6X-X^.].!.!.!.!.!.!.!.!.!.!.!.!.^.!.!.!.^.Q.!.[.{.].u.h O ; < ; ; < + y _.<X*X2X6X6X3X&X&X<X6X6X<X&X&X<X6X6X6X<X&X",
"6X6X6X&X&X&X6X6X6X&X&X&X6X6X6X<X&X&X6X6X6XA.- % < & ; ; < $ % l w.K.[.{.[.[.[.[.[.~.!.!.!.!.!.!.~.!.!.!.!.!.!.|.6X6X6X6X6X6X6X6X6X6X6X6X6X6X6X4X].!.!.!.!.!.!.!.!.!.!.!.!.!.!.{.{.~.{.{.{.[.J.8.h O % < ; ; ; < O y OX6X&X&X<X6X6X<X&X&X<X6X6X6X&X&X<X6X6X6X&X&X",
"6X<X6X<X<X<X6X<X6X<X<X<X<X6X<X<X<X<X<X6X<X6XT.y % < ; & & < < % O e S 7.z.C.J.L.D.E.~.!.!.!.!.!.!.!.~.!.!.!.!.E.|.6X6X6X6X6X6X6X6X6X6X6X6X6X5X|.!.!.!.!.!.!.!.!.!.!.!.!.!.!.P.B.J.D.N.l.! c < O % < ; ; & < < X g .X6X<X<X<X3X2X<X6X<X<X<X<X6X<X&X<X<X<X6X<X<X<X",
"&X&X&X6X6X6X&X&X&X6X6X6X&X&X&X6X5X6X7X&X&X<X6X%XM O ; < < ; ; < < & O O % < ; r q.Q.!.!.!.!.!.!.!.Q.!.!.!.!.!.!.Q.|.<X6X6X6X6X6X6X6X6X6X6X:X|.Q.!.!.!.!.!.!.!.!.!.!.!.!.!.!.Q.7.: ; ; O O % & < , ; ; < < & O 6.&X,X%X2X6X6X<X&X&X<X6X6X<X&X&X<X6X6X6X&X&X&X6X6X",
"&X&X&X6X6X6X<X&X&X6X6X6X<X&X&X6X6X6X<X&X&X6X6X6X2Xi.e O & ; ; ; ; ; < < < % i n.{.!.!.!.!.!.!.!.~.Q.!.!.!.!.!.!.~.Q.].@X<X6X6X6X6X6X6X>XXX!.!.!.!.!.!.!.!.!.!.!.!.!.!.!.!.!.!.{.c.3 % 3 < < ; ; ; ; < & O s Z.6X3X*X&X2X6X6X<X&X&X<X6X6X6X&X&X<X6X6X6X&X&X&X6X6X",
"<X<X<X<X<X<X<X<X<X<X<X6X<X<X<X<X6X<X<X<X<X<X4X<X<X6XOX2.< + ; ; & < & < % d K.{.Q.!.!.!.!.!.!.!.!.!.!.!.!.!.!.!.Q.!.!.^.!.|.XXoXoXXX|.!.^.!.!.!.!.!.!.!.!.!.!.!.!.!.!.!.!.!.].Q.{.J.u % < & ; ; ; ; O r 0.%X6X2X<X<X<X2X2X2X<X<X<X<X<X<X<X<X<X<X6X<X<X<X<X<X<X<X",
"6X6X6X&X&X&X6X6X6X<X&X&X6X6X6X<X&X&X2X6X6X<X&X&X2X6X6X6X'.K % ; , ; < % u L./.Q.!.!.!.!.!.!.!.!.Q.~.!.!.~.!.!.!.!.!.!.!.!.!.Q.Q.^.^.!.!.!.Q.].!.!.!.!.!.!.!.!.!.!.!.!.!.!.!.!.!.Q.{.J.r % < ; ; ; % <.=X6X<X*X&X2X6X6X<X&X&X<X6X6X<X&X&X<X6X6X<X&X&X<X6X6X6X<X&X",
"6X6X6X<X&X&X6X6X6X&X&X&X6X6X6X&X*X&X6X6X6X<X&X&X2X6X6X<X=XM @ < ; ; & e V.{.!.!.!.!.!.!.!.!.!.!.Q.!.Q.!.!.!.!.!.!.!.!.!.Q.!.!.!.!.].!.!.!.!.!.!.!.!.!.!.!.!.E.!.!.!.!.!.!.!.!.!.!.Q.[.N.: ; ; ; : O I 6X6X<X&X&X2X6X6X<X&X&X2X6X6X6X&X&X<X6X6X6X&X&X<X6X6X6X&X&X",
"6X<X<X<X<X<X6X<X6X<X<X<X<X<X6X<X<X<X<X<X3X<X<X<X3X<X<X6Xd.O ; ; ; < + u.{.Q.!.!.!.!.!.!.!.!.!.!.!.!.!.!.!.!.!.!.!.!.!.!.!.!.!.!.!.!.!.!.!.!.!.!.!.!.!.!.!.!.!.!.Q.!.!.!.!.!.!.!.!.Q.^.}.8.O , ; ; , O G.6X<X<X<X<X<X6X<X<X<X<X6X<X<X<X<X<X6X<X<X<X<X<X<X6X<X<X<X",
"&X&X&X6X6X6X&X&X&X6X6X6X&X&X&X6X6X6X<X&X&X2X6X6X<X&X&X<Xm % < ; < O S {.!.!.!.!.!.!.!.!.!.!.!.!.!.!.!.!.!.!.!.!.!.!.!.!.!.!.!.!.!.!.!.!.!.!.!.!.!.!.!.!.!.].!.Q.!.!.!.!.!.!.!.].!.!.!.!.].S O ; ; < O M &X2X6X6X<X&X&X3X6X6X<X&X&X<X6X6X<X&X&X<X6X6X<X&X&X&X6X6X",
"&X&X&X6X6X6X<X&X&X6X6X6X&X&X&X6X6X6X<X&X&X6X6X6X<X*X2XA.% ; ; ; - q D./.Q.!.!.!.!.!.!.!.!.!.!.!.!.!.!.!.!.!.).!.!.!.].!.!.!.!.!.!.!.!.!.!.!.!.!.!.!.!.!.!.!.].!.).!.!.!.!.!./.!.!.!.!.!.{.N.- < & , & & I.6X6X6X<X&X&X<X6X6X<X&X&X<X6X6X<X&X&X<X6X6X6X&X&X&X6X6X",
"<X<X<X6X6X<X<X<X<X<X6X<X<X<X<X<X6X<X<X<X<X<X6X<X<X<X6XT O 3 ; < # E |.E.!.!.!.!.!.!.!.!.!.!.!.!.!.!.!.!.!.!.!.!.!.!.!.!.!.!.!.!.!.!.!.!.!.!.!.!.!.!.!.!.!.!.!.!.!.!.!.!.!.!.!.!.!.!.!.!.Q.{.D O < & ; O 4.6X<X2X6X<X<X<X<X6X<X<X<X<X<X6X6X<X<X<X<X6X<X<X<X<X<X<X",
"6X6X6X&X&X&X6X6X6X&X&X&X6X6X6X<X&X&X<X6X6X<X&X&X4X6X=Xu % ; ; < - N./.!.!.!.!.!.!.!.!.!.!.!.!.!.!.!.!.!.!.!.!.!.!.!.!.!.!.!.!.!.!.!.!.Q.!.!.!.Q.!.!.!.!.!.!.!.!.!.!.!.!.!.!.!.!.!.!.!.!.Q.{.c.* < < < % g &X:X&X<X6X6X<X&X&X<X6X6X<X&X&X<X6X6X6X&X&X&X6X6X6X<X&X",
"6X6X6X&X&X&X6X6X6X<X&X&X6X6X6X<X*X&X6X6X6X<X&X&X<X6XR.% ; ; ; + c ~.!.!.!.!.!.!.!.!.!.!.!.!.!.!.!.!.!.!.!.!.!.!.!.!.!.!.!.!.!.!.!.!.!.!.!.!.!.!.!.!.!.!.!.!.!.!.!.!.!.!.!.!.!.!.!.!.!.!.Q.~.E.z $ < & , = (.,X*X6X6X6X<X&X&X<X6X6X<X&X&X<X6X6X<X&X&X<X6X6X6X&X&X",
"6X<X<X<X<X<X6X<X<X<X<X<X<X<X<X<X<X<X2X<X<X<X<X<X<X6Xy.O 3 ; ; O ! {.Q.!.!./.!.!./.!.!.!.!.!.!.E.!.!.!.!.!.!.!.!.!.!.!.!.Q.!.!.!.!.!.!.!.!.!.Q.].).!.!.!.!.!.!.E.E.].!.!.Q.!.!.].!.!.!.!.!.Q.{.Y O < ; < O a.6X<X<X<X6X<X<X<X<X<X<X<X<X6X<X<X<X<X<X<X<X<X6X<X<X<X",
"&X&X&X6X6X6X&X&X&X6X6X6X<X&X&X6X6X6X<X&X&X<X6X6X<X<XK O ; ; ; % x.{.!.Q.!.!.!.!.!.!.!.!.!.!.!.!.!.!.!.!.!.].!.!.!.!.!.!.!.!.!.!.!.!.!.!.!.!.Q.Q.!.!.!.!.!.!.!.!.!.!.!.!.!.!.!.!.!.!.!.!.!.Q.}.u.+ < ; 3 O 2.6X6X<X&X&X<X6X6X6X&X&X6X6X6X<X&X&X<X6X6X6X&X&X&X6X6X",
"&X&X&X6X6X6X&X&X&X6X6X6X&X&X&X6X6X6X,X&X&X6X6X6X<X%Xm O : ; : 3 V./.!.Q.!.!.!.!.!.!.!.!.!.!.!.!.!.!.!.!.!.E.!.!.!.!.!.!.!.!.!.!.!.!.!.!.E.!.!.!.!.!.!.!.!.!.!.].!.!.!.!.!.!.!.!.!.!.!.!.!.Q./.B.& & ; ; O F 6X6X<X&X&X<X6X6X<X&X&X<X6X6X6X&X&X<X6X6X2X&X&X&X6X6X",
"3X<X<X2X6X<X<X<X<X<X<X6X<X<X<X<X2X<X<X<X<X<X2X<X2X&Xh % ; ; & i W.~.!.!.!.!.!.!.!.!.!.!.!.!.!.!.!.!.!.!.!.!.!.!.!.!.!.!.!.!.!.!.!.!.!.!.!.!.!.!.!.!.!.!.!.!.!.!.!.!.!.!.!.!.!.!.!.!.!.!.!.!./.D.e & ; 3 @ k ;X6X<X<X<X<X<X6X<X<X<X<X<X<X<X<X<X<X<X6X6X<X<X<X<X<X",
"6X6X6X&X&X&X6X6X6X<X&X&X6X6X6X<X&X&X3X6X6X<X&X&X5X;Xu & ; ; % d E.~.!.!.!.!.!.!.!./.!.!.!.!.!.!.!.!.!.!.!.!.!.!.!.!.!.!.!.!.E.!./.E.!.!.!.!.!.!.!.!.!.!.!.!.!.!.!.!.!.!.!.!.!.!.!.!.!.!.!.!.].P.i % 3 ; % f $X&X<X6X6X<X&X&X<X6X6X<X&X&X<X6X6X2X&X&X<X6X6X6X<X&X",
"6X6X6X<X&X&X6X6X6X&X&X&X6X6X6X<X&X&X6X6X6X<X&X&X6X=Xa & ; , % z E.!.!.!.!.!.!.!.!.!.!.!.!.!.!.!.!.!.!.!.!.!.!.!.!.!.!.!.!.Q.{.C.D./.!.!.!.!.!.!.!.!.!.!.!.!.!.!.!.!.!.!.!.!.!.!.!.!.!.!.!.!.~.P.u % ; ; @ f #X&X6X6X6X<X&X&X<X6X6X<X&X&X<X6X6X2X&X&X<X6X6X6X&X&X",
"6X<X<X<X<X<X<X<X<X<X6X<X<X<X<X<X<X<X2X<X<X<X<X<X4X%Xf % ; ; & i W.~.Q.!.!.!.!.!.!.!.!.!.!.!.!.!.!.!.!.!.!.!.!.!.!.!.!.~.!.Q.}.Y ! |.!.!.!.!.!.!.!.!.!.!.!.!.!.!.!.!.!.!.!.!.!.!.!.!.!.!.!.Q.].K.r & < ; % k &X6X<X<X6X<X6X<X<X<X6X<X<X<X<X6X<X<X<X<X<X<X<X<X<X<X",
"&X&X&X6X6X6X<X&X&X6X6X6X&X&X&X6X6X6X<X&X&X6X6X6X<X&Xk % < ; & e J.{.Q.~.!.!.!.!.!.!.!.!.!.!.!.!.!.!.!.!.!.!.!.!.!.!.!.!.~.Q.!.d x /.!.!.!.!.!.!.!.!.!.!.!.!.!.!.!.!.!.!.!.!.!.!.!.!.!.!.!.!.{.B.; ; ; < O n 6X6X<X&X&X<X6X6X<X&X&X<X6X6X<X&X&X<X6X6X6X&X&X&X6X6X",
"&X&X&X6X6X6X&X&X&X6X6X6X&X&X&X6X6X6X<X&X&X2X6X6X<X;XF O < ; < % M.{.Q.!.!.!.~.!.!.!.!.!.!.!.!.!.!.!.!.!.!.!.!.!.!.!.!.!.!.{.c.% = N./.!.!.!.!.!.!.!.!.!./.!.!.!.!.!.!.!.!.!.!.!.!.!.!.!.!.!.{.z.O < ; < O T 6X6X<X&X&X6X6X6X<X&X&X<X6X6X<X&X&X<X6X6X6X&X&X&X6X6X",
"6X<X<X<X<X6X<X<X<X<X<X<X<X<X<X<X<X<X<X<X<X<X<X<X<X6X4.O < ; 3 O Q {.Q.!.!.!.!.!.!.!.!.!.!.!.!.!.!.!.!.!.!.!.!.!.!.~.!.!.!.].c + * G {.!.!.!.!.!.E.!.!.!.!.!.!.!.!.!.!.!.!.!.!.!.!.!.!.!.!.Q.{.Y O 3 ; < O y.6X<X<X<X<X<X<X<X<X6X<X<X<X<X<X6X<X<X<X<X<X<X6X<X<X<X",
"6X6X6X<X&X&X6X6X6X<X&X&X6X6X6X<X&X&X3X6X6X<X&X&X<X6XA.O < ; ; + l ].Q.!.!.!.!.!.!.!.!.!.!.!.!.!.!.!.!.!.!.!.!.!.Q.Q.~.Q.{.u.% < < % c.{.E.!.!.!.!.!.!.!.!.!.!.Q.!.!.!.!.!.E.!.!.!.!.!.!.!.!.E.h % < ; < % F.<X$X6X6X6X<X&X&X<X6X6X<X&X&X<X6X6X2X&X&X<X6X6X6X<X&X",
"6X6X6X&X&X&X6X6X6X&X&X&X6X6X6X<X&X&X6X6X6X<X&X&X2X6X$Xt & ; ; ; $ N.{.!.!.!.!.!.!.!.!.!.!.!.!.!.!.!.!.!.!.!.!.!.~.!.Q./.L.t $ ; ; $ d W./.!.!.!.!.!.!.!.!.!.!.!.!.!.!.!.!.!.!.!.!.!.!.!.Q.{.z.O < & < % u OX7X&X<X6X6X<X&X&X<X6X6X<X&X&X<X6X6X3X&X&X<X6X6X6X&X&X",
"<X<X6X<X6X<X<X<X<X<X6X<X<X<X<X<X6X<X<X<X<X<X6X<X<X<X6XL O ; ; ; + S {.E.!.!.!.!.!.!.!.!.!.!.!.!.!.!.!.!.!.!.!.!.!.!.^.].c % ; ; ; < O G {.Q.Q.!.!.!.!.!.!.Q.!.E.].!.!.!.!.!.!.!.!.!.!.Q.!.].c % : ; ; O 6.6X<X3X<X<X<X<X<X<X<X<X<X<X6X<X<X2X<X<X<X3X<X<X<X<X<X<X",
"&X&X&X6X6X6X&X&X&X6X6X6X<X&X&X6X6X6X<X&X&X<X6X6X<X*X3XZ.% ; ; ; ; + l.}.Q.Q.!.!.!.!.!.!.!.!.!.~.!.!.!.!.~.!.!.!.!.!.{.P % < ; ; ; ; < O W {.!.!.!.~.!.!.!.!.!.!.!.!.!.!.!.!.!./.!.!.!.Q.}.q.O < ; ; ; % F.6X6X6X<X&X&X6X6X6X<X&X&X<X6X6X<X&X&X<X6X6X<X&X&X&X6X6X",
"&X&X&X6X6X6X&X&X&X6X6X6X&X&X&X<X6X6X,X&X&X6X6X6X<X&X&X<Xm % < ; ; & r J.|.Q.!.!.!.!.!.!.!.Q.!.!.!.!.!.!.!.!.!.Q.~.|.Y O < ; ; ; ; < ; < O W [.].E.!.~.!.!.!.!.!.!.!.!.!.!.!.!.!.!.!.Q.}.C.< & ; ; < % v &X2X6X6X<X&X&X<X6X6X<X&X&X<X6X6X<X&X&X<X6X6X6X&X&X&X6X6X",
"<X<X6X<X<X<X<X6X<X<X<X<X<X6X<X<X3X<X<X2X<X<X<X<X<X6X<X6Xk.% < ; ; ; % d L.{.Q.!.!.~.!.!.!.!.!.!.!.!.!.!.!.Q.Q.{.P.D O < ; ; ; < ; & & < < + J Q.{.Q.Q.!.!.Q.!.!.E./.!.!.!.!.!.!.].^.{.V.u % < & ; ; % Y.6X<X<X<X<X<X3X<X2X<X6X<X<X6X<X<X<X<X6X<X<X<X<X6X<X6X<X<X",
"6X6X6X&X&X&X6X6X6X&X&X&X6X6X6X<X&X*X2X6X6X,X&X&X<X6X6X<X;XL O < ; ; < % u B.}.!.Q.!.!.!.!.~.!.!.!.!.!.Q.Q.|.{.v.h O < ; ; ; ; - $ ; ; < < , O z N.{.].Q.E.!.!.!.!.!.!.!.!.!.!.E.~.{.H.t % ; ; ; 3 . 1.6X6X<X&X&X6X6X6X<X&X&X<X6X6X<X&X&X<X6X6X<X&X&X<X6X6X6X<X&X",
"6X6X6X&X&X&X6X6X6X&X&X&X6X6X6X<X&X&X2X6X6X<X&X&X6X6X6X<X7X'.e @ < ; & < $ 3 7.Q.}./.!.E.E.!.Q.Q.Q.Q.~.{.{.D.H % % < < & ; ; & _ / * , & ; ; < $ ; E J.{.{.~.!.E.Q.!.Q.Q.E.!./.XXE.W = % ; ; ; 3 O f ;X6X6X<X&X%X<X6X6X<X&X&X<X6X6X6X&X&X<X6X6X6X&X&X<X6X6X6X&X&X",
"<X<X<X6X<X6X<X<X<X6X6X<X<X<X<X<X<X6X<X<X<X<X6X<X<X<X<X<X<X6X(.e ; ; ; ; < ; O d 7.D./.{.{.{.{.}.}.{.P.z.D ; O < < & ; < < $ V >.,.0 * < ; ; ; < ; X > H x.P.|.{.|.}.{.{.{.!.B.! u O , < ; & ; & t '.6X;X<X<X2X<X<X<X<X<X6X<X<X<X<X<X<X6X<X<X<X<X<X3X<X<X<X<X<X6X",
"&X&X&X6X6X6X&X&X&X6X6X6X&X&X&X6X6X6X<X&X&X6X6X6X;X&X<X6X6X<X&X3.% ; ; ; ; ; < % % e c Y 7.w.w.8.Y C r % % ; < ; ; < < & , # / -.:.B # < & ; < & ; < & O $ t S Y 7.q.q.Q H x - # $ < ; ; ; ; ; & a.1X%X<X5X6X6X6X;X&X&X6X6X6X<X&X&X<X6X6X<X&X&X<X6X6X<X&X&X&X6X6X",
"&X&X&X6X6X6X&X&X&X6X6X6X<X&X&X6X6X6X<X&X&X<X6X6X6X#XI.y.K g e q < & ; ; ; ; ; < ; - % X O % % X O + & ; < ; ; ; < & $ ; ; # / :.:.B # < ; O ; 3 ; ; ; < < & + X X % X O O % ; < < ; ; ; ; & ; ; 3 t k K y.(.2X6X6X&X*X2X6X6X3X&X&X<X6X6X6X&X&X<X6X6X6X&X&X&X6X6X",
"2X<X6X<X<X<X6X3X<X<X<X<X<X<X<X<X;X<X<X<X2X6X3XT.2.f % O O % & & ; ; ; & & & ; & ; ; < < < < < < < : ; ; ; < < < O e k $ < $ / :.:.B # < & k & O : < ; ; & < ; < > ; < < < < ; ; & ; < & ; ; ; , ; ; + O O & k 0.).5X6X<X<X<X<X2X3X<X<X<X<X<X<X<X<X<X<X<X<X<X<X<X",
"6X6X6X&X&X&X6X6X6X<X&X&X6X6X6X<X&X&X2X6X6Xj.b $ X % < < < < < , ; ; & < < ; & < ; ; & ; & < < - ; & ; < < & O & L OXg.O 1 * / :.-.B # < O G.R.k % O & < < ; & ; ; ; ; ; < & & ; ; & & ; ; ; ; ; ; ; ; 3 : ; % O ; L (.2X<X*X3X6X6X2X&X&X<X6X6X6X&X&X<X6X6X6X<X&X",
"6X6X6X&X&X&X6X6X6X&X&X&X6X6X6X<X&X,X6XT.b $ O < < < ; & < , < < , ; < & < , < < ; ; ; ; < & < < ; ; ; O O t T _.6X6Xy.O 3 * / :.-.B * < O I.6X&Xj.F q O O & < ; ; ; ; ; & ; < < < < , < ; ; ; ; ; , , ; ; ; ; : & O % L (.<X3X6X6X<X&X&X<X6X6X<X&X&X<X6X6X6X&X&X",
"<X<X<X6X6X<X<X<X<X6X<X6X<X<X<X<X5X=X2.$ O < < ; ; < < , < $ * * $ $ $ - $ * # - ; < < ; & - < , , ; 3 2.F.%X6X6X<X6Xp.X 3 # / :.>.B * < O k.6X<X6X6X`.i.U ; & ; ; ; ; ; ; , < = $ # * = = % = * * * * ; , ; ; ; ; < < O = 0.<X3X<X<X6X<X<X<X<X<X<X6X<X&X<X<X<X6X",
"&X&X&X6X6X6X=X&X&X6X6X6X&X&X&X6X=Xk O ; < ; ; ; < = # $ , 0 ^ _ | [ { [ ] ) B 6 , # * ; < , & ; ; & ; 0.6X6X2X&X$X2Xp.O < # / :.-.B # w O j.6X6X6X7X5X>X<.= < & & ; ; ; & * * 4 8 B ) } [ {  .| ) V 8 1 $ $ ; ; < & & < ; X M $X&X<X6X6X<X&X&X<X6X6X6X&X&X&X6X6X",
"&X&X&X6X5X6X&X&X&X6X6X6X7X&X&X6X0.. 3 ; ; ; ; & % 2 V [ *.-.>.>.>.>.;.>.>.>.:.-.+.} 0 , * & < & ; ; ; o n =X6X&X&X2Xp.O 3 $ / :.:.B * < O j.6X6X6X6X`.g . < ; ; < & ; % , 9 ] &.-.>.>.>.>.:.>.>.>.>.:.&.| N , $ - < ; ; < 3 X p.3X<X6X6X6X&X&X<X6X6X6X&X&X&X6X6X",
"6X3X2X<X<X<X6X<X<X<X<X<X3X2X3X2XA % < ; ; & * 5 ) #.>.:.-.-.%.%.%.%.=.%.%.%.%.-.;.:.>.O.B , * < ; : ; < O g .X6X<X6Xt.O < $ / :.:.B * < O A.6X&X5X`.t % 3 ; & < < # , / +.>.>.;.-.%.%.%.%.%.%.%.=.$.%.-.>.>.@./ 4 * ; , ; < O T 6X<X<X<X<X<X6X<X<X<X<X<X6X<X<X<X",
"6X6X6X&X&X&X6X6X6X<X&X&X6X6X6X=Xg % ; ; ; 1 / =.>.-.%.%.$.$.$.$.$.$.$.$.$.$.$.$.$.$.$.:.:.o.9 $ ; ; ; & < O f $X6X6Xt.O 3 * / :.-.B - q O I.5X7X(.e % < < < , < & 9 +.:.-.%.%.=.%.-.-.%.%.-.-.=.$.$.$.$.=.=.:.>.#.~ & ; ; < O L 6X<X&X&X<X6X6X<X&X&X<X6X6X6X<X&X",
"6X6X6X&X&X&X6X6X6X<X&X&X6X6X6X#Xu & < , = 9 ,.-.%.$.$.-.$.-.$.$.$.$.$.$.$.$.$.$.$.$.$.%.%.:.>.) - & < ; < 3 @ k ;X6Xy.O 3 $ / :.:.B # < O F.6X'.y + 3 ; < , - , } >.:.%.=.-.-.%.%.-.%.-.=.=.%.%.=.$.$.$.$.$.%.%.:.,.7 - ; < @ x 6X2X%X&X<X6X6X6X&X&X<X6X6X6X&X&X",
"<X<X<X6X<X6X<X<X<X<X<X6X<X=X<XOXt & ; , * B ;.%.$.$.$.$.$.$.$.$.$.$.$.-.$.$.-.$.$.$.$.$.$.%.$.,...2 & , ; ; 3 O L 6Xp.. 3 # / :.-.B $ < O S.6Xx % < & ; < * 6 +.>.-.%.-.-.-.%.-.-.%.-.%.-.-.%.-.$.$.$.$.$.$.$.$.%.-.0 - < ; % h &X2X2X2X<X<X<X<X<X6X<X&X<X<X<X6X",
"&X&X&X6X6X6X&X&X&X6X6X6X&X&X<X'.< & ; , * B >.%.$.$.$.$.$.$.-.$.$.$.$.$.$.$.$.$.$.$.$.$.-.$.$.%.:.+.5 = , & ; 3 . a.d.o 3 $ / :.:.B * < O A.5.X < ; & < * 8 +.-.%.-.-.%.-.%.-.%.%.-.%.-.%.-.-.%.$.-.$.$.$.$.$.$.%.-.9 * < ; % a #X2X6X6X<X&X&X<X6X6X6X&X&X&X6X6X",
"&X&X&X6X6X6X<X&X&X6X6X6X7X&X<XOXt & ; < * B >.-.$.$.$.$.$.;.$.$.$.$.$.$.$.$.$.$.$.$.$.$.$.$.-.$.%.:.&.5 & < ; ; @ i K & , # / :.:.B * < & T < ; ; < , * 8 -.:.%.-.-.%.-.%.-.%.-.-.%.-.-.-.-.%.-.$.$.$.$.$.$.$.$.$.:.0 * ; ; % f #X<X6X6X6X&X&X<X6X6X6X&X&X&X6X6X",
"<X6X6X<X<X<X6X<X6X<X&X<X2X4X5X#Xy & ; , $ N :.%.$.-.$.$.$.$.$.$.$.$.$.$.$.$.$.$.$.$.$.$.=.$.$.=.$.$.:.+.1 = , ; ; & , , ; % / :.:.B # < ; & ; ; & , = 5 +.-.%.-.-.%.-.%.-.%.=.-.%.-.-.%.-.=.%.-.$.$.$.$.$.$.=.$.%.$.8 = , ; % j <X3X,X,X<X<X6X<X<X&X<X6X<X6X<X<X",
"6X6X6X&X&X&X6X6X6X<X&X&X5X6X6X&Xf % ; , * 0 ,.%.$.$.$.$.$.$.$.$.$.$.$.$.;.$.$.$.$.$.$.=.-.$.=.$.$.$.%.>.X.= ; ; ; ; ; ; , * / :.>.^ * < ; ; ; ; ; ; , O.:.%.=.-.=.%.%.-.%.-.-.%.=.-.%.-.%.%.%.-.$.$.=.-.$.=.$.$.-.=.5 = , : O F 6X4X&X&X<X6X6X<X&X&X<X6X6X6X&X&X",
"6X6X6X&X&X&X6X6X6X&X&X&X6X6X6X<Xv % < : = 5 =.%.$.$.$.$.$.$.$.$.$.$.$.$.$.$.$.;.$.-.$.$.$.$.-.$.$.$.$.;.>.~ * < ; ; ; ; ; * / :.:.9 # < ; & ; ; ; $ _ >.%.%.-.%.-.-.%.-.-.%.-.%.-.%.-.%.-.%.-.%.$.$.$.$.$.$.$.$.:.+.1 ; ; < O I 6X<X&X&X<X6X6X6X&X&X<X6X6X6X&X&X",
"<X<X<X<X6X6X<X&X<X<X6X3X<X<X7X6X<.O < ; ; , o.;.$.$.%.-.%.-.%.-.;.$.$.$.$.$.$.$.$.$.$.$.$.$.$.$.$.$.$.$.:.=.5 = ; ; ; ; : # ( :.:.B # - < < - , * 8 -.%.-.-.-.%.-.%.%.-.%.-.-.%.-.%.-.%.-.%.%.-.$.$.$.$.-.$.$.%.>. .$ ; ; < O r.6X<X<X6X<X&X<X<X<X6X<X<X&X<X<X6X",
"&X&X&X6X6X6X&X&X&X6X6X6X7X&X&X6Xs.O < ; < - } :.%.$.-.%.-.%.%.-.$.$.$.$.$.$.$.$.;.$.$.$.$.$.$.$.$.$.$.$.%.>.} * ; ; ; ; ; # / :.:.B # < < & & < , ..:.-.-.%.%.-.%.-.-.%.-.%.%.-.%.-.%.-.%.-.-.%.-.$.$.$.$.$.$.%.>./ * ; ; ; % k.<X<X6X6X6X&X&X<X6X6X6X&X&X&X6X6X",
"&X&X&X6X6X6X&X&X&X6X6X6X7X&X&X6X`.& & ; < # B :.%.-.$.-.-.%.-.%.$.$.$.$.$.-.$.$.$.$.$.$.$.$.;.$.$.$.$.$.$.$.$.6 $ < ; & , * / :.:.B - < ; ; < * 9 >.%.%.%.-.%.-.-.-.%.-.-.%.-.%.%.-.%.-.-.-.%.-.$.$.$.$.$.$.$.$.-.8 * < ; & e '.7X<X6X6X<X&X&X<X6X6X6X&X&X&X6X6X",
"<X6X6X<X<X<X<X6X<X<X<X<X<X6X2X3X&Xh % < < - 4 *.;.%.-.%.%.-.%.-.$.$.$.$.$.$.$.$.$.$.$.$.$.;.$.$.$.$.$.$.=.$.>.) * , ; ; ; % / :.;.B # < ; , < $  .;.%.-.-.%.-.%.%.-.-.%.%.-.%.-.-.%.-.%.-.%.-.%.$.$.$.-.$.$.$.>...; ; ; ; % n 6X5X<X<X<X<X2X6X<X<X<X<X<X6X<X<X<X",
"6X6X6X&X&X&X6X6X6X<X&X&X6X6X6X=X3X2.O ; < < # _ >.%.-.%.-.-.%.-.$.$.$.$.$.$.$.$.$.$.$.$.$.$.$.$.$.$.$.$.$.$.-.@.1 = ; ; ; $ / :.-.B # < ; , - 5 =.-.;.%.-.%.-.%.+.-.-.%.-.-.%.-.-.%.-.-.%.-.%.-.$.$.$.$.$.$.%.:.~ * ; ; < O g.6X6X<X&X&X<X6X6X<X&X&X<X6X5X6X<X&X",
"6X6X6X&X&X&X6X6X6X&X&X&X6X6X6X<X<XI.% ; & < - 5 %.-.%.-.-.%.-.%.$.$.$.;.$.$.$.;.$.$.$.$.$.$.$.$.$.-.$.$.$.$.$.:.0 = , ; ; * / :.>.B # ; & < * ^ ;.;.-.-.%.-.%.-.;.-.%.-.-.%.-.%.%.-.-.%.-.%.-.-.$.-.$.$.$.$.-.&.1 ; , ; ; < .X6X6X4X&X&X<X6X6X6X&X&X<X6X6X6X&X&X",
"<X<X<X6X6X6X<X<X<X<X6X6X<X<X<X<X2X6Xb O < ; < # _ >.%.-.-.-.%.-.$.$.$.;.$.$.$.$.$.$.;.$.$.$.$.$.$.$.$.-.$.$.%.>./ * ; ; ; * / :.-.B * < & < $ } >.;.%.-.-.%.%.-.;.-.-.%.-.%.%.-.-.%.-.%.%.-.-.%.$.$.$.-.$.%.>.~ * 3 ; < O I 6X,X<X<X6X2X<X<X<X<X6X<X<X<X<X&X6X6X",
"&X&X&X6X6X6X&X&X&X6X6X6X&X&X&X<X6X6Xj.O < ; < ; , *.;.%.%.%.-.%.$.$.$.$.$.$.$.$.$.$.$.$.;.$.$.$.$.$.$.$.$.-.$.:.| & ; ; , * / :.>.B # < ; ; & o.>.+.-.-.%.-.-.-.-.-.%.-.%.-.-.%.%.-.%.-.-.%.%.-.$.$.$.$.%.:...& ; ; ; ; % T.6X*X&X<X6X6X<X&X&X<X6X6X<X&X&X&X6X6X",
"&X&X&X6X6X6X&X&X&X6X6X6X&X&X&X6X6X6X<Xk % ; ; ; * 9 ,.-.%.%.-.-.$.$.$.$.$.$.$.$.-.$.$.$.$.$.$.$.$.$.$.-.$.$.%.:.O.& ; ; ; # / >.-.B * ; ; ; 4 *.-.%.%.-.%.-.-.%.-.%.-.-.%.-.-.%.-.%.-.-.-.%.-.%.$.$.$.$.$.%.6 = , ; < X K 6X<X&X&X<X6X6X<X&X&X<X6X6X6X&X&X&X6X6X",
"6X<X6X<X<X<X6X6X<X<X<X<X<X6X<X<X<X&X6XI.% ; ; ; ; * / >.%.-.-.%.$.$.$.$.;.$.$.$.$.$.$.$.$.;.$.$.;.$.$.%.$.-.$.-.@.1 & ; ; * / :.,.B * ; , - 5 %.%.-.-.%.-.%.%.-.%.-.-.%.-.%.%.-.%.-.-.%.%.-.%.-.$.$.%.$.>.N * ; ; ; ; & (.3X<X6X6X<X<X<X<X6X6X<X<X<X<X6X<X6X<X<X",
"6X6X6X&X&X&X6X6X6X<X&X&X6X6X6X<X&X&X2X6XT O < ; ; ; $ ' >.%.%.-.;.$.$.$.$.$.$.$.$.$.;.$.$.$.$.$.%.$.%.-.$.$.%.-.#.4 & ; ; # / :.:.^ # ; < * 7 -.-.-.%.-.-.%.-.%.-.%.-.%.%.-.-.%.%.-.%.-.%.-.%.-.$.$.%.>.( * q ; ; < . 0.6X*X2X6X6X<X&X&X<X6X6X6X&X&X<X6X6X6X&X&X",
"6X6X6X&X&X&X6X6X6X&X&X&X6X6X6X<X&X&X6X6X=Xs % ; ; ; ; = } >.%.%.$.$.$.$.$.$.$.$.$.$.$.$.$.$.$.$.$.$.-.$.$.$.%.:.#.2 & ; ; * / :.:.9 * ; < * 8 =.$.$.-.%.%.-.%.-.%.-.%.-.-.%.%.-.-.%.-.%.-.%.-.-.$.$.>.( * ; ; ; < O m 7X&X&X<X6X6X<X&X&X<X6X6X<X&X&X&X6X6X6X&X&X",
"<X<X<X<X6X6X<X&X<X<X6X6X<X<X<X2X6X2X<X&X5XR.$ ; ; ; , ; $ / ,.-.%.$.$.$.;.$.$.$.$.$.$.$.$.$.$.$.-.%.-.%.$.$.$.$.@.2 & , ; $ / :.:.B # < < - 6 %.$.$.$.$.-.-.%.-.%.-.%.-.-.%.-.%.%.-.-.%.-.%.%.%.:.$.B * ; ; ; < ; < `.6X2X6X<X<X<X<X6X6X<X<X<X<X6X6X<X<X<X<X<X6X",
"&X&X&X6X6X6X&X&X&X6X6X6X&X&X&X3X6X6X,X&X&X6Xh.X ; ; ; < ; # 9 &.>.%.%.$.$.$.$.$.$.$.$.$.$.$.$.$.%.-.$.-.$.%.%.>.+., ; & ; * / :.-.B # < , - 4 =.:.%.$.-.-.%.-.%.-.%.-.%.%.-.%.-.%.-.-.%.%.%.-.:.+.7 * ; ; ; ; ; % S.3X<X6X6X<X&X&X<X6X6X<X&X&X<X6X6X6X&X&X&X6X6X",
"&X&X&X6X6X6X&X&X&X6X6X6X&X&X&X6X6X6X<X&X&X<X6Xt.X < < ; < < $ 2 } :.>.$.%.$.$.$.$.;.$.$.$.$.$.$.-.%.$.%.%.:.>.*.9 & ; ; ; $ / :.:.B * < ; ; - ^ *.>.;.%.%.%.%.-.-.-.%.-.-.%.%.-.-.%.%.-.-.>.-._ , * , ; ; < & % s.2X&X<X6X6X<X&X&X<X6X6X<X&X&X<X6X6X<X&X&X&X6X6X",
"6X6X6X<X<X&X6X6X<X<X<X<X<X6X6X<X<X<X<X6X6X<X7X6Xr.% & < ; , < - = 8 | $.>.:.$.%.%.%.$.$.$.$.$.%.%.-.;.:.>.@./ , $ ; < & ; * / :.:.B * < & ; < * 4 ) #.>.:.;.%.%.%.%.%.%.-.%.-.%.%.-.:.,.=.} 5 * ; ; ; ; ; % % f.6X6X5X<X<X<X<X6X6X<X<X,X<X6X6X<X<X<X<X6X<X6X<X<X",
"5X6X6X&X&X&X6X6X6X=X&X&X5X6X6X<X&X&X6X6X6X<X&X&X6Xd.& % < ; ; ; < = $ 6 ` o.$.>.>.:.;.-.;.-.:.:.:.:.#.] B , * ; ; ; ; ; , * / >.-.B $ < ; ; ; ; = * 4 V X.#.>.>.:.:.:.:.;.:.:.>.>.%.../ 5 % = ; , ; ; < % ; S.4X<X6X6X<X&X&X<X6X6X<X&X&X<X6X6X6X&X&X<X6X6X6X<X&X",
"6X6X6X&X&X&X6X6X6X&X&X&X6X6X6X&X&X&X<X6X6X<X&X&X<X6X(.y O ; < ; ; < ; = * , 6 B _  ...O.o.o.{ } / 9 2 * * ; , ; ; ; < ; ; * / >.>.B # , ; < ; ; < < = * $ 5 9 / ] { ..o.o...| ` N 6 - $ - , ; ; ; ; ; O x ).3X*X<X6X6X<X&X&X<X6X6X<X&X&X<X6X6X<X&X&X<X6X6X6X&X&X",
"<X<X;X6X6X6X<X7X<X6X5X6X<X&X<X<X5X6X<X&X&X<X6X6X<X&X5X$XT O @ 3 < ; ; , , ; = * # # $ & - - - $ # $ = < < < ; & 3 ; % < ; $ N >.=.0 * 3 ; O ; ; & ; ; , ; ; = * * = & & & $ - # * = ; , ; ; ; ; < % % <.%X6X3X5X<X&X<X<X6X6X<X<X<X<X6X6X6X&X&X<X<X6X<X&X<X&X6X6X",
"&X&X&X6X6X6X&X&X&X6X6X6X<X&X&X6X6X6X<X&X&X6X6X6X<X&X&X6X6XI.k O @ : ; ; ; ; ; , < < < , < < & < < , ; & ; < < ; O ; F < & , ; 0 8 = ; ; e F % O ; < < ; ; ; ; ; ; ; ; ; ; ; < , < < ; ; < < : O O n Y.2X&X6X6X6X<X&X&X6X6X6X<X&X&X<X6X6X<X&X&X<X6X6X6X&X&X&X6X6X",
"&X&X&X6X6X6X&X&X&X3X6X6X&X&X&X3X6X6X<X&X&X<X6X6X<X&X&X<X6X6X;Xs.k % O ; < ; < < < & < & ; ; ; ; ; ; < < ; % O < K U.6XL O 3 < * = < 3 X <.2XI.L & O % < < ; ; ; ; ; ; ; ; & & < ; : < ; % O @ A G.6X6X&X&X<X6X6X<X&X&X<X6X6X<X&X&X<X6X6X6X&X&X<X6X6X<X&X&X&X<X6X",
"6X6X4X<X<X7X6X6X6X<X;X7X6X6X6X<X<X<X<X6X6X<X<X&X<X6X6X<X<X&X6X6X2XI.U t O O O & & < < < < < ; ; ; + O O $ g 0.'.6X6X3X'.f . & < < &   m ;X6X6X3XT.2.h % O O % ; ; ; : ; < < < & & O O O a 2.T.2X5X&X<X6X6X<X,X<X<X6X6X<X<X<X<X6X6X<X&X<X<X6X6X<X<X<X<X6X6X6X<X<X",
"6X6X6X<X&X&X6X6X6X<X&X&X2X6X6X<X&X&X2X6X6X<X&X&X6X6X6X<X&X&X<X6X6X6X3X'.Z.0.n f e - % % O $ % ; e g K a.U.$X2X6X6X6X&X<X'.<.y ; ; y 2.;X6X6X<X&X,X6X2X(.y.F h e & % % % % % & e f F 4.G.;X6X6X7X&X&X2X6X6X<X&X&X<X6X6X<X&X&X<X6X6X2X&X&X<X6X6X6X&X&X<X6X6X6X&X&X",
"6X6X6X&X&X&X6X6X6X7X&X&X6X6X6X<X&X&X6X6X6X<X&X&X2X6X6X<X&X&X<X6X6X<X&X<X6X6X6X&X(.k.h.d.f.j.j.I.'.;X6X6X3X=X&X6X6X6X7X&X<X6X%X(.R..X<X6X5X6X<X&X&X<X6X6X6X,X#X_.T.A.h.t.f.j.R. X%X,X5X6X6X6X6X<X&X&X6X6X6X<X&X&X6X6X6X<X&X&X6X6X6X3X&X&X<X6X6X<X&X&X<X6X6X6X<X&X"
};
