/* XPM */
static char *kuromi_success1754264454[] = {
/* columns rows colors chars-per-pixel */
"128 128 223 2 ",
"   c #161616",
".  c #171817",
"X  c #171818",
"o  c #1B1B1B",
"O  c #181718",
"+  c #221D1D",
"@  c #2C1E1E",
"#  c #1E201E",
"$  c #20201F",
"%  c #1D1F21",
"&  c #211F20",
"*  c #1D252A",
"=  c #1D2A32",
"-  c #1C303B",
";  c #232323",
":  c #2A2525",
">  c #262823",
",  c #2B2C26",
"<  c #282728",
"1  c #2C2B2B",
"2  c #24292A",
"3  c #322423",
"4  c #312D2E",
"5  c #3A2624",
"6  c #32342C",
"7  c #373B2D",
"8  c #302F30",
"9  c #392E32",
"0  c #343334",
"q  c #393637",
"w  c #383738",
"e  c #3C3B3C",
"r  c #373F30",
"t  c #263233",
"y  c #42221F",
"u  c #482926",
"i  c #582D29",
"p  c #43353A",
"a  c #423D3E",
"s  c #48383E",
"d  c #4F302B",
"f  c #6A342D",
"g  c #76342D",
"h  c #6E3831",
"j  c #3E4B36",
"k  c #3C4734",
"l  c #3C442F",
"z  c #434936",
"x  c #49563D",
"c  c #59573C",
"v  c #42432D",
"b  c #61623D",
"n  c #1E3847",
"m  c #213A48",
"M  c #403F40",
"N  c #4D3D43",
"B  c #553E47",
"V  c #1D4458",
"C  c #1D5776",
"Z  c #1C4D68",
"A  c #22526B",
"S  c #22495F",
"D  c #444344",
"F  c #494647",
"G  c #484748",
"H  c #4C4B4C",
"J  c #504F4F",
"K  c #55434A",
"L  c #585848",
"P  c #504F50",
"I  c #584C51",
"U  c #4F5151",
"Y  c #555455",
"T  c #595657",
"R  c #5C5B5B",
"E  c #5A5758",
"W  c #4D5C42",
"Q  c #654C55",
"!  c #694A56",
"~  c #615D5E",
"^  c #675259",
"/  c #556A47",
"(  c #5D724C",
")  c #79754A",
"_  c #6A6E49",
"`  c #635E60",
"'  c #695E63",
"]  c #785763",
"[  c #646364",
"{  c #686666",
"}  c #696668",
"|  c #6B6A6B",
" . c #686867",
".. c #706F6F",
"X. c #75656B",
"o. c #796B70",
"O. c #737373",
"+. c #7C7B7B",
"@. c #797577",
"#. c #873C34",
"$. c #923D35",
"%. c #93493A",
"&. c #AA4439",
"*. c #B8463B",
"=. c #CA4A3E",
"-. c #825D6A",
";. c #856973",
":. c #99677A",
">. c #88777C",
",. c #90767E",
"<. c #9A6D4C",
"1. c #C65D48",
"2. c #DB5343",
"3. c #E65142",
"4. c #F15243",
"5. c #D6664B",
"6. c #EB6C4E",
"7. c #698555",
"8. c #77985F",
"9. c #728F5D",
"0. c #7EA264",
"q. c #7B9B62",
"w. c #9B9759",
"e. c #A29C5E",
"r. c #8BB66C",
"t. c #82A767",
"y. c #B3AD64",
"u. c #A99F5F",
"i. c #C5BD6C",
"p. c #98C975",
"a. c #9CD277",
"s. c #F4E67E",
"d. c #ECE17C",
"f. c #DDD276",
"g. c #1E658A",
"h. c #1D6F9A",
"j. c #237099",
"k. c #217AA9",
"l. c #207FB1",
"z. c #1E7EB0",
"x. c #9C7A86",
"c. c #827F80",
"v. c #A66E83",
"b. c #A17D89",
"n. c #BA7A93",
"m. c #B4728C",
"M. c #C67C9A",
"N. c #2183B8",
"B. c #1E91CD",
"V. c #208CC4",
"C. c #848383",
"Z. c #8C8B8B",
"A. c #888787",
"S. c #908F8F",
"D. c #96838C",
"F. c #939393",
"G. c #9C9B9B",
"H. c #989897",
"J. c #90908F",
"K. c #AD8592",
"L. c #B88999",
"P. c #A09F9E",
"I. c #AA979E",
"U. c #A8828E",
"Y. c #A1A09F",
"T. c #B598A3",
"R. c #A4A3A3",
"E. c #ABAAAA",
"W. c #A8A7A6",
"Q. c #B3ABAF",
"!. c #B0B0AF",
"~. c #B4B3B3",
"^. c #BCBBBB",
"/. c #B8B7B7",
"(. c #C08C9E",
"). c #CB87A1",
"_. c #CA95A6",
"`. c #D599AD",
"'. c #DC9CB1",
"]. c #D888A8",
"[. c #E38AAF",
"{. c #EA8BB2",
"}. c #E68DB1",
"|. c #E59DB6",
" X c #F191B7",
".X c #C6ACB8",
"XX c #C0BFBF",
"oX c #CCB4BF",
"OX c #EDA5BD",
"+X c #E9A5BB",
"@X c #F1A6BF",
"#X c #F0A8BF",
"$X c #FCED81",
"%X c #D8B9C7",
"&X c #C0BFC0",
"*X c #F3A7C0",
"=X c #F5A9C1",
"-X c #EBAAC0",
";X c #C4C3C3",
":X c #CECECE",
">X c #C8C7C7",
",X c #D0CFCF",
"<X c #D0CFD0",
"1X c #D3D3D3",
"2X c #DBDBDB",
"3X c #D8D7D7",
"4X c #CFD0D0",
"5X c #E4C4D3",
"6X c #F2CBDD",
"7X c #E0DFDF",
"8X c #E0E0DF",
"9X c #F6CDE0",
"0X c #F0D5E1",
"qX c #E3E3E3",
"wX c #E8E7E7",
"eX c #EBEBEB",
"rX c #F0EFEF",
"tX c #F0F0EF",
"yX c #F6F5F5",
"uX c #F8F7F7",
"iX c #FEFEFE",
"pX c #F8F8F8",
"aX c #F0EFF0",
/* pixels */
"iXiXiXiXiX2X:X:X4X:XeXiXiXiXiXeX:X:X4X:X2XiXiXiXiXiX1X:X:X1X1XyXiXiXiXiXqX:X:X:X:XwXiXiXiXiXyX:X:X:X:X3XiXiXiXiXpX3X:X:X:X4XyXiXiXiXiXwX:X:X:X:XqXiXiXiXiXyX1X:X:X4X1XiXiXiXiXiX2X:X4X1X>X1XwXpXiXiXeX4X4X4X:X2XiXiXiXiXiX1X:X:X:X4XyXiXiXiXiXqX:X:X:X:XqXiXiXiX",
"iXiXiXiXiX2X:X:X:X:XeXiXiXiXiXeX:X:X:X:X2XiXiXiXiXyX1X4X4X:X1XyXiXiXiXiX2X:X:X:X:XwXiXiXiXiXeX1X:X:X:X3XiXiXiXiXiX3X:X:X:X4XyXiXiXiXiXwX:X:X:X:XqXiXiXiXiXyX1X:X4X:X3XyXiXiXiXiX2X1X>X+.G w M  ./.iXeX4X4X:X:X2XiXiXiXiXiX1X:X:X:X1XyXiXiXiXiXqX:X:X:X:XwXiXiXiX",
"iXiXiXiXiX2X:X:X:X:XeXiXiXiXiXeX:X:X:X:X2XiXiXiXiXyX1X:X:X:X1XyXiXiXiXiXqX:X1X:X:XwXiXiXiXiXyX:X4X:X:X3XiXiXiXiXiX1X:X4X4X4XyXiXiXiXiXwX:X:X:X:X2XiXiXiXiXyX1X:X4X:X1XyXiXiXiXiX2X^.J o X # o   ; J.wX4X:X:X:X2XiXiXiXiXyX1X:X:X:X4XyXiXiXiXiXqX:X:X:X:XwXiXiXiX",
"iXiXiXiXiX2X:X:X:X1XeXiXiXiXiXeX:X:X:X:X2XiXiXiXiXiX1X:X:X:X:XyXiXiXiXiX2X:X:X:X:XwXiXiXiXiXeX:X:X:X:X3XiXiXiXiXiX3X:X:X:X:XeXiXiXiXiXwX:X:X:X:XqXiXiXiXiXyX:X:X:X:X1XiXiXiXiXiX2X|   # e G G 8 o ; E.1X:X:X:X2XiXiXiXiXiX1X:X:X:X1XyXiXiXiXiX2X:X:X:X:XwXiXiXiX",
"eXyXeXyXeX8X2X2X2XqXeXeXtXtXeXwX2X2X2XqXqXeXyXeXyXeXqX2X2X2XqXeXeXyXeXtXwX2XqX2X2XwXyXeXtXtXeX2X2X7X2XqXeXtXtXtXeXqX2X8X2X8XwXyXtXtXaXwX2X2X2XqXwXaXtXtXtXeX7X2X2XqX8XeXeXyXaXtX1Xw o e Y Y T Y 1   | 8X2X2XqXqXeXyXeXaXeX8X8X2X2XqXeXtXtXtXyXqXqX2XqX2XwXtXtXtX",
":X:X:X:X1XyXiXiXiXiXqX:X4X4X4XqXiXiXiXiXyX1X:X:X:X1XiXiXiXiXiX2X:X:X1X:XeXiXiXiXiXwX:X4X4X4XqXiXiXiXiXyX3X:X4X4X1XyXiXiXiXiX2X4X4X4X4XwXiXiXiXiXeX4X4X:X4X2XiXiXiXiXiX1X:X:X:X1X>X1 o G E Y Y Y 0 . ~ iXiXiXiXyX1X:X:X4X3XiXiXiXiXiX3X:X4X4X1XeXiXiXiXiXwX:X4X4X",
"4X:X:X4X1XyXiXiXiXiXqX:X4X:X:XqXiXiXiXiXyX1X:X:X:X1XiXiXiXiXiX3X:X:X4X4XyXiXiXiXiXwX:X:X:X:X2XiXiXiXiXyX1X4X4X:X1XyXiXiXiXiX2X4X4X4X:XwXiXiXiXiXeX4X:X:X:X2XiXiXiXiXpX3X:X4X:X1X2Xw o w Y T T U 1 . @.iXiXiXiXyX1X:X4X4X1XpXiXiXiXiX2X:X4X:X:XeXiXiXiXiXwX:X4X:X",
":X4X:X:X4XyXiXiXiXiXqX:X:X4X:XwXiXiXiXiXeX4X:X:X:X3XiXiXiXiXiX3X:X1X:X4XeXiXiXiXiXeX:X:X:X:X7XiXiXiXiXyX1X:X4X:X1XiXiXiXiXiX2X:X4X:X:XeXiXiXiXiXeX4X:X:X:X2XiXiXiXiXiX3X:X:X:X1XyXC.. # w G D 8 o ; ^.iXiXiXiXyX4X:X4X4X1XiXiXiXiXiX2X:X:X4X4XeXiXiXiXiXeX:X:X4X",
",X:X4X:X4XyXiXiXiXiX8X4X1X:X:XqXiXiXiXiXyX:X:X1X:X3XpXiXiXiXiX3X:X1X:X:XeXiXiXiXiXwX:X1X4X:X2XiXiXiXiXpX1X:X:X:X1XyXiXiXiXiX2X:X4X:X:XwXiXiXiXiXeX1X1X:X:X3XiXiXiXiXiX1X:X4X:X4XyXwXM X o o o o > c.wXiXiXiXiXtX4X:X:X:X1XiXiXiXiXiX2X:X4X4X4XeXiXiXiXiXeX:X:X:X",
"eXeXeXeXeXwXqXqXwX8XwXeXeXeXeXwXqXqXwXqXqXeXeXeXeXwXwXqXwX8XwXwXeXeXeXeXwXwXqXqXqXwXeXeXeXeXeXqXwXqXqXwXeXeXeXeXeXqXqXwXqXqXeXeXwXeXeXwXwX8XwXqXwXeXeXeXeXeXwXqX8XqXwXwXeXeXeXeXwXF.; o < < o X | eXwXqXqXqXwXwXeXeXeXeXwXwX8XwXqXqXeXeXeXeXeXwXqXwXqXwXwXeXeXeX",
"iXiXiXiXiX3X:X:X:X4XeXiXiXiXiXeX:X:X:X:X2XiXiXiXiXiX4X:X:X4X4XyXiXiXiXiX2X:X:X:X:XwXiXiXiXiXtX:X:X:X:X3XiXiXiXiXiX1X:X:X:X:XyXiXiXiXiXwX:X:X:X:X2XiXiXiXiXyX:X:X:X:X1XpXiXiXiXiX!.1 X 0 Y Y w X 8 >XaX:X:X:X:X2XiXiXiXiXiX1X:X:X:X:XyXiXiXiXiX8X:X:X:X>XwXiXiXiX",
"iXiXiXiXiX3X:X4X:X4XeXiXiXiXiXwX:X:X4X:X2XiXiXiXiXpX1X:X:X4X4XpXiXiXiXiXqX:X:X:X:XwXiXiXiXiXtX:X:X:X:X3XiXiXiXiXiX3X:X:X:X4XtXiXiXiXiXqX:X:X:X:XqXiXiXiXiXyX4X:X4X4X3XpXiXiXiXwXG   < P Y Y P < X T 2X:X:X:X:X2XiXiXiXiXpX1X:X:X:X1XyXiXiXiXiX8X:X:X:X:XwXiXiXiX",
"iXiXiXiXiX2X4X4X4X:XeXiXiXiXiXwX:X:X:X:X2XiXiXiXiXpX1X:X4X4X1XyXiXiXiXiX8X:X4X4X:XwXiXiXiXiXeX:X:X:X:X3XiXiXiXiXiX1X:X:X4X:XtXiXiXiXiXwX4X4X:X:X8XiXiXiXiXyX4X:X:X:X1XpXiXiXpXO.X ; G T Y Y T G * o A.1X:X:X:X2XiXiXiXiXpX1X4X4X:X1XyXiXiXiXiXqX:X4X4X:XwXiXiXiX",
"iXiXiXiXiX2X4X1X1X1XeXiXiXiXiXwX4X1X1X4X2XiXiXiXiXyX3X4X1X4X1XyXiXiXiXiX8X4X1X4X:XwXiXiXiXiXyX4X4X1X4X3XpXiXpXiXpX3X1X1X1X1XtXiXiXiXiXwX4X1X1X4X8XiXiXiXiXyX1X1X1X1X3XyXiXiXG.o o e Y Y Y Y Y Y w . 1 E.1X1X1X2XiXiXiXiXpX3X1X4X1X1XyXiXiXiXiX8X1X4X1X4XqXiXiXiX",
"2X3X3X3X3XyXpXpXyXyXqX1X3X3X3XwXpXyXyXyXaX3X3X3X3X2XyXyXyXyXyX2X3X3X3X3XeXpXyXpXpXwX1X3X2X3XqXpXyXyXpXyX3X3X3X3X2XtXyXyXyXyXqX3X3X3X3XwXpXyXyXpXeX3X3X3X3X8XyXyXpXyXyX2X2XE.1 X 0 Y Y Y Y T Y Y H >   Y wXpXpXeX2X3X3X3X2XyXyXyXyXyX2X3X3X3X2XeXyXyXpXpXwX3X3X3X",
":X:X:X4X;X;X>X8XiXiXqX:X:X:X:XwXiXiXiXiXtX4X4X4X4X1XiXiXiXiXiX3X:X:X4X4XtXiXiXiXiXwX:X:X:X4X2XiXiXiXiXpX1X:X4X:X1XpXiXiXiXiX2X:X:X:X:XwXiXiXiXiXaX4X:X:X:X3XiXiXiXiXpX3X&XF X < U Y Y Y Y Y Y Y Y F % o S.iXiXyX:X:X:X:X1XiXiXiXiXiX3X:X:X:X:XeXiXiXiXiXwX:X:X:X",
"4X4X>X@.w > ; 0 | 4XqX:X:X:X:XqXiXiXiXiXtX4X:X:X4X3XiXiXiXiXiX2X:X:X:X:XeXiXiXiXiXwX:X:X:X:X2XiXiXiXiXpX1X:X:X:X1XpXiXiXiXiX2X:X4X4X:XwXiXiXiXiXeX4X4X:X:X2XiXiXiXiXiX3X .X ; F Y Y Y Y Y Y Y Y Y Y w O 1 >XiXtX4X:X:X4X1XpXiXiXiXiX2X:X:X:X:XeXiXiXiXiXeX:X:X:X",
"4X;XY o o ; ; o   w E.1X:X:X:XqXiXiXiXiXyX:X:X:X:X1XpXiXiXiXiX3X:X:X:X:XyXiXiXiXiXeX:X:X:X:X2XiXiXiXiXpX1X:X:X:X1XpXiXiXiXiX2X:X:X:X4XwXiXiXiXiXeX:X:X:X:X2XiXiXiXiXiXG.o o e Y Y Y Y Y Y Y Y Y Y Y J <   Y eXyX4X:X:X:X3XiXiXiXiXiX3X:X:X:X:XeXiXiXiXiXeX:X:X:X",
"2XA.  % e P Y F >   G 1X2X2X2XqXyXyXyXyXeX2X2X2X2X2XyXyXyXyXyX2X3X2X2X2XeXyXyXyXyXwX2X2X2X3X8XyXyXyXyXeX2X2X2X2X2XtXyXyXyXyX8X3X3X3X2XwXyXyXyXyXeX3X2X2X2X2XyXyXyXyX3Xw X 8 Y Y Y Y Y Y Y T Y Y Y Y Y F *   A.yX2X3X3X2X2XyXyXyXyXyX8X2X3X2X3XeXyXyXyXyXwX2X2X3X",
"yXY   0 Y T Y Y G o > >XiXiXiXeX:X1X1X4X2XiXiXiXiXyX1X1X:X4X1XyXiXiXiXiX2X4X4X1X:XwXiXiXiXiXaX1X4X1X4X3XpXiXiXiXpX3X:X1X4X1XyXiXiXiXiXwX:X1X1X4XqXiXiXiXiXyX1X:X1X4X~ X ; H Y Y Y Y Y Y Y Y Y Y Y Y Y Y e O 1 ~.iXiXiXiXpX1X1X4X4X4XyXiXiXiXiXqX1X1X:X:XwXiXiXiX",
"eXF X e Y Y Y Y P ; o A.>X,X3X1X&X>X:X:X2XiXiXiXiXpX3X1X4X4X1XyXiXiXiXiX2X:X:X4X:XwXiXiXiXiXtX4X:X4X:X2XiXiXiXiXiX3X:X:X:X:XtXiXiXiXiXqX:X:X:X:X8XiXiXiXiXyX1X<X1XI.o o M Y Y Y Y Y Y Y Y Y Y Y Y Y Y Y Y 1   H eXiXiXiXpX1X:X4X:X4XyXiXiXiXiXqX:X:X:X:XwXiXiXiX",
"yXE   8 Y Y Y E D o o o $ < 1 0 0 e H Y [ +.A.H.W.E.R.E.~.^.&XwXyXiXiXiXqX1X1X1X4XwXiXiXiXiXeX:X:X:X:X3XiXiXiXiXiX3X:X:X:X:XtXiXiXiXiXwX:X:X:X:X8XiXiXiXiXyX1X<X;Xm O 6 Y Y Y Y Y Y Y Y Y Y Y Y Y Y Y Y Y G # o S.iXiXiXiX1X4X:X4X4XyXiXiXiXiX8X:X4X:X:X8XiXiXiX",
"iXE.o o w G H M ; o > 1 < ; + * # o o X X       X o o ; > 1 0 D U E { ..@.+.A.J.G.^.1X2XwXiXyX:X:X:X:X3XiXiXiXiXpX1X:X:X:X:XyXiXiXiXiXwX:X1X1X4XqXiXiXyXyXqX>X>Xt.O $ G Y Y Y T Y Y Y Y Y Y Y Y Y Y Y Y Y Y w o 1 >XiXiXpX1X:X:X:X4XyXiXiXiXiX8X:X:X>X:XwXiXiXiX",
"wX8X@.o O o & O O % M Y J Y H H G G D M e e w 0 0 1 < 2 ; ; o o X X       . . o o ; > 1 w Z.wXwXwXqXwXwXwXwXwXwXwXwXwXwXwXwXwXeXeXeXeXqX:X~.G.c.O.| Y H F D M M 3 O * 0 0 e D G P Y Y Y T Y Y Y Y Y Y Y Y Y H 1 X T 2XeXwXwXwXwXwXwXwXwXeXwXeXwXwXwXwXwXwXwXeXeX",
"4X4X:XJ.H w 0 H w   1 H Y Y Y Y T Y T Y Y T Y Y Y Y Y P H H H G F D e e w w 0 1 < < ; * o 1 >XiXiXiXiXpX4X:X:X:X1XpXiXiXiXiXqX>X~.H.O.Y e ; o X X + + O o o o o & % % % X X X % % 1 w m H Y Y Y Y Y Y Y Y Y Y F + o c.1X3XiXiXiXiXiX3X:X:X:X:XaXiXiXiXiXeX:X:X:X",
"4X4X:X1X:X2X8XyX;X1 o 0 Y Y Y Y Y Y Y Y Y Y Y Y Y Y Y Y Y Y T T Y T T Y Y Y Y Y Y J J G ;   @.iXiXiXiXpX1X4X:X:X1XyXiXiXiX3XA.H 1 o   X o ; 1 0 w m N z G G G G N M N I ! ! Q K 9 & + + + 1 w G Y T Y Y Y Y Y Y 0 o 1 ~.3XyXiXiXiXiX3X:X:X4X4XeXiXiXiXiXeX:X:X:X",
":X:X:X:X1XyXiXiXiXG.o o D Y Y Y Y Y Y Y Y Y Y Y Y Y Y Y Y Y Y Y Y Y Y Y Y Y Y Y Y Y Y Y e o 1 <XiXiXiXyX1X:X4X:X1XpXeXE.R 1 o o # < 0 e G P Y T Y T Y Y Y Y Y Y ..n.`.|.@X*X@XOX'.(.:.K 1 O o + 1 w H Y Y Y Y Y L ; o R 3XpXiXiXiXiX2X:X:X:X:XeXiXiXiXiXwX:X:X:X",
"4X1X:X1X1XyXiXiXiXuX| . ; F Y Y Y Y Y Y Y Y Y Y Y Y Y Y Y Y Y Y Y Y Y Y Y Y Y Y Y Y Y Y Y <   O.iXiXiXyX1X4X1X1X&XZ.D o   o 1 w G Y Y E Y Y Y Y Y Y Y Y Y Y ~ K.+X=X=X=X*X*X*X*X@X@X@XOX_.-.8 ; O o ; 0 G Y Y Y ^ m o # W.iXiXiXiXiX2X:X:X1X4XeXiXiXiXiXeX:X1X4X",
"tXyXyXyXeXqX2X2X2X2X1XG X < U Y Y Y Y Y Y Y T Y Y Y Y Y Y Y Y Y Y Y Y Y Y Y Y Y Y Y Y Y Y e o > ~.2X2X2XyXyX1XC.0 X o > w F Y Y T Y Y Y Y T Y Y Y Y Y Y Y R L.=X*X*X@X@X@X@X*X-X@X@X@X=X=X*Xb.J e 1 o o ; 0 H Y Y Y 1   { 7X2X2X2X2XeXyXyXyXtXwX2X2X2X2XwXyXtXtX",
"iXiXiXiXiX2X:X:X:X:XtX>X1 X 0 Y Y Y Y Y Y Y Y Y Y Y Y Y Y Y Y Y Y Y Y Y Y Y Y Y Y Y Y Y Y Y 1   Y :X4X2XyXW.D X o > e H Y T Y Y Y Y Y Y Y Y Y Y Y Y Y Y Y x.*X*X*X-X@X@X*X*X@X*X@X@X*X=X=X=X|.X.Y Y D 1 # o ; e Y T 0   Y 4X:X:X:X4XyXiXiXiXiX8X:X:X:X:XqXiXiXiX",
"iXiXiXiXiX2X:X:X4X4XeXiXG.* o e Y Y Y Y Y Y Y Y Y Y Y Y Y Y T Y Y Y Y Y Y Y Y T Y Y Y Y Y Y D o ; G.3X/.{ o X > e Y T Y Y Y Y Y Y Y Y Y Y Y Y Y Y Y Y Y E `.=X*X+X`.OXOX-X@X@X@X@X@X|.L._.@X=Xb.U Y Y Y D 1 o o 4 e * o J.3X:X:X:X1XyXiXiXiXiXqX:X:X:X:XwXiXiXiX",
"iXiXiXiXiX2X:X:X,X,XeXiXuX@.X * G T Y Y Y Y Y Y Y Y Y Y Y Y Y Y Y Y Y Y Y Y Y Y Y Y Y Y Y Y Y 1 . J Z.w   % w H T Y Y Y Y Y Y Y Y Y Y Y Y Y Y Y Y Y T Y } |.=X|.>.E x.|.*X@X@X@X@X@X;.L ~ _.=XK.Y Y Y Y Y Y w ; o o   R wX1X:X:X:X1XyXiXiXiXiX8X:X:X:X:XwXiXiXiX",
"iXyXpXpXyX2X3X3X1X3XeXyXiX8XG X < J Y Y Y Y Y Y Y Y T Y Y Y Y Y T Y Y Y Y Y Y Y Y Y Y Y Y Y Y G + o + o 2 D Y Y Y Y Y Y Y Y Y Y Y Y Y Y Y Y Y Y Y Y Y Y X.|.=XK.Y I ~ |.@X@X=X@XOX@X;.Y P ,.=Xb.Y Y Y Y Y Y Y F 1 o o A.yX2X1X1X3X3XtXpXiXyXyXqX3X3X3X1XwXpXpXpX",
"1X1X1X1X1XyXiXpXpXiXqX1X1X1XE.1 O 0 Y Y Y Y Y Y Y Y Y Y Y Y Y Y Y Y Y Y Y Y Y Y Y Y Y Y Y Y Y U 2 o o 0 J T Y Y Y Y Y Y Y Y Y Y Y Y Y Y Y Y Y Y Y Y Y Y ~ `.=Xb.U Y o.OX@XOX@X=X@X@XL.` R L.*X>.U Y Y Y Y Y Y Y H 1 o & >.aXiXiXiXpX2X1X1X1X1XeXiXiXiXiXwX1X1X1X",
"4X:X4X:X4XyXiXiXiXiXqX:X:X4X1XJ.$ o e Y Y Y Y Y Y Y Y Y Y Y Y Y Y Y Y Y Y Y Y Y Y Y T Y Y Y U 8 o o w Y Y Y Y Y Y Y Y Y Y Y Y Y Y Y Y Y Y Y Y Y Y Y Y Y I x.@X'.,.>.`.@X=X@X@X@X@X@X@X'.'.*X).R Y Y Y Y Y Y Y Y Y P 0 o # A.iXiXiXiX3X4X:X4X:XyXiXiXiXiXwX:X4X4X",
":X:X4X:X1XyXiXiXiXiXqX:X:X:X4X8X@.  * F Y Y Y Y Y Y Y Y Y Y Y Y Y Y Y Y Y Y Y Y Y Y Y Y Y U 8 o % e Y Y Y Y Y Y Y Y Y Y Y Y Y Y Y Y Y Y Y H D e D G Y T Y T x.|.@X@X=X=X*X@X@X=X@X@X=XOX|.U.` Y Y Y Y Y Y Y Y Y Y Y Y 0 o * H.iXiXiX3X:X:X:X:XeXiXiXiXiXwX:X4X:X",
":X:X:X:X:XyXiXiXiXiXqX:X:X:X:XwXeXY   < H Y Y Y Y Y Y Y Y Y Y Y Y Y Y Y Y Y Y T Y Y Y Y Y 8 o o D Y Y Y T Y Y Y Y Y Y Y Y Y Y Y Y Y D w 1 o o     o 1 D H Y Y X.b.(._.+X=X(.'.L.'.#XL.o.' Y Y Y F 0 1 w H Y Y Y Y Y Y Y 0 o ; !.iXiX3X:X:X:X:XeXiXiXiXiXeX:X:X:X",
"8XqXqXqX2XeXeXeXeXeXwXqXqX8X2XwXaX&X1 o 0 Y Y Y Y Y Y Y Y Y Y Y Y Y Y Y Y Y Y Y Y Y Y Y w o o M Y Y Y Y Y Y Y Y Y Y Y Y Y Y Y J e 1 o   o 0 H | Y 1   o ; w G Y Y Y T _.OX>._.c._.'.>.P Y Y G 0 o     o ; w Y Y Y Y Y Y P 4   w >XyXqXqX8X8X2XeXyXeXeXeXwX8X8X8X",
"iXiXiXiXiX2X:X:X1X:XeXiXiXiXiXeX:X1XF.% o e Y Y Y Y Y Y Y Y T Y Y T Y Y Y Y Y Y Y Y Y M # o w Y Y Y Y Y Y Y Y Y Y Y Y Y Y J e ; X o 0 | E.3XeXyXyX>XA.F o   + 4 D J Y o.;.~ X.R ~ ' E Y H q &   > | H.P o o > D Y Y Y Y Y H 2   G >XpXiXiXiXiXqX:X:X:X:XwXiXiXiX",
"iXiXiXiXiX2X:X:X:X:XeXiXiXiXiXeX:X:X:X| o o D T Y Y Y Y Y Y Y Y Y Y Y Y Y Y Y Y Y Y H ; o 8 Y Y Y Y Y Y Y Y Y Y Y Y E Y m 5   + H H.2XpXiXyXiXyXyXiXyXwX!.[ , O o < w G P Y Y Y Y Y P a > O % R /.yXpXeXG.e   o 0 P Y Y Y T D % o +.pXiXiXiXiXqX:X:X:X:XwXiXiXiX",
"iXiXiXiXiX2X:X1X4X:XeXiXiXiXiXeX:X:X1X;XH   > H Y Y Y Y Y Y Y Y Y Y Y Y Y Y Y Y Y Y 6 o > H Y Y Y Y Y Y Y Y Y Y Y T H 6 o X D Y.eXiXuXuXyXuXyXuXuXyXuXuXpXyX,XC.e o   $ 0 F Y Y Y D 4 o X G E.eXpXyXpXpXiX3XO.& o 1 G Y Y Y Y w o 1 :XiXiXiXiXqX:X:X:X:XqXiXiXiX",
"iXiXiXiXiX2X:X1X4X:XeXiXiXiXiXeX:X1X:X1X/.w o 1 Y Y Y Y Y Y Y Y Y Y T Y Y Y Y Y Y D o o M T Y Y Y Y Y Y Y Y Y Y Y D ; O 2 C.qXiXyXyXyXuXuXyXuXyXyXuXyXyXyXuXpXuXqXY.Y ;   o < 0 4 &   8 Z.qXpXpXyXyXpXyXuXpXyXY.1   ; F Y Y Y P <   | iXiXiXiX8X:X:X:X:XwXiXiXiX",
"qXqX8XqX2XeXeXeXeXeXeX2XqX2XqXwXeXeXyXeXeXG.; o w Y Y Y Y Y Y Y Y Y Y Y Y Y Y Y U 1 o 4 Y Y Y Y Y Y Y Y Y Y Y T M * . D ^.eXpXpXyXuXuXyXuXyXyXuXuXyXyXuXuXyXuXyXyXpXtX^.| 1 O   O < ' >XpXpXpXpXpXyXyXpXyXuXiX~.[ G   ; G Y Y T M o > ~.wXqXqXeXeXeXeXyXwX2XqXqX",
":X:X:X:X:XyXiXiXiXiXqX:X:X:X:XqXiXiXiXiXyX4XO.X % D T Y Y Y Y Y Y Y Y Y Y Y Y T e o * F Y Y Y Y Y Y Y Y Y Y Y e o   ~ 3XpXO.~.yXuXuXyXuXyXuXyXyXyXyXuXyXyXuXyXuXyXyXuXpXyX1XW.S.P.>XaXiXyXyXpXyXyXyXpXyXpXyX^.G ~.:XH   ; G Y Y Y <   [ :X:X4XeXiXiXiXiXeX:X:X:X",
":X:X:X:X4XyXiXiXiXiX8X:X:X4X:XwXiXiXiXiXyX1X>XP X 2 H Y Y Y Y Y Y Y Y Y Y Y Y U 1 O 8 Y Y Y Y Y Y Y Y Y Y Y a # o | eXuX>XG.U ~ H.8XpXuXuXuXuXyXuXyXyXuXyXyXuXyXyXyXuXyXyXuXiXuXiXuXyXuXyXyXuXyXuXyXpXpX2X..& J H.H.3XM   < H T Y e o 1 ^.4X:XeXiXiXiXiXeX:X:X:X",
":X:X:X4X4XyXiXiXiXiXqX:X:X:X:XqXiXiXiXiXaX<X<X~.w   1 Y Y Y Y Y Y Y Y Y Y Y Y G o % G Y Y Y Y Y Y Y Y Y Y F $ O | eXuXuXG.[ ... o a A.1XuXuXyXuXyXyXuXyXuXuXyXyXuXuXyXyXuXyXuXuXyXuXyXyXuXuXyXuXuXpXpX&XD O o ; 1 ~.iX>X0 O 0 Y Y J > o A.1X:XeXiXiXiXiXwX:X:X:X",
"1X1X1X1X3XtXpXiXiXiXwX4X1X1X1XqXiXpXpXiXaX1X1X3XG.> o w Y Y Y Y Y Y Y Y Y Y Y w o 1 Y Y Y Y Y Y Y Y Y Y H > O T qXuXuXuXrX>.o o o O   0 @.>XyXuXuXyXyXyXyXuXyXuXyXyXyXuXuXyXyXuXuXyXyXyXyXyXpXpXpXaXG.8 O o o o o F.pXpXR.o o M T Y 0   Y 1X1XeXiXiXiXiXwX1X1X1X",
"iXyXyXiXpX2X1X3X1X3XeXpXpXpXpXwX1X3X3X3X8XyXiXpXpXZ.o o D Y Y Y Y Y Y Y P F w & o e T Y Y Y Y Y Y Y Y Y 0 X e 1XpXyXuXuXpXH.o o o o o o   < [ ~.eXuXuXuXyXyXyXuXyXuXuXyXyXyXuXyXyXyXuXuXyXuXpXpX7X..o O o + % o o w 2XpXyX{   > P T M O 0 2XpXqX3X3X1X3XwXpXpXpX",
"iXiXiXiXiX2X:X:X:X:XeXiXiXiXiXeX:X4X:X:X2XiXiXiXiXeXE X ; H T Y Y H D w > o O o % F Y Y Y Y Y Y Y Y Y D o % W.pXyXuXyXuXyX~   o o o o * o o o o | yXpXyXyXyXuXyXyXuXyXyXyXuXyXuXyXyXuXyXpXyXyXpXS.  o & O & % O o O Y.iXpX4X4   e Y H & * XXiX8X,X,X:X:XwXiXiXiX",
"iXiXiXiXiX2X:X:X:X:XeXiXiXiXiXwX:X:X4X:X2XiXiXiXiXiX^.w X < 0 8 < %     o 0 w o < H Y Y Y Y Y Y Y Y Y 1   ` aXpXuXyXyXpXwXD o o o + o o o o o o Y rXyXyXpXyXyXuXuXyXyXuXuXyXyXuXuXyXuXyXyXyXpXpXR.O o o & O & % o . A.uXpXpX>.  2 P Y <   G.iX8X:X:X:X:XwXiXiXiX",
"iXiXiXiXiX3X:X:X:X:XeXiXiXiXiXwX:X:X:X:X2XiXiXiXiXyX3XG.>     X * 1 H @.G.&X|   1 Y Y Y Y Y Y Y Y T D o ; XXiXyXuXyXyXuX7Xe O o o $ o + # o o . @.yXyXpXyXuXuXyXuXyXyXuXyXyXuXyXuXuXyXuXpXyXyXpX3Xq O % O & O & o o G.iXpXpX,X1 o D Y 1   +.iX8X:X:X:X:XwXiXiXiX",
"yXyXtXyXyXqX2X2X2X2XeXyXyXyXyXwX2X2X2X2XqXtXyXyXyXtX8X2XW.C.A.F.!.:XqXyXwX2XR   0 Y Y Y Y Y Y Y Y Y 0   E aXuXyXyXyXuXpXeXH   + o o o o o o o # ^.iXyXyXuXyXyXuXyXyXuXyXyXuXyXuXpXpXpXuXyXyXpXyXpXG.& O & O % & o 0 1XpXpXpXtXT   0 Y 0    .yXwX2X2X2X2XwXtXyXyX",
":X1X4X4X4XyXiXiXiXiXqX:X4X4X:XqXiXiXiXiXtX4X4X4X:X3XiXiXiXiXiX2X1X1X4X4XaXyXY   e Y Y Y Y Y Y Y Y H ; o G.pXyXyXyXuXyXyXpX..  % $ o o # o o .  .tXuXyXyXyXyXuXyXyXyXuXyXuXuXuX7XQ.Z.G.1XpXyXyXpXpXyXG.1 . o . % 1 R.pXyXuXyXpXS.  < Y w   Y 4XeXiXiXiXiXwX4X4X4X",
":X4X:X:X4XyXiXiXiXiXqX:X:X:X:XqXiXiXiXiXyX:X:X4X:X3XpXiXiXiXiX3X:X:X4X4XaXyXF   e Y Y Y Y Y Y Y Y F o 1 ,XiXyXuXuXyXyXuXpX;X4 O o o o o o o F 3XpXyXuXuXyXuXuXyXuXyXyXuXuXpX>XH Q X.Q e /.iXyXpXuXuXyX:XC.~ R 9.>XpXpXyXyXyXpX^.o ; G w   Y <XtXiXiXiXiXwX:X:X:X",
":X:X:X:X1XyXiXiXiXiXqX:X:X4X:XqXiXiXiXiXyX<X:X4X:X1XiXiXiXiXiX3X:X:X:X:XtXtXF   e Y Y Y Y Y Y Y T e   D eXuXuXyXuXyXyXuXuXpXQ.p o O O . ; ~ 1XuXpXuXyXyXyXyXyXuXyXuXuXuXuXpX+.K #X=X+XB t.pXyXyXuXyXyXpXuXyXyXuXuXyXyXyXuXuXuX,X< o G w   T ,XeXiXiXiXiXwX:X4X:X",
":X:X:X:X:XyXiXiXiXiXqX:X:X:X:XqXiXiXiXpXyX:X:X:X:X3XiXiXiXiXiX3X:X:X:X:XtXyXH   e E Y Y Y Y Y Y Y w   ~ yXyXyXuXyXyXuXyXyXuXuX7XR.+.@.J.^.eXiXyXuXuXuXyXuXuXyXyXuXuXuXuXuXpXXXa I ^ J J %XyXyXpXyXuXuXuXyXpXyXuXuXyXpXyXuXuXuX3X0 o F 0   [ 1XeXiXiXiXiXeX:X:X:X",
"eXeXwXwXwXwXwXwXwXwXqXwXeXeXwXwXwXwXwXwXeXwXwXeXwXwXwXwXwXwXwXwXwXeXwXwXeXqXY   w Y Y Y Y Y Y Y Y 0   | uXuXuXuXyXuXyXyXyXuXyXuXpXpXuXpXuXuXyXuXyXyXyXuXyXyXuXyXyXuXyXuXyXyXuX2XE.G.~.qXpXyXyXyXyXuXyXuXyXyXuXyXyXuXyXyXuXyXuX7Xw o D 1   C.eXwXwXwXwXwXwXwXwXwX",
"iXiXiXiXiX2X:X:X>X:XeXiXiXiXiXeX:X:X:X:X2XiXiXiXiXiX4X:X:X:X4XyXiXiXiXiX2X1XR   0 Y Y Y Y Y Y Y Y 0   @.uXuXuXyXuXyXyXuXuXyXyXuXuXuXuXyXuXuXyXyXyXuXyXuXuXyXuXyXuXyXuXyXyXuXuXuXiXpXiXpXpXyXyXeXyXyXyXuXuXyXuXyXuXyXyXuXuXyXuXqXw o e > o !.iX8X:X:X:X:XqXiXiXiX",
"iXiXiXiXiX3X:X:X4X4XeXiXiXiXiXeX:X:X:X:X2XiXiXiXiXpX1X:X4X4X4XyXiXiXiXiX2X1X+.o 1 Y Y Y Y Y Y Y Y 0   ..uXuXyXyXyXyXuXyXuXyXyXuXuXuXuXyXuXuXyXuXuXuXyXyXuXyXyXuXiXuXuXyXuXyXuXuXyXyXyXyXpXiX1XR 3XpXuXyXuXyXyXuXuXyXyXuXyXyXuX2X0 o w o < 1XiXqX:X:X:X:XwXiXiXiX",
"iXiXiXiXiX2X:X4X4X4XeXiXiXiXiXwX:X:X:X:X2XiXiXiXiXpX1X:X4X4X4XyXiXiXiXiX8X1XH.o * H Y Y Y Y Y Y Y 0   R aXyXuXuXuXuXyXuXyXuXyXyXuXuXyXuXyXyXyXuXyXyXyXuXyXuXuXwXS.!.qXyXiXuXuXuXuXyXiXpXpXqX` q 7XpXuXuXyXuXyXyXyXuXyXyXyXuXpX,X1 o 1   G yXiX8X:X:X:X:XwXiXiXiX",
"iXiXiXiXiX2X:X4X1X1XeXiXiXiXiXwX:X4X1X:X2XiXpXiXiXpX1X1X4X1X4XyXiXiXiXiX2X1X^.1   a Y Y Y Y Y Y T M X e wXiXuXyXyXuXyXuXyXuXuXyXyXyXuXyXyXuXyXyXyXuXuXyXuXuXuX2X1 ; w ` S.~.<X3X7XqX2X>XG.F & R.uXyXuXyXyXyXuXyXyXuXyXuXyXyXiX^.o o ;   A.iXiX8X:X:X1X1XwXiXiXiX",
"2X2X2X2X2XeXyXyXyXyXwX2X3X3X3XwXyXyXyXyXeX2X2X2X2X2XtXyXyXyXyX8X2X2X2X2XeXyXeXT   0 Y Y Y Y Y Y Y G o ; ^.iXyXuXyXyXyXuXyXyXyXuXuXyXyXuXyXuXyXuXuXyXyXuXyXyXuXqXe { D.~ q 8 8 0 a e w 0 1 O S.uXuXuXyXyXuXyXyXuXyXuXuXyXyXiXpXG.o o o ; E.2X2XeXyXyXyXyXwX3X2X3X",
":X:X:X:X:XyXiXiXiXiXqX>X4X:X:XqXiXiXiXiXyX:X:X:X4X1XiXiXiXiXiX3X:X:X:X:XeXiXiXH.O > P Y T Y Y Y Y Y 2 . 9.iXuXyXuXuXyXyXuXyXyXyXyXyXuXyXuXyXyXyXyXyXuXyXuXyXuXyXY ' 9X6X5X%XQ.T.I.I.T.oXE F wXuXyXuXyXuXuXyXyXuXuXyXuXyXuXyXyX| X o   Y :X:X4XtXiXiXiXiXwX:X:X:X",
":X:X:X:X1XyXiXiXiXiXqX:X4X4X:XqXiXiXiXiXtX4X:X4X4X3XiXiXiXiXiX3X:X:X:X:XtXiXiX2X6 o e G e M Y Y Y Y w o m 0XuXuXyXyXuXyXyXuXuXyXuXuXyXuXyXyXuXuXyXuXyXuXyXyXuXuXC.s 5X6X6X6X9X9X9X9X9X.X4 E.pXyXuXyXuXyXyXuXyXyXyXuXyXuXyXuXwXD o o o F.1X:X4XeXiXiXiXiXwX:X:X4X",
":X:X:X:X4XyXiXiXiXiX8X:X:X:X:XqXiXiXiXiXyX:X:X:X:X1XiXiXiXiXiX2X:X:X:X1XtXiXeX>XF   o @ + o w Y Y T H ;   c.yXyXuXyXyXyXuXyXyXuXyXyXuXyXyXuXyXyXuXyXyXyXuXuXyXpXoX, .X9X6X6X6X6X6X6X6X{ P eXpXyXuXyXyXyXuXyXyXuXuXyXyXuXyXpX^.+ o   H >X4X:X:XeXiXiXiXiXeX:X:X:X",
"3X3X3X3X3XtXyXyXyXyXwX3X3X3X3XwXyXpXyXpXeX3X3X2X3X2XyXyXyXyXyX2X2X3X>XW.F.X.m 1 o i &.$.: _ , w Y Y T e o > ~.iXyXyXuXuXyXyXuXyXuXyXuXyXyXuXyXuXuXyXuXyXyXyXuXuXeXm o.9X6X6X6X6X6X6XoX, R.pXuXuXuXyXuXyXyXuXyXyXyXyXuXyXpXpXO.  o > E.7X3X3X3XeXpXpXyXyXwX3X3X3X",
"iXiXiXiXiX2X4X1X4X1XeXiXiXiXiXeX1X1X1X4X2XiXiXiXiXyX3X1X1X1X1XrXE.R e 6 O z 7./ @ *.3.f x d.u., w Y Y P 1   e 3XpXpXuXyXyXuXuXyXuXyXyXuXuXyXyXyXyXyXuXuXuXyXuXuXiXZ.1 %X6X6X6X6X6X6XX.D wXpXyXuXyXyXuXuXyXuXuXyXyXuXuXpXpX1X8 o X O.yXpXiXiXiX2X1X1X1X4XwXiXiXiX",
"iXiXiXiXiX3X:X:X4X4XeXiXiXiXiXeX:X:X:X:X2XiXiXiXiXyX1X:X:X:X1X:X6 [ !.@., r.p.j 5 #.i + ) s.$X) % H Y Y H >   E wXpXyXyXuXyXyXuXyXuXyXyXyXyXuXuXuXyXyXyXyXyXuXyXyXqXD I 5X6X6X6X6X.X3 P.pXuXyXyXuXyXyXyXyXyXyXuXuXyXyXpXpX>.X X G >XyXiXiXiXiXqX:X:X:X:XwXiXiXiX",
"iXiXiXiXiX3X4X4X4X:XeXiXiXiXiXeX:X:X:X:X2XiXiXiXiXyX1X:X,X:X1X+.M eXeXH k ( j # 3 u 3 * 1 w.s.c   w Y Y Y F %   [ wXpXyXyXyXyXyXyXuXuXyXyXuXuXyXuXyXyXuXuXuXyXuXyXuX;X6 ' 5X6X6X5XT Y eXyXyXyXuXyXuXyXuXuXyXyXuXuXyXyXpXXX<   0 E.3XyXiXiXiXiXqX:X:X:X:XwXiXiXiX",
"iXiXiXiXiX3X:X:X:X:XeXiXiXiXiXeX:X:X:X:X2XiXiXiXiXiX1X:X:X,XXXw R Z.E & 2 - * u 1.5.5 C C , ) 4 | 2 D H Y Y D o O [ qXpXyXyXyXpXyXyXyXuXuXyXyXyXyXuXyXyXyXyXyXyXuXyXuX^.e D >.D.I z 4XpXyXpXuXyXuXyXuXyXyXuXuXyXyXyXpX;Xe   2 H.1X4XyXiXiXiXiXqX>X:X:X:X8XiXiXiX",
"eXeXeXeXeXwX8XwX8XwXwXeXeXeXeXwXqXwXqXqXqXeXeXeXeXeXwX8XqXwXS.O 3 u + n N.k.* $.2.%.* k.V.C o 9 E.1 ; % w Y Y a +   Y <XiXyXpXyXuXyXyXyXyXyXyXuXyXuXyXuXyXuXuXyXuXuXuXpX2XA.T Y c.3XpXyXpXyXyXuXyXyXyXuXuXyXyXyXpXpX!.0   1 Y.wXqXqXwXeXeXeXeXwXwX8XwXqXwXeXeXeX",
":X:X1X:X4XyXiXiXiXiXqX4X:X:X:XqXiXiXiXiXyX:X4X:X:X1XiXiXiXyXJ i 2.*.1 g.N.S o u : + * h.B.l.2 & w + o < > w Y Y D &   e E.yXiXpXyXuXuXyXyXuXuXyXyXyXyXuXyXyXuXyXuXuXuXuXpXpXtXrXpXpXyXyXyXpXpXyXyXuXyXuXyXuXuXpXrXS.>   1 E.iXiXiXiX2X:X4X4X:XeXiXiXiXiXwX:X:X1X",
":X:X4X:X1XyXiXiXiXiXqX:X:X:X:XqXiXiXiXiXyX:X:X:X4X1XiXiXiX^.: *.=.f o - = o - C C o i = h.C 5 &.u X # 7.7.> e Y Y G 1   ; @.2XpXpXpXuXyXuXyXyXuXuXyXyXuXyXyXuXyXuXyXuXyXyXuXuXyXuXyXyXuXuXyXuXyXuXyXuXyXyXyXiX3X{ o   w R.iXiXiXiXiX2X:X1X:X1XeXiXiXiXiXeX:X:X:X",
"4X:X:X4X1XyXiXiXiXiXqX:X4X:X:XqXiXiXiXiXyX:X4X:X4X3XpXiXpX{ + u 3 o l ( W * k.B.V i =.g 2 2 + &.g X 6 r.p.( ; z Y Y H 0 o   e H.wXpXpXuXyXyXuXyXyXuXyXuXuXyXuXyXyXyXyXuXuXyXyXyXyXuXyXyXyXuXyXuXyXuXyXuXiXeXG.w     H ~.3XiXiXiXiXiX3X:X:X4X4XeXiXiXiXiXeX:X:X:X",
":X:X:X:X:XyXiXiXiXiX8X:X:X:X4XqXiXiXiXiXyX1X:X:X4X3XiXiX4X1 d %.i 8 r.p.k n g.Z % $.4.2.i   = 1 d o $ ( a.0.; M T Y Y Y D >   o G G.7XpXpXpXyXuXyXuXyXyXuXyXyXuXyXuXyXuXyXyXuXuXuXyXyXuXyXuXyXyXyXyXuXyX&XE o   2 O.>X1X3XiXiXiXiXiX2X:X:X:X:XeXiXiXiXiXwX:X:X:X",
"yXeXyXeXeXqXqX2X8X2XwXyXyXeXyXwX2XqX2XqXqXeXeXyXtXeX2X8XO.5 5.6.u z 9.W o * 6 x l 5 =.3.i o g.Z * , _ > 7.W ; H Y Y Y Y Y P e ;   o e c.;XeXpXiXuXuXyXuXyXuXyXyXuXyXuXuXyXuXyXyXyXuXuXyXuXyXyXyXpXyX;XX.>   o H ^.eXyXeXeXqX2X2X2X8XeXeXyXrXeXwX2XqX2XqXwXyXeXyX",
"iXiXiXiXiX2X:X:X:X:XeXiXiXiXiXeX:X:X:X:X2XiXiXiXiXiX1X^.0 g &.h # < e [ F > q.p.r.j u #.; X Z N.- / d.<.> ; O < e H Y Y Y Y Y H w > o   > H C./.2XaXuXiXpXpXpXiXpXpXpXuXyXyXyXyXyXyXyXyXyXtXtXwX~.[ 1   o w A.1XiXiXiXiXiX1X:X:X4X4XyXiXiXiXiXqX:X:X:X:XqXiXiXiX",
"iXiXiXiXiX2X:X:X:X:XeXiXiXiXiXwX:X:X:X:X2XiXiXiXiXpX3XA.. < - m = D 4XpX3XH l r.a.t.6 X 7 ) , S - ) $Xs./ + w +   $ 1 e G Y Y Y T J M 1 o O O & w P @.Z.A.A.q.>.+.O.@.| } | | [ E R R T E U U e %   o e A.;X1X2XiXiXiXiXiX1X4X:X4X1XyXiXiXiXiXqX:X:X:X:XwXiXiXiX",
"iXiXiXiXiX2X:X:X:X:XeXiXiXiXiXeX:X:X4X:X2XiXiXiXiXpX1XY.1 n N.B.j.t [ wXiX>Xw 7 x 7 & v y.$Xe., # , y.d.v X J Z.T $ o o * < 0 0 0 1 1 < o o o o O       O O O O           O   o o O .   . o + + o o & ~ W.>X1X2XiXiXiXiXyX1X:X:X:X4XyXiXiXiXiX8X:X:X:X:XwXiXiXiX",
"iXiXiXpXiX2X1X1X3X1XeXyXiXiXiXeX1X1X1X3X2XyXiXiXpXyX3X3XY.8 S V.B.h.* T ..F ;   ; x : ) s.$Xf.c # u 6 ) 1 K o T T ; o o o   o o o o & ; 2 < 1 1 8 8 9 q 9 p m % + w D D D D w 6 e w ; 0 3 : s m < & o   & F C.>XiXiXiXiXyX3X3X1X>X:XyXiXpXpXiXqX1X1X1X1XwXyXiXiX",
"1X1X3X1X1XtXiXpXpXiXqX1X1X3X1XwXiXiXyXiXeX3X1X3X1X2XyXpXiX~.0 n V - o O O   o W t.p.7.> ) w.7 3 %.5.h X I (.: o o ; < 8 w e F G H H H P P Y Y P Y Y Y T Y E D o o 1 U Y Y 0 p K 9 & -.[.M.p M Y Y G q 1 o O   0 | G.XX1X7XpX2X@.G F +.>X3X1X3XeXiXpXiXiXwX1X1X3X",
":X:X:X:X:XyXiXiXiXiXqX:X:X:X:XqXiXiXiXiXyX4X:X:X:X1XiXiXiXiX/.H [ Y o o & u & ( p.p.p.W o # $ 5 1.6.1.* ;.] o 4 H P Y Y E Y Y Y Y Y Y T Y Y Y Y Y Y Y Y Y Y 1 o o o 0 Y e N ].[.v.! M. X{.] 8 Y Y Y T G ; ; o     o 1 H @.!.T   p q o Y >X:X:XeXiXiXiXiXwX:X:X:X",
":X:X:X:X1XyXiXiXiXiXqX:X:X:X:XqXiXiXiXiXtX:X:X:X:X3XiXiXiXiXiX1X1X@.O u &.3.%.: / 8.z # x 8.t.j 5 1.h   + O O & 0 D H Y Y Y Y Y T Y Y P Y Y Y Y Y Y Y Y Y D o w G o o 8 < ] {.{.{.M.{.{.{.! 9 Y Y Y P 2 K n.v.9 > 1 o o O %   Q ].].B o E.1X1XeXiXiXiXiXwX:X:X:X",
":X:X:X:X1XyXiXiXiXiXqX:X:X:X:XqXiXiXiXiXyX:X:X:X:X1XiXiXiXiXiX3X,XH.# g 3.4.4.#.O < c v k r.a.r.j 5 : | c.P.@.q o O o > 4 0 w w 0 8 2 1 P Y Y Y Y Y Y Y G ; o Y.~.o o o o p ).{.{.{.{.{.m.9 G Y Y Y D ; n. X X-.O % o o o o   ]  X}.Q o G.1X:XeXiXiXiXiXwX:X:X:X",
"2X8X2XqX2XeXyXeXtXtXwX8X2X2XqXwXeXyXeXtXeXqXqX2X2XqXeXyXeXyXtXqX8X:X0   g =.g & $ w.s.f.z k 8.( z X D qXpXpXuX2XE.@.H 8 ; + o o o o o ; H Y Y Y Y Y Y G :   | rXaXT o o o   N n.}.{.{.M.p ; G Y Y D 8 : :.{.].K + 1 8 w 0 *   : ! ! o F ,X7X2XeXtXtXtXtXwX2X8X8X",
"iXiXiXiXiX2X:X4X4X4XeXiXiXiXiXeX:X:X1X:X2XiXiXiXiXpX1X4X:X:X4XyXiXiX~.0 o 3 r ( 6 _ i.u.c   1 F | P.1XuXpXyXuXuXpXpXeX2X;X^.~.^.F.; o e Y Y Y Y Y Y D ; o [ qXuXiX/.> & w 1 o : Q m.m.p < ] 1 0 0 4 F s & B s ; F Y Y Y Y D 1 o . O Y <XiXiXiXqX4X:X4X:XwXiXiXiX",
"iXiXiXiXiX2X:X:X4X:XeXiXiXiXiXeX:X:X4X:X2XiXiXiXiXyX1X:X:X4X1XyXiXiXiX~.1 6 9.7.k o > O e G.>XeXuXuXuXuXuXuXyXiXiXyXpXpXiXiX1XW.T o 4 Y Y Y T P D 1 o + +.wXuXuXyXyX..O 8 H D 1 o + + o < F p ] N ] < 4 %     ; G Y Y Y Y Y Y e ; O Y 4XiXiXiXqX:X4X:X:XwXiXiXiX",
"iXiXiXiXiX2X:X:X4X:XeXiXiXiXiXeX:X1X:X:X2XiXiXiXiXiX1X:X:X:X1XyXiXiXiXiXW.1 1 k e o O o e 8XiXuXuXyXuXuXuXuXyX~.E.aXpXpXyXG.1 O o o w P H D w 2 o o G E.yXuXuXyXyXyX3Xw o e Y Y G e 4 + o   < p & & < ; < ! ! ; > H Y Y Y Y Y Y G 1   6 E.iXiXqX:X:X:X:XwXiXiXiX",
"iXiXiXiXiX2X:X1X:X:XeXiXiXiXiXeX:X1X:X:X2XiXiXiXiXpX1X:X4X:X4XyXiXiXiXiX7XE.E.Z.0 o o o o ..eXiXyXyXuXuXuXpXXX< ; G.3XyX3X1 4 :.v.p o ; + o o 1 R R.wXiXyXyXuXyXyXyXpXE.; o F T T Y Y H D w 1 ; & o o   ] {.{.]   M T Y Y Y Y Y T J q @ ; A.aXqX:X:X1X:XwXiXiXiX",
"qXqXwXqXqXwXeXeXeXeXwXqXqXqXqXwXeXeXeXeXeXqXqXqXwXwXwXeXeXeXwXwXwXqXqX7XeXeXZ.> O o ; o o o [ :XyXpXuXuXqXW.q   O o 1 E { o ]  X{.:.O 1 H o.R.,XyXiXyXyXuXyXyXuXyXyXpXyX+.o > H T Y Y Y T Y Y U H F w o ^ }.}.^ o D T Y Y Y Y Y Y Y Y m % X | 2XeXeXeXeXwXqXqXqX",
":X:X:X:X4XyXiXiXiXiXqX:X:X:X:XwXiXiXiXiXyX:X:X:X:X1XiXiXiXiXiX3X:X:X4X4XwXZ.;   & e 1 o 8 &   < Y O.+. .a o o < 0 < &   O O N M.).Q o W.aXuXpXuXyXuXyXyXuXyXyXuXuXyXpXpXwX~   1 P Y Y Y Y Y Y Y Y Y P 2 o B B + < P Y Y Y Y Y Y Y Y Y Y G ;   ~ qXiXiXiXwX:X:X:X",
":X:X:X:X:XyXiXiXiXiXqX:X:X:X:XqXiXiXiXiXeX1X:X:X4X1XiXiXiXiXiX3X:X:X4X:X@.o X ; D P > & R T 0 &         o > w H Y Y H w ; o O 1 1   [ eXuXuXuXuXuXyXuXyXyXuXyXyXyXuXyXuXiX7XP   1 P Y Y Y Y Y Y Y Y Y H 0 ; o 0 H Y Y Y Y Y Y Y Y Y Y Y T G <   Y qXiXiXwX:X:X:X",
":X:X:X:X4XyXiXiXiXiXqX:X:X:X:XqXiXiXiXiXyX4X:X4X:X3XiXiXiXiXiX3X:X:X:X+.o X ; G T G o 1 [ | } T 0 o o 1 F P Y Y Y Y Y Y H 0 o o O C.eXuXyXuXuXyXyXuXyXuXyXuXyXuXuXyXuXyXuXpX3XG   1 H Y Y Y Y Y Y Y Y Y Y J H Y T Y Y Y Y Y Y Y Y Y Y Y Y T H 2 X T wXiXwX4X4X4X",
"1X1X1X1X1XaXiXiXiXiX8X1X4X1X:XwXiXiXiXiXeX1X1X1X4X3XpXiXiXiXiX3X:X3XZ.; o ; F Y Y e o w | | | | { e * o w P Y Y Y Y Y Y Y Y w o D wXpXuXuXyXyXuXuXyXyXuXyXyXyXuXuXyXyXyXuXuXpX3XH X 1 G Y Y Y Y Y Y Y Y Y Y Y Y Y Y Y Y Y Y T T Y T Y Y Y T T H 1   R eXeX4X1X1X",
"pXyXyXyXyX8X3X3X3X3XeXpXpXyXyXwX3X3X3X3X8XyXpXyXpXaX3X3X3X3X2XeXiX;X1 o ; D Y Y Y 8 X G | } | | | } G + o 0 Y Y Y Y Y Y Y Y 0 O Z.pXpXyXyXuXyXyXyXyXuXyXuXuXyXyXyXuXyXuXyXyXuXpX2X~ X * D Y Y Y Y Y Y Y Y Y Y Y Y Y Y Y J H F D K m z M D D H P G > X [ qXpXyXyX",
"iXiXiXiXiX3X:X:X:X:XeXiXiXiXiXeX:X:X:X4X2XiXiXiXiXpX1X4X:X:X1XyXeXH X o e Y Y Y P 2 % T | | |  .} J 0 o o 2 P Y Y Y Y Y Y P ; > >XpXuXuXuXyXuXyXyXuXyXuXyXyXuXyXuXyXuXyXuXyXyXyXpXeX@.% o 0 H T Y Y Y Y Y Y Y H z w 1 < ; $ o o + o O o o o o ; 1 < o o A.iXiXiX",
"iXiXiXiXiX2X:X:X:X:XeXiXiXiXiXeX:X:X:X:X2XiXiXiXiXiX1X4X4X:X1XyXC.X o 0 Y Y Y T G o 1 [ | | | | E ; o 1 e H Y Y Y Y Y Y T D o F eXuXyXuXyXyXyXuXyXuXuXyXyXuXuXyXyXuXyXuXyXyXyXuXyXpXyXY.w   > N Y Y H F w 1 ; o X X * $ o # 1 w w w e w w 0 t > $ o o o > ~.iXiX",
"iXiXiXiXiX2X:X:X:X:XeXiXiXiXiXeX:X:X:X:X2XiXiXiXiXpX1X:X:X:X1X^.1 o 2 H Y Y Y Y D o 1 H F R | | E # ; H Y Y Y Y Y Y Y Y ^ m   | uXuXyXyXuXuXyXyXuXyXyXuXyXyXyXuXuXyXuXyXuXuXyXyXuXyXyXiX4X{ o o 1 1 ; X o o w R >.R.^.F . 1 Y T Y T T T T Y Y J G D 0 o   F eXiX",
"yXyXyXyXyX2X2X3X3X2XeXyXyXyXyXwX2X3X3X2X2XyXyXyXyXtX2X2X2X2X3XE   o D Y Y Y Y Y w o o o O < ~ } [ 1 o F T Y Y Y Y Y Y Y T w   A.pXuXuXyXyXuXyXuXyXyXyXyXuXyXyXyXyXuXuXyXyXuXyXuXyXyXuXyXiXeXE.F o o w { w   R.yXyXiX:X1 O 0 Y Y Y Y Y Y Y Y Y Y Y Y Y 8 o ; ;XyX",
"1X1X:X4X1XyXiXiXiXiXqX4X1X1X:XqXiXiXiXiXyX4X4X4X:X3XiXpXiXiX~.* o 1 Y Y Y Y Y Y w ; 1 w < o H ..| F X 1 Y Y Y Y Y T Y Y T 7 . F.pXuXyXuXyXyXyXuXyXuXuXyXyXuXuXyXyXyXyXuXyXyXyXuXyXuXyXyXyXuXpXwXE.~.qXuX+.  J.iXiXwX[ X o G Y Y Y Y Y Y Y Y Y Y Y Y Y 1 X 0 ^.1X",
":X:X:X:X4XyXiXiXiXiXqX:X:X:X:XwXiXiXiXiXyX4X:X:X:X3XpXiXiXuX[ . % D Y Y Y Y Y Y Y H Y Y D o , ` | ` 1 o e Y Y Y Y Y Y Y Y w   Z.pXuXuXuXyXuXyXyXyXuXyXyXyXyXuXuXuXyXuXyXyXuXyXyXyXuXyXyXyXyXuXuXuXiXyXiXF.  O.eX;XR o o 6 Y Y Y Y Y Y Y Y Y Y Y Y Y G o   R 1X4X",
":X:X:X:X4XyXiXiXiXiXqX:X:X:X:XqXiXiXiXiXyX1X:X:X:X3XiXiXiX>X> O 1 Y Y Y Y Y Y Y Y Y Y Y Y 1 @ m  .| H o * D Y Y Y Y Y Y Y w   @.pXuXuXuXyXuXyXuXuXyXyXuXuXyXyXyXyXuXyXuXyXuXuXyXuXyXyXuXuXyXyXyXyXyXyXuXW.  w J > . o 1 J Y Y Y Y Y Y Y T Y Y Y Y Y 0 o o G.1X:X",
":X:X:X:X4XyXiXiXiXiX8X>X:X:X:XqXiXiXiXiXeX:X:X:X:X1XiXiXiXc.  o D T Y Y Y Y Y Y Y Y Y Y Y G ; o G | } M o ; e Y Y Y Y Y Y F O Y rXuXyXuXuXyXyXyXuXyXyXuXyXuXyXuXyXuXuXyXuXyXyXyXuXyXuXyXyXuXyXuXyXuXyXiXE.o o   o ; w Y Y Y T Y Y Y Y Y Y Y Y Y Y F o o G >X:X:X",
"wXwXwXwXwXwXwXeXwXwXwXwXwXwXwXwXeXwXeXwXwXwXwXwXwXwXwXeX2Xe   1 U Y T T T Y E Y Y T Y Y Y Y e o % H | } M o o 6 G Y T Y Y H & > >XpXyXyXyXyXuXuXyXyXuXyXyXuXyXyXuXyXuXyXyXyXuXuXyXyXuXyXyXuXyXyXuXyXyXiXH.. ; w a H Y Y Y Y Y Y Y Y Y Y Y Y Y Y U < . ; E.eXwXwX",
"iXiXiXiXiX3X:X:X:X:XeXiXiXiXiXeX:X:X:X:X2XiXiXiXiXpX1X4XR.*   4 D m z p e q e M D G H P Y E Y w o + F } | H 2 o o 1 M G J P 0   | yXuXyXuXuXyXuXuXyXuXuXyXyXyXuXyXuXyXuXyXyXuXyXuXyXyXuXyXyXyXuXyXyXuXuX+.  e T T Y Y Y Y Y Y Y Y Y Y Y Y Y Y Y w o O [ qXiXiXiX",
"iXiXiXiXiX2X:X:X:X:XeXiXiXiXiXeX:X:X:X:X2XiXiXiXiXpX1X1XO.  o o o o + + O o o o o o ; > 1 w G H e * o w [ | ` D 1 o o o & 2 ; o + S.yXyXyXyXuXyXyXyXyXyXyXuXyXuXuXyXyXuXuXyXyXuXyXyXuXyXyXuXyXuXuXyXuXeXG o D Y Y Y Y Y Y Y Y Y Y Y Y Y Y Y Y e o   D ^.wXiXiXiX",
"iXiXiXiXiX3X:X:X:X4XeXiXiXiXiXwX:X:X:X:X2XiXiXiXiXpX1X1X .  o $ > 1 0 w w 0 1 1 ; * X . X o o 1 w w > o 1 H { | [ Y D w 1 ; ; ; o + Z.yXuXyXyXuXyXuXuXyXuXuXyXyXyXyXuXyXuXyXyXuXyXuXuXyXuXuXyXyXuXuXpX!.% ; P Y Y Y Y Y Y Y Y Y Y Y Y Y Y Y e o X 0 E.1XwXiXiXiX",
"iXiXiXiXiX2X:X:X1X1XeXiXiXiXiXeX:X:X1X1X2XiXiXiXiXpX1X1XXXA.Z./.:X3X2XwX:X&X^.~.E.E.G.@.Y 8 o X o & 1 1 o o 8 G R { | | { [ ~ R e o ; ~.uXyXuXyXuXyXyXyXyXyXyXuXyXuXyXuXyXuXyXyXuXyXyXyXyXyXyXuXyXpX3Xz X e Y Y Y Y Y Y Y Y Y Y Y Y Y Y P w o   1 G.1X4XwXiXiXiX",
"2X2X2X2X2XeXyXyXyXeXqX2X2X2X2XwXyXyXtXtXeX2X2X2X2X2XeXyXyXyXyXqX2XqX2X2XeXyXyXyXyXeX2X2X1X^.F.R >   o ; 1 1 o o ; 1 w e M e w 4 ; o + ~.pXuXuXuXuXyXyXuXuXyXyXuXyXuXyXuXyXyXuXyXuXyXyXuXyXyXyXiXuX&XG   8 P Y Y Y Y Y Y Y Y Y Y Y T Y G 1 o   w ~.yXyXyXwX2X2X2X",
":X1X:X:X1XyXiXiXiXiXqX:X:X:X:XqXiXiXiXiXyX:X:X:X:X3XiXiXiXiXiX3X:X:X:X:XtXiXiXiXiXeX:X,X:X4XqXpX;X[ o   o 2 0 0 2 ; o o o o o % o . T eXuXuXyXuXyXuXuXyXyXuXyXyXuXyXuXyXuXyXyXuXuXuXuXyXyXyXyX~.| 1 O 4 P T Y Y Y Y Y Y Y Y Y Y Y H w ; O o G >XiXiXiXiXwX:X:X4X",
":X4X:X:X1XyXiXiXiXiXqX:X:X:X:XqXiXiXiXiXtX4X:X:X4X3XiXiXiXiXiX3X:X:X:X:XeXiXiXiXiXwX:X:X:X:X2XiXiXyXE.F o   o 1 e G G F D F G e o 1 XXpXyXyXuXyXyXyXuXyXyXuXyXuXyXuXuXyXyXyXuXpXpXuXyXuXyXuXqXD   O 0 P Y Y Y Y Y Y Y Y Y ^ Y H w > X X > | ;XyXiXiXiXiXeX:X4X:X",
":X:X,X:X4XyXiXiXiXiXqX:X4X:X:XwXiXiXiXiXyX:X:X:X:X3XiXiXiXiXiX3X:X:X:X:XyXiXiXiXiXeX:X,X:X:XqXiXiXiXiXqXc.w o   o < w G Y Y Y > o Z.uXyXuXuXyXuXuXyXyXuXyXyXyXuXyXyXuXuXuXyX3XQ.E.rXuXyXyXuXyXXXH O M Y Y Y Y Y T Y Y Y H m 4 $ o X o U R.4X:XeXiXiXiXiXwX:X:X4X",
"3X1X1X3X3XyXpXpXpXpXwX3X3X1X3XwXiXyXpXpXtX3X3X3X3X2XyXpXpXpXyX2X3X3X1X1XeXyXpXpXpXwX1X3X3X3X2XpXpXyXyXyX2X;XC.D o   o # 1 e 0 O T eXyXyXyXuXyXyXuXyXyXyXuXyXyXuXuXuXuXeXE.[ 6   1 1XyXyXyXyXuXyX{ X D T Y Y Y J K m 0 1 ; o O   ; T P.4X2X1X3XeXiXyXyXpXwX1X3X1X",
"iXiXiXiXpX2X1X1X1X4XeXiXiXpXiXeX1X1X1X1X2XiXpXiXpXyX3X1X1X1X1XyXiXiXiXiX8X1X1X1X1XwXpXiXiXiXeX3X1X1X1X2XuXiXiXeXE.Y > o O o O ; !.iXyXyXyXuXuXyXuXyXuXyXyXuXyXyXuXuX^.F O O e O.~.yXuXyXuXyXuXyXH O k F a w 1 < @ o       ; e ..W.4XyXiXiXiXiX2X1X1X1X1XwXiXiXiX",
"iXiXiXiXiX3X:X:X4X:XeXiXiXiXiXeX:X4X:X:X2XiXiXiXiXpX1X4X4X4X4XpXiXiXiXiX7X:X4X:X:XwXiXiXiXiXeX:X4X4X:X3XiXiXiXiXiX3XG.D o o   O F qXuXyXuXyXyXyXyXyXuXuXuXyXuXyXuX/.1 O R E.8XuXpXyXyXuXuXuXwXR.4 o ; o o O     # > e [ Z.E.;X1X1X1XyXiXiXiXiX8X:X:X:X:XwXiXiXiX",
"iXiXiXiXiX2X:X:X:X:XeXiXiXiXiXeX:X:X:X:X2XiXiXiXiXpX1X4X4X4X4XpXiXiXiXiX8X:X:X4X:XwXiXiXiXiXyX1X:X:X:X3XiXiXiXiXqX+.w o o 6 D Y +.eXuXuXyXyXuXuXuXyXyXyXyXuXuXpX1Xe O C.tXiXuXyXuXuXyXyXuXpXH.    X o o < w H O.R.:XwXiXiX3X4X4X:X4XyXiXiXiXiXqX:X:X:X:XwXiXiXiX",
"iXiXiXiXiX2X:X:X:X:XeXiXiXiXiXeX:X:X:X>X2XiXiXiXiXyX4X:X:X:X4XyXiXiXiXiX2X:X:X:X:XwXiXiXiXiXeX4X:X:X:X3XiXiXiX^.D   1  .Q.3XeXyXuXuXuXyXyXuXuXyXyXuXyXyXyXuXuXrX[   [ tXuXyXyXuXuXuXyXuXyXuX3Xc.{ e o   F ~.:X2XiXiXiXiXiX4X:X:X:X4XyXiXiXiXiXqX>X:X:X:XwXiXiXiX",
"eXeXtXeXeXqX2XqXqX8XeXeXeXeXeXeX2XqXqXqXwXeXeXeXeXeXqXqX8XqX8XeXeXeXeXtXwX2XqXqX2XwXeXeXyXeXeXqX8XqX8XqXeXtXE.1 o [ >XyXpXuXyXyXuXuXyXuXuXyXyXuXyXyXuXuXuXyXuXR.o w 1XuXuXyXuXyXyXuXuXyXuXuXuXuXyX7XG.e   J :XqXeXeXtXeXeX8X7X8X8X8XeXeXeXeXeXwXqXqX8XqXwXeXeXeX",
":X:X1X:X1XyXiXiXiXiXqX:X:X:X:XqXiXiXiXiXyX:X:X:X4X3XiXiXiXiXiX3X:X:X:X4XyXiXiXiXiXwX4X4X:X:X2XiXiXiXiXyX3XE.1 o A.rXiXyXuXyXyXuXyXyXuXyXyXuXyXyXuXyXuXyXyXyXuX{   S.pXuXuXyXuXyXuXyXuXuXyXyXuXuXpXpXpX1XH   +.aX1X:X1X:X1XiXiXiXiXiX2X:X1X:X:XeXiXiXiXiXeX:X4X4X",
"4X4X:X:X1XyXiXiXiXiXqX:X:X:X:XwXiXiXiXiXyX:X:X:X:X3XiXiXiXiXiX3X:X4X:X4XeXiXiXiXiXwX:X4X:X:X2XiXiXiXiXyX1XR   O.yXyXyXyXyXyXuXyXyXuXyXuXuXyXyXuXuXyXyXyXuXuXyX{   Q.pXyXuXyXyXuXyXuXyXyXyXuXyXyXpXyXyXpX;X2 0 :X1X:X:X:X3XiXiXiXiXiX2X:X4X4X4XeXiXiXiXiXwX:X4X4X",
":X,X:X:X1XyXiXiXiXiXqX:X:X:X:XqXiXiXiXiXyX:X:X1X:X3XiXiXiXiXiX2X:X:X:X:XeXiXiXiXiXwX:X:X:X:X2XiXiXiXiXiX^.1 < ,XpXuXyXuXyXuXuXyXyXyXyXuXyXuXyXuXyXuXuXyXyXyXyXE   ~.pXuXuXuXyXyXyXyXuXyXyXuXyXyXyXpXyXpXaXP O E.1X:X:X:X3XiXiXiXiXiX2X:X4X:X1XeXiXiXiXiXeX:X:X:X",
":X4X1X1X:XyXiXiXiXiXqX:X:X:X:XqXiXiXiXiXtX1X:X1X:X3XiXiXiXiXiX3X:X:X:X:XyXiXiXiXiXwX:X1X:X:XqXiXiXiXiXyX~.* e qXuXyXuXyXuXyXyXuXuXuXyXyXuXyXuXuXyXyXyXuXuXuXeXF o ;XiXuXuXyXuXyXuXuXyXuXuXyXuXuXpXyXuXpXyXE o E.3X:X:X:X1XyXiXiXiXiX3X1X:X4X4XeXiXiXiXiXeX:X:X:X",
"eXeXeXeXeXwXqXqXqXqXeXeXeXeXyXwXqXqXqX2XqXeXeXeXeXwXqX8X8XqX8XeXeXyXeXeXqXqX8X8XqXwXeXtXeXeXwX2XqXqX8XwX<X1 6 3XuXyXyXyXyXyXuXyXyXuXyXuXyXyXpXpXuXuXyXyXpXpX,X< 0 2XiXyXyXyXuXyXyXuXuXyXyXuXuXyXyXpXyXpXqXe & /.yXeXeXeXeX8X8X8XqX8XeXeXeXeXeXwXqXqX2XqXeXeXeXeX",
"iXiXiXiXiX2X>X:X:X4XeXiXiXiXiXeX:X:X:X:X2XiXiXiXiXiX4X:X:X:X4XyXiXiXiXiX2X:X:X:X:XwXiXiXiXiXyX:X:X:X:X3XyXE   Z.iXuXyXyXyXuXyXuXyXyXyXuXyXuXpXpXyXyXuXyXpXpXA.  [ yXyXyXyXuXyXuXuXyXyXyXuXyXyXuXyXpXpXpXA.  D 3XiXiXiXiXiX1X4X:X:X4XyXiXiXiXiX2X:X:X:X:XwXiXiXiX",
"iXiXiXiXiX2X:X:X4X:XeXiXiXiXiXwX:X:X:X:X2XiXiXiXiXpX1X:X:X4X1XyXiXiXiXiX8X:X:X4X:XqXiXiXiXiXyX4X4X4X4X3XiX/.; ; F.eXpXiXiXpXiXpXpXpXpXpXyXpXpXpXuXiXuXuXyX/.0 $ ~.iXuXuXyXyXuXuXuXuXuXuXuXuXuXuXyXeX:X+.; ; G.7XiXiXiXiXiX1X:X4X:X4XyXiXiXiXiXqX:X:X4X:XwXiXiXiX",
"iXiXiXiXiX2X:X:X4X:XeXiXiXiXiXwX:X:X:X:X2XiXiXiXiXpX1X:X4X:X4XyXiXiXiXiX7X:X:X4X:XwXiXiXiXiXeX4X4X4X:X3XiXiXH.> . Y P.;X;X;X;X^.~.Q.W.R.H.F.F.c.t.+.O.O.~ <   ;  .| ....O.O...O...........O.O.| [ G 2   1 Z.1X2XiXiXiXiXpX1X:X4X:X1XyXiXiXiXiXqX:X4X:X:XqXiXiXiX",
"iXiXiXpXpX2X1X1X4X1XwXiXiXiXiXwX1X1X1X1X2XpXiXpXiXyX3X1X1X1X3XyXpXpXiXpX8X1X1X1X1XwXiXiXpXpXaX1X1X1X1X3XpXpXpX/.H & o o % o o o o O O O O O O O O O o o ; e J 1 ; ; $ o o o o o o ; + # + o o o $ 1 D @.^.3X1X2XpXpXiXpXyX1X1X1X1X3XyXiXpXiXiX8X1X1X1X1XqXiXiXiX",
"3X3X3X3X3XtXpXyXyXyXwX3X3X3X3XwXpXpXyXyXaX3X3X3X3X2XyXyXyXyXyX2X3X3X3X3XeXpXpXyXpXwX3X1X3X3XqXyXyXyXyXyX2X3X3X2X:X~.+.E Y R T R ` } | +.F.F.G.R.I.H.G.Y.E.>XeX3XXXXX^.W.G.Y.Y.Y.^.^.;X^.XX!.Y.P.E.~.3XiXpXyXyXaX3X3X3X3X2XyXpXyXpXyX2X1X3X3X3XeXpXyXyXyXwX3X3X3X"
};
