/* XPM */
static char *kuromiexit1754264455[] = {
/* columns rows colors chars-per-pixel */
"128 128 256 2 ",
"   c #040201",
".  c #0A0404",
"X  c #0C0906",
"o  c #0E0B0B",
"O  c #0B0608",
"+  c #130C0C",
"@  c #140508",
"#  c #15110E",
"$  c #19110E",
"%  c #180D11",
"&  c #161312",
"*  c #1B1414",
"=  c #1C1916",
"-  c #1D1A1A",
";  c #1B1718",
":  c #0D1210",
">  c #23161A",
",  c #231C1C",
"<  c #241719",
"1  c #2E0814",
"2  c #25211E",
"3  c #29211E",
"4  c #281E21",
"5  c #351B24",
"6  c #252121",
"7  c #2B2424",
"8  c #2C2826",
"9  c #2D2A29",
"0  c #2F2629",
"q  c #322C2C",
"w  c #34272A",
"e  c #34302E",
"r  c #39312F",
"t  c #3B2C32",
"y  c #353231",
"u  c #3B3434",
"i  c #3C3936",
"p  c #3D3B3A",
"a  c #3A3737",
"s  c #2B3631",
"d  c #1E1E20",
"f  c #451928",
"g  c #492B36",
"h  c #433D3C",
"j  c #44373A",
"k  c #522B38",
"l  c #45413E",
"z  c #48413E",
"x  c #4A3E41",
"c  c #463D41",
"v  c #593B46",
"b  c #653849",
"n  c #753052",
"m  c #7D1C45",
"M  c #464242",
"N  c #4C4645",
"B  c #4C4946",
"V  c #4D464A",
"C  c #4E4949",
"Z  c #454B47",
"A  c #524446",
"S  c #514946",
"D  c #524549",
"F  c #524C4B",
"G  c #5A484D",
"H  c #54514E",
"J  c #58514E",
"K  c #584D51",
"L  c #565251",
"P  c #5A5353",
"I  c #5C5A59",
"U  c #46504C",
"Y  c #62424D",
"T  c #694B57",
"R  c #75475A",
"E  c #625C5C",
"W  c #625558",
"Q  c #73525E",
"!  c #65615D",
"~  c #715B63",
"^  c #656363",
"/  c #6D6B6A",
"(  c #6B6666",
")  c #726C6D",
"_  c #766268",
"`  c #797676",
"'  c #757070",
"]  c #5F6362",
"[  c #3C4441",
"{  c #88355A",
"}  c #8D3F67",
"|  c #8B485A",
" . c #BA5356",
".. c #8A4A66",
"X. c #8E546C",
"o. c #A75573",
"O. c #837D7D",
"+. c #827678",
"@. c #8C6A74",
"#. c #B96667",
"$. c #AF6F73",
"%. c #B1655C",
"&. c #CA5859",
"*. c #D95757",
"=. c #D1504E",
"-. c #E65758",
";. c #E84F53",
":. c #CF655E",
">. c #E4635C",
",. c #D25963",
"<. c #E65C64",
"1. c #E04C62",
"2. c #C76668",
"3. c #D56767",
"4. c #C97774",
"5. c #D26C73",
"6. c #E76A68",
"7. c #84807F",
"8. c #E6857E",
"9. c #D68071",
"0. c #857D80",
"q. c #AA6784",
"w. c #B76687",
"e. c #B1768D",
"r. c #AD5B84",
"t. c #C96B94",
"y. c #D96A99",
"u. c #CA769B",
"i. c #D4769F",
"p. c #C77089",
"a. c #E5699C",
"s. c #E96C9E",
"d. c #DA77A3",
"f. c #CC79A1",
"g. c #E66DA2",
"h. c #E776A6",
"j. c #F56DA6",
"k. c #C45D85",
"l. c #8A8786",
"z. c #948A8C",
"x. c #999696",
"c. c #968E90",
"v. c #A49A9B",
"b. c #B18A92",
"n. c #A6A19D",
"m. c #B59AA4",
"M. c #ADACAB",
"N. c #A8A5A4",
"B. c #B5ACAA",
"V. c #B5B3B3",
"C. c #BAB5B4",
"Z. c #BDBDBC",
"A. c #B9B9B7",
"S. c #B5B0AF",
"D. c #9BA39F",
"F. c #CD8A91",
"G. c #E89394",
"H. c #D888A7",
"J. c #D294AA",
"K. c #E483AB",
"L. c #E996AA",
"P. c #C3BDBD",
"I. c #C8B7B9",
"U. c #CFB0B0",
"Y. c #E8B6B7",
"T. c #F8BBB8",
"R. c #F0ADA8",
"E. c #DBA69D",
"W. c #BCC1BD",
"Q. c #ADC2AF",
"!. c #C3C2BE",
"~. c #CBC4BA",
"^. c #D6C3BA",
"/. c #F0C5BB",
"(. c #C7BDC2",
"). c #D2B9C3",
"_. c #F2BACC",
"`. c #BCC6C4",
"'. c #BED4CC",
"]. c #C4C4C4",
"[. c #CAC5C5",
"{. c #C6C9C6",
"}. c #CAC9C6",
"|. c #CBC6CA",
" X c #C5CBCA",
".X c #CCCCCB",
"XX c #C3C6CA",
"oX c #D2CCCD",
"OX c #D8C8C8",
"+X c #CCD1CE",
"@X c #C6D3C9",
"#X c #D2D1CE",
"$X c #D5D5C6",
"%X c #CACDD1",
"&X c #D3CED1",
"*X c #DACFD2",
"=X c #CDD2D1",
"-X c #C9D9D6",
";X c #D3D3D3",
":X c #DBD5D5",
">X c #DADAD6",
",X c #DAD6D9",
"<X c #D5DBDB",
"1X c #DCDCDB",
"2X c #D5D9D6",
"3X c #E5CAC8",
"4X c #FBC8C6",
"5X c #E9C7D6",
"6X c #F5C7D9",
"7X c #E2DDDD",
"8X c #E6D7D8",
"9X c #F7D9D7",
"0X c #EED5CC",
"qX c #DDE1DD",
"wX c #D5E3DA",
"eX c #DFF0DE",
"rX c #E2E1DE",
"tX c #E9E7DB",
"yX c #FAE4DC",
"uX c #F2F0DB",
"iX c #DBDDE1",
"pX c #E3DDE2",
"aX c #EADCE5",
"sX c #F9D8E6",
"dX c #FFCEE4",
"fX c #DDE3E2",
"gX c #DCE9E5",
"hX c #DEF3EA",
"jX c #E4E4E3",
"kX c #EAE5E5",
"lX c #EAE9E6",
"zX c #EAE5EA",
"xX c #E5EBEA",
"cX c #ECEBEB",
"vX c #E5E8E7",
"bX c #F2EDED",
"nX c #F9E9E8",
"mX c #ECF2EE",
"MX c #E5F4EB",
"NX c #F2F1EE",
"BX c #FEF3ED",
"VX c #FDF9EA",
"CX c #ECEBF2",
"ZX c #F3EEF2",
"AX c #FDEDF3",
"SX c #FDE7F3",
"DX c #EDF4F3",
"FX c #EBFAF6",
"GX c #F4F3F3",
"HX c #FBF5F5",
"JX c #F5F9F6",
"KX c #FCFAF6",
"LX c #FDF6FA",
"PX c #F5FDFC",
"IX c #FDFDFD",
"UX c #F5F6FA",
/* pixels */
"IXIXcX].|.GXIXJX;X].,XIXIX2X].,XIXIXjX]..XKXIXNX.X.XvXIXIX}.}.qXIXIX2X].|.IXIXiX}..XGXIXJX{..XjXIXIXoX.X1XIXIXiX].|.IXIXGX]. XGXIXHX.X].kXIXIX;X.X=XIXIXzX.X|.IXIXGX]. XvXIXIX=X|.2XIXIX1X.X=XIXIXzX.X.XDXIXJX&X|.vXIXIX2X|.,XIXIX1X.X.XUXIXcX.X.XcXIXUX.X.X1XIX",
"IXIXcX|..XmXIXJX.X|.jXIXUX2X{.2XIXIXrX}.#XGXIXNX}.].JXKXJX2X{.rXIXUX1X.X>XUXIXcX].;XGXIXGX.X&XkXIXIX2X.X,XIXIXjX.X;XJXIXcX|.oXDXIXGX2X.XfXIXIX,X|.2XJXIXvX]..XGXIXcX&X.XcXIXUX;X{.1XIXIX1X].;XIXIXjX{.|.bXIXDX.X].vXIXIX2X].2XIXIX1X].;XIXIXcX|.|.cXIXIX;X].1XIX",
"jX1XjXvXvXpXpXjXvXvXjXpXjXvXvXkXrXrXrXvXlXjXjXjXKX>XrXqXrXrXrXmXjXjXjXjXGXjX2XcXjXjXjXjXpXvXjXkXiX1XcXvXvX1XrXvXcXcX1XjXjXcXcXvXpXjXcXvXjX1X1XzXjXvXjXjXvXvXvXjX1XjXcXcXkXjX7XcXcXvX,XqXcXcXcX>X,XvXbXcXqX>XpXcXcXjX1X>XcXcXcX,X,XvXGXcX1X1XjXmXmXjX>X,XcXDXcX,X",
"{.].1XIXIX2X]..XIXIXjX].}.HXIXIX].].jXIXIX#X!.2XGXIXcX].{.JXIXrXZ.].GXIXIX].].1XIXIX;X].;XIXIXvX].].IXIXGX].].cXIXIX|.].2XIXIX,X]..XIXIXjX].].JXIXIX].].jXIXIX.X].;XIXIX1X`.[.IXIXJX+X|.cXIXIX.X{.vXIXIX1X|.,XJXIXjX+X.XGXIXGX;X.XcXIXIX&X.X1XIXIX1X=X;XIXKXcX.X",
"2X.X7XIXIX1X.X2XIXJXjX.X;XDXIXGX#X+XjXIXKX>X+X>XIXKX2X!.qXIXKXjX|.{.JXIXDX|.;XfXIXJX2X.X,XIXUXvX&X&XIXJXbX;X.XvXIXHX.X;X1XUXKX>X&X;XUXKXvX;X.XNXIXJX=X.XvXIXIX;X;X,XIXHX1X;X&XIXIXcX]..XcXIXUX|.{.vXIXIX,X].1XIXIXpX|.|.IXIXGX.X].cXIXIX.X|.1XIXIX1X|..XIXIXcX].",
"GXUXvX2X2XzXHXGX&X;XjXUXGX,X&X,XKXNXrX+X>XmXKXNXW.@XJXvXS.x.x.NXIXJX,X;X1XZXIXjX&X2XzXIXcX2X;XjXIXlX1X|.iXIXGXjX&XiXcXIXcX;X2XcXJXcX1X.X1XIXGXfX.X1XGXIXkX|.,XcXUXvX2X.XvXIXZX2X|.kXIXIX1X`.2XIXIXjX[.;XGXIXcX;X{.kXIXJX,X{.qXUXIXjX].2XJXIXvX.X.XcXIXGX2X].pXIX",
"IXIXcX].{.GXIXIX}.].jXIXIX;X].;XIXIXjX!..XHXIXGXoX#Xz.a   X & [ 1XIX;XZ.>XIXIXvX(..XGXIXJX{.[.jXIXIX.X].,XIXIX7X]..XIXIXcX X.XDXIXUXoX].iXIXIX,X].;XIXIXvXP..XIXIXcX{.].cXIXIX.X X,XIXIX7X].;XIXIXvX[..XcXIXGX=X].vXIXIX2X].<XIXIX1X|.;XHXIXcX.X.XcXIXHX;X|.1XIX",
"GXJXvX;X,XcXUXcX1X;X1XGXJX1X2X1XcXNXkX;X2XlXGXlX;XM.  d P M [ & M mXmX,X,XcXGXjX;X2XmXmXGX,X1XjXDXGX2X1X1XDXGXjX2X;XJXGXcX,X,XcXJXmX&X;XvXbXUX>X2X,XGXZXjX1X2XmXGXcX;X1XcXcXDX1X;X1XIXcX1X1X,XGXGXzX2X;XcXIXcX2X2XzXcXJX,X2X1XKXJXiX2X2XGXGXcX;X;XcXDXGX;X2X1XIX",
".X].,XIXIX,X].;XIXIXcX]..XJXIXGX].].jXIXIX#X!.1XNXB 7 N C H M H : l.DXIXIX.X.X1XIXIX1X]..XIXIXjX|.].IXIXGX].].DXIXIX|.{.,XIXIX,X{..XIXIXvX{.{.UXIXUX|. XvXIXIX.X].;XIXIXiX.X.XHXIXGX]..XcXKXIX.X].vXIXIX2X[.2XIXIXfX|.|.JXIXZX|.].cXIXIX.X].,XIXIX,X{..XIXIXcX].",
".X[.1XIXIX,X X;XIXIXvX]..XcXIXUX}.}.jXIXKX#X}.1XIX2 7 F N h L p ; ] UXIXIX;XA.GXIXUX2X].2XIXIXjX{..XJXIXDX|.|.cXIXIX;X|.1XIXIX1X{.;XJXIXlX|..XbXIXGX].].jXIXIX;X[.2XIXIXjX].;XIXIXcX].|.cXIXIX|.].vXIXIX,X].2XIXIXpX{..XJXIXcX|.].cXIXKX;X X1XIXIXqX].;XIXIXcX|.",
"jXvXvXjXvXkXjXjXvXjXjXkXvXjXjXvXkXjXjXrXjXkXkXrX7Xl l C F S H C & ' GX1X1X,XcX1XcXjXjX1XvXkXvXjX1XcXjXvXjXkXvXjXvXrXvXjXvXkXjXvXpXvXjXkXvXjXvXjXzXjX1XjXjXjXvXvXvXkXfXcXvX1XvXcXjXvXkXfXvXcXcXfXjXjXvXpXkXiXjXvXvXjXqXvXjXvXjXjXvXjXvXjXvXjXvXjXvXvXjXzXkXvXjXvX",
"IXIXcX].].DXIXIX|.].1XIXIX2X(.oXIXIXrXW.+XKXIXNXoXl & F N c S F o ` UXV.;XIXIXcX].|.GXIXUX].].jXIXIX.X].;XIXIX1X].{.IXIXcX].].GXIXIX.X].jXIXIX2X].;XIXIXjX(.[.IXIXGX].|.cXIXIX.X].,XIXIXiXW.;XIXIX7X].].JXIXJX.X].cXIXIX&X].2XIXIX,X].|.IXIXZX}.].mXIXIX|.].>XIX",
"IXIXcX.X+XcXIXIX=X.XjXIXIX1X.X2XIXKXqX@X;XNXIXbX:Xl.+ t P K h , & %XcX].,XJXIXcX{.=XGXIXJX|.#XjXIXIX;X.X;XIXIXjX.X.XIXGXcX.X.XcXIXHX&X.XjXJXIX,X|.2XIXIXjX.X=XJXIXDX[..XcXIXPX&X.X,XKXIXpX].;XIXIXfX|.}.GXIXGX&X|.lXIXIX;X[.,XIXIX1X.X;XUXIXcX.X.XcXIXIX=X+X1XIX",
",X;X1XGXGXjX;X,XGXJXvX,X2XzXJXcX2X;XkXNXbX1X;XrXkXIX) + 4 > 0 > d ` ;XIXpX1X2XjXGXcXjXoX1XNXGXjX;XpXvXIXvX;X,XvXGXcXvX=XpXJXGXpX2XiXvXGXzX+X,XcXGXcX,X;XjXUXJX1X2XjXcXGXjX;X1XmXGXvX,X2XcXJXcX1X;XjXGXcXjX2X1XcXcXjX;XfXcXGXvX,X2XvXUXcX1X;XjXGXGXfXoX1XcXUXvX,X",
".X].,XIXIX1X].&XIXIXzX].|.GXIXIX{.{.rXIXKX#X].>XIXIXnXC.h @ u q &   C UXIX`.[.jXIXIX2X].;XIXIXjX]..XJXIXZX[.{.cXIXIX&X].1XIXIX1X].#XUXIXzX].|.GXIXJX|.].vXIXIX&X].,XIXIXiX].&XIXIXGX{..XcXIXIX|.(.vXIXIX2X].;XIXIX7X]..XUXIXcX].].cXIXIX;X].1XIXIX1X].&XIXIXcX].",
"2X;X1XUXJX1X;X1XJXGXvX;X>XGXJXcX#X#XfXKXGX1X#X7XIXlXkXP.7 , x P B - : M [.kX|.vXJXIX1X;X,XIXJXvX;X.XGXGXcX2X;XcXIXJX;X,XjXGXJXjX.X;XIXUXvX2X;XcXGXJX.X2XcXcXIX>XoX2XIXJXpX;X;XGXGXGX.X2XcXGXJX;X=XvXGXIX,X&X2XIXIXvX2X&XGXIXGX;X;XcXUXHX2X,XfXHXUX1X;X;XJXJXcX;X",
"IXIXcX|.&XmXIXGX=X|.1XIXIX1X[.;XIXIXrX.X}.KXIXNX+X!.HX#X. 0 C l K p 0 X , V.IXrX.XoXbXIXNX]..XvXIXIX=X.X,XIXIX1X].&XIXIXlX+X|.cXIXJX|. XvXIXIX2X|.;XIXIXjX.X.XIXIXGX].+XcXIXIX=X].1XIXIX,X.X;XIXIXjX.X XGXIXGX|.}.jXIXIX2X|.2XIXIX1X.X&XIXIXcX.X.XmXIXIX.X.X1XIX",
"IXIXcX{.{.cXIXIX|.[.vXIXIX2X].;XIXIXrX{.+XIXIXbX[.].BXM.  8 S C N C C q   8 M.IXA..XKXGXcX1X!.cXIXIX2X].2XIXIX1X].;XJXIXcX|..XGXIXGX;X].7XIXIX,X].;XIXIXjX].[.JXIXGX.X|.cXIXIX|. X>XIXIX1X].;XIXIXvX|.|.GXIXGX.X].vXIXIX;X].,XIXIXqX].=XIXIXcX|.|.cXIXIX.X].jXIX",
"cXcXvXpXiXzXcXcXqXqXvXcXcXpXqXvXlXlXjX1XrXlXlXrXrX;XGX'   e L C N c M F p * q ` lXrXkXkXKX;XrXlXcXkXkX,XjXcXvXvXfXjXjXcXvX,XjXvXcXvXkX1XiXcXvXvX1XjXvXcXvX,XfXvXzXvXjX1XjXcXcX1XpXjXjXmXvX,XjXcXcXvX1XjXjXcXkXjX1XvXcXvXjX1XjXcXkXvX1XvXvXcXjXjXfXvXcXvXvX1XjXvX",
"|.].1XIXIX1X].&XIXIXjX]..XGXIXUX{.}.lXIXIX+X}.:XIXKXNXh & h F N C S N C S y + O / IX#X}.{.IXKXlX].].IXIXGX X].cXIXUX.X].qXIXIX2X].;XIXIXvX[.}.GXIXJX|.].vXIXIX;X].,XIXIX>X].;XIXIXZXXX[.cXIXIX XP.vXIXIX;X{.2XIXIX7X{.|.IXIXDX{.].cXIXIX.X{.,XIXIX,X]..XIXIXcX].",
"+X].1XIXIX1X[.;XIXIXvX]..XGXIXGX.X}.lXIXIX+X.X1XIXKX7X2 - l C M C L F c p N a ;   ) lX+X#XKXIXrX{.].UXIXGX|.{.cXIXIX.X XpXIXIX,X|.=XKXIXvX.X].GXIXUX.X].jXIXIX;X{.,XIXIXfX].&XIXIXGX{.[.cXIXIX.X].vXIXIX;X[.2XUXIX1X.X.XUXIXGX|.[.cXIXIX.X.X,XIXIX1X|..XIXIXlX{.",
"cXcXvX1X1XvXcXmX,X1XvXcXcXjX,X1XmXcXkX>XrXlXNXlX2XkXC.& 8 M N B C p M F H P C a 7   ` vXGX1X>XrXGXvXjX;XjXmXcXjX,XjXzXNXvX2X1XcXmXjXjX,XpXbXvXjX2XjXlXZXjX;XjXcXcXcX1X,XvXGXcX2X1XvXcXmXjX;XjXbXcXjX,X1XvXGXzX1X1XvXGXcXpX2XjXcXmXjX2XpXcXGXvX,X1XvXDXvXpX2XkXcX",
"IXIXcX].].cXIXIX X|.kXIXIX2X].;XIXIXrX]..XIXIXNX!.2Xz.o y N M B C M B C B M N F i = # N 1X.X!.jXIXIX;X(.,XIXIXqX].=XJXIXcX].|.cXIXJX;X].fXIXIX2X].;XIXIXjX`..XUXIXGX{.].cXIXIX|.{.>XIXIX1X`.#XIXIXjX].|.GXIXGX.X].vXIXIX;X].,XIXIX1X]..XUXIXlX{.}.cXIXIX.X].1XIX",
"IXIXcX.X;XcXIXGX2X.X1XIXIX,X.X,XKXIXrX.X.XKXKXcX#X:X/   a C M N N L C M B B V F L y 6 X e #X.XlXIXIX2X=X,XIXIX>X|.&XIXIXcX;X+XGXIXJX.X|.jXIXIX,X.X;XHXIXvX&X.XGXIXJX|.;XcXGXIX2X|.1XIXUX1XoX;XUXIXvX;X.XmXIXGX.X.XkXGXIX,X.X2XIXIXiX;X;XJXIXZX;X.XcXIXHX;X;XiXIX",
";X|.fXIXIX,X+X1XIXIXvX.X;XGXIXDX#X{.kXIXKX1X}.>XKXKX8 = i B F B N B B B B B B B N F a q . l kXGX{.&XUXIXZX;X&XcXIXIX.X;X1XIXIX1X.X;XUXIXvX&X.XJXGXUX&X;XkXGXIX;X.X2XIXJX1X;X&XJXIXcX|.;XcXIXJX&X=X7XIXIX2X;X&XIXIXjX=X.XGXIXZX=X.XcXUXIX;X;X7XUXIX1X&X;XIXJXcX|.",
" X].1XIXIX,X].=XIXIXvX].|.ZXIXKX}.{.kXIXGX>X].>XIXvX- , l F C M Z B Z B B B B B M H M B 8 . P ].1XZ.IXIXcXW. XzXIXUX;X].1XIXIX1X].;XUXIXvX]..XGXIXJX].].vXIXIX&X].,XIXIXjXZ..XIXIXcX]. XcXIXUX.X].jXIXIX2X].;XIXIXjX]..XHXIXmX[.].cXIXIX&X{.1XIXIX1X].=XIXIXcX].",
",X>XjXcXcXjX1X1XcXcXvX1X>XvXcXmX>X>XkXlXlXjX>X1XIXA.+ 6 B H B M V Z B B V V Z B C C M h H 0   p l.IXvXmXvXZX.XcXmXvXkX2XkXmXcXjX2XjXcXbXkX;XiXvXZXvX,X2XkXmXmX1X2XkXcXGXvX;XjXcXmXjX1X,XcXJXcX1X;XvXcXcXjX;XkXvXcXjX2XjXcXmXkX1X,XvXGXvXiX,XjXmXZXjX2XrXcXJXvX,X",
"IXIXcX.X.XcXIXIX+X|.7XIXIX,X|.;XIXJXjX].#XKXKXcX:X` X 9 C B N C B B Z Z Z B B B l N I l N L , . & A.1X].1XJXIXpX X|.IXIXcX|.|.mXIXJX;X|.jXIXIX2X}.;XIXIXvX{.oXJXIXGX.X.XcXIXIX&X|.,XIXIXqX|..XIXIXvX]..XJXIXUX&X|.vXIXIX;X{.2XIXIX>X|.=XKXIXmX.X.XcXIXUX.X.X1XIX",
"IXIXcX|.|.cXIXIX|.].qXIXIX,X]..XIXKXvX].+XKXIXNX;XC X a C C N H B Z B N B B B B C M C C c C B a + & D.<X,XDXIXjX].|.IXIXcX].}.GXIXIX.X{.pXIXIX,X].;XIXIXcX].|.UXIXGX].|.cXIXIX+X{.2XIXIX1X]..XIXIXvX].|.JXIXUX.X[.cXIXIX&X].2XIXIX,X X.XIXIXcX[. XcXIXIX.X|.1XIX",
"jXqXjXcXcXjX1XjXcXcXvX1X1XvXcXlXjX>XvXlXvXrX1XlXjXa & p L C M Z Z V V Z Z Z B Z L B p B K C C B y ; : M.KX1XGX1XvXjXcX1XvXcXvXjX1XjXkXcXvX1XjXvXzXvXfX>XvXcXcX7XjXjXvXcXjX,XjXcXcXvXjX1XjXGXvXjX,XjXvXcXkX,XvXvXvXjX1XjXvXcXjXjXjXjXlXvXkX1XvXcXcXjX>XjXcXcXvXjX",
"|.].1XIXIX1X{.;XIXIXlX]..XGXIXIX}.{.kXIXKX#X[.jX>Xd 6 N C F N N V Z Z V B B B B l C L S C B x V C d ; : V.iXM.cXIXIX;X|.1XIXIX1X].;XJXIXvX{..XGXIXGX{.].kXIXIX=X].,XIXIXqX]..XIXIXcX|.|.cXIXIX.X].jXIXIX2X X;XIXIXpX[..XJXIXcX|.{.cXIXIX;X X1XIXIX1X].;XIXIXcX].",
".X XiXIXIX,X[.2XIXIXvX|.=XGXIXGX+X[.jXIXKX2X[.rXC.  9 C N B M Z B B Z B B Z Z B F c L N h K H V V U 9 ; - n.cXcXIXKX|..X1XIXIXwX].;XIXIXkX.X|.GXIXIX|..XjXUXIX;X].2XIXIXfX.XoXUXIXcX].+XGXIXJX.X|.qXIXIX;X.XoXIXIXfX&X.XJXIXGX.X XcXIXIX;X.X1XIXIX1X|.;XIXIXcX].",
"JXHXvX;X2XcXJXcX;X;XvXIXGX2X;X1XGXIXrX>X2XNXNXHX` + e N C M C Z B B B B B V Z B B V B V Z B B B x K h h + + ' jX#X;XNXKXcX+X>XkXJXGX;X;XvXGXIX1X&X,XJXGXjX2X;XGXLXGX.X*XzXGXIX,X*X1XIXJXpX2X;XLXIXvX.X:XcXUXZX,X&XkXGXUX,X&X,XJXGXmX+X2XDXJXcX=X2XcXIXzX2X,XiXIX",
"IXIXcX].|.cXIXIX|.].1XIXIX,X].#XPXIX>X].oXIXIXKXG @ a C F M Z N B Z B Z Z V B Z N Z Z V B B V B F N M N u = & c.;X}.KXIXlX{.W.GXIXUX.X].pXIXIX;X].;XIXIXkXZ.}.IXIXUX{.[.lXIXIX].].,XIXIX1X(.&XIXIXlX].}.ZXIXIX}.}.zXIXIX&X].1XIXIX=XW.{.PXIXcX|.%XjXIXIX&X|.pXIX",
"GXGXcX2X2XcXJXGX2X;X1XGXJXjX2X,XKXKXvX;X>XlXHX8X7 + l N F N Z Z V B B B B B B B B B B B B B V Z N D F A D p   9 ].>XGXJXmXqX+XlXIXcX1X.X1XIXbX1X;X1XcXUXvX.X,XcXZXzX:X2XcXUXZX,X&XpXmXZXpX.X1XcXZXzX;X,XzXZXcX;X;XkXJXzX,X;XpXcXKXGXwX].IXKXjX;X].IXIXCX,X,XpXUX",
"&X.X1XIXIX1X|.;XIXIXvX|..XcXIXGX}.+XcXKXIX*X>XC.% 4 S M C N B C B B B B B B B B B B B B B B B B x F D F M S q   A.KX#X+XrXKXIX1X|.2XIXIXjX.X.XJXIXGX.X{.jXIXIX;X|.,XIXIXpX}.;XUXIXGXoX;XcXIXIX.X.XcXIXIXjX].7XIXIXjX&X.XIXIXGX.XA.rXIXIX1XA.1XIXIXcX{.&XIXIXZX.X",
"{.W.>XIXIX,X]..XIXIXzX].{.ZXIXIX!.].vXIXIX#XoXz.@ q F c C C B C B B B B B B N B V B B V B V B B F N h F N c 6 = 1XIX].Z.>XKXIX1X]..XIXIXkX].].IXIXUX|.W.jXIXIX.X].,XIXIX1XP..XIXIXcX(.].lXIXIX}.(.kXIXIX,XC.;XIXIX1X[.].JXIXcX!.;XrXIXIX!.oX.XV.V.z.N.,XIXZXzX|.",
"zXjXjXvXvXjXjXzXjXjXjXvXkXvXvXjXmXxXkX>XlXkXkX' . y C M C F B Z V B B B B B Z V B B B B B B B B A M D N L h   I GXlXkXjXcXlX2XvXjX1XkXvXvXlXjXvX1XcXvXcXjXrXvXvXjXvXvXkXkXkXcXkXvXkXpXvXjXrXvXkXfXcXkXjXjXjXcXkXjXkXkXpXkXjXcXtXqXqXNX>XNX>Xp   ; o ; V ,XLXpXaX",
"IXIXcX|..XcXIXIX.X|.fXIXIX,X{.;XKXKXqX!.:XIXIXP @ u S C F B B B B V V B B V B V B B B B B Z V V x D P h N a + x.7X}.GXKXNX#X!.NXIXNX#X].jXIXIX;X[.;XIXIXrX[.}.KXKXbX.XoXkXHXKXoX#X7XIXIXrXoX>XVXIXbXoX#XbXIXUXoXoXlXIXKX,XoXrXKXIXrX}.OXHX( @ H c I p + ~ |.,XIX",
"IXIXcX]. XbXIXJX+X{.1XIXIX;X].,XIXIXjX!.OXGXkX2 < h F F N N Z C B V Z N B B B V V B B B B N V B F D A P h & q (.B.P.7XrX#XA.,XKXIXIX,X.XrXKXIX>X}.#XKXIXjX}.}.KXIXHX].}.>X7X7XP.V.P.pX:X~.A.A.wX7X.XS.P.>X7X:XC.S..X7X7XZ.S.!.wXrX~.S.!.P.& h F K p P u ; Z.LXLX",
"1X,XpXJXGXjX2XfXGXGXvX;X1XZXJXzXqX2XkXJXcXrX.X< , x F M N F H C M C D N M N N C C B M N F K C N A x u 0 4 < = * & ; * & ; 7 N E ! ' N.>XmXrXkXNXNXmX;XqXNXNXNX1X;XkXIXOX8 o & # = : = $ # = $ = & & & & = # # = = = = = = # = # $ $ $ = + 9 l J K c F c q &XZX*X",
" X].1XIXIX,X].|.IXIXvX].[.GXIXIX].W.kXNXIX7Xv.. q N K N B B U B D N M C F F C c M V F F B p e q * ; * * * = = - - , 2 < & & + & X   : 8 B ' M.wXIXKX}.C.rXIXIX>X[.!.IX7.  8 2 9 3 3 2 2 2 2 8 8 , 7 2 2 2 3 2 2 - - 2 = 2 2 - 2 3 < = < 3 $ F l V p M L O ZXHX|.",
"oX=X1XJXJXpX;X&XIXUXkX;X;XcXJXJX2X#XlXGXIX7XI + u N C C B B Z B N C N N N N N C F B c y 6 > ; ; , 6 0 q a h h c N N M N B N c h i e 3 = X . X = ! n.$XrXbXIXHX:X7X>XHXJ X i C N J S S U z U z z S B S B H U H H B B Z z z H z H S z z J r 8 r ! c L I 7 y GXkX&X",
"GXIXcX.X+XcXIXGX2X.X1XIXIX1X.X2XJXKX1X#X:XNXr + h N B N B B M C N C C C M x C S h q ; % * , 7 q h x M C F F F H C N M M N C F F Z S B z h 9 3 = o X i n.7X$XoXNXBXbX!.q = l B M z Z z z z U z H M N B M z z z z Z z B B z H z z z z z J w 3 X r F c q . c.1X,XIX",
"IXIXcX].].GXIXIX].].1XIXIX2X(..XIXIX1XA.}.HX9 & A D C M B B Z H F N x N F F h w * * > 7 u M D F C C C C C N N N S F F F S C N M B F S B B S B z 8 2 X X e ' !.IXIXKXc.X 3 J e H J z J H S J U H F F S H B S J z S S S B S H H U J S z z 3 $ I $ X   e c.,XoX>XIX",
"zXvXjXjXjXvXcXvX1XjXvXcXkXiX1XvXmXrXNXrXkXV.+ 7 A F F C B B z C N N D G N u 4 % > 0 h N S D F F S C S C C C C D M N D D A D D S l z B N B B z l H l i 3     z M.tXKX! X e J z F Z z z z z z z z B z B z B z U z z z B z z z z z z z z q + +.KXS.N.n.W.KXrX}.NXcX",
"+X|.1XIXIX>X|.;XIXIXcX|..XcXIXJX+XA.lXIXKXl.. , j D F N B B l B M D F h 7 * = 4 h A F G N c x N N N C C N D D S F G D N x M A D S B z S z z F F B l z z l 8 X   ' B.8 = l l I l J S Z J J Z S S S B F S S B H z H H B S U H z H P B z 2 = !.NXKXKXkX>X.XIXIXKXZ.",
".X].1XIXIX2X].;XIXIXvX]..XIXIXZX.X}.rXIXIX.Xh o 0 h C N F F U B F N u 4 * < j K S A N N N S D D B B C S C N C M v D v D G v v v G A S U U B B B F z H M S M 8 3 . 9 2 3 z z B l z J z z J z J z B S B B B S z H z B z B z S S z z z 3 X 7.,X$XIXIX2X!.{.IXIXjX.X",
"GXcXjX1XjXcXcXvXqXjXvXcXvXjXpXjXvXjXvXjX,XKXqXZ . d i J l l z H C q & ; y N S D C N D N C N N B Z Z S S z C H D v b b R ~ X...X.{ n v V K U c x V K N S N N Z Z s $ $ 8 z z z J z H z z z J H z N C N C C N V N D N C S N B N N H e = 2 vXcXcX>X1XcXcXcX,XqXjXmX",
"IXIXcX|.|.mXIXJX|.{.jXIXIX,X{.=XIXIX,X X{.cXIX,X) X X 9 z B H l 0 > , a N M N F N C N C N C C N U l z G J B V v n ..r.u.f.f.K.h.y.p.X.G c K v K D V A A A M Z Z l i = $ s z J z z H z H z H z U D N C N N C N C F M N C M N B N Z [ X ` IXIXbX{.|.cXIXJX;X.X1XIX",
"IXIXvX].].cXIXIXoX|.fXIXKX1X.X;XDXIXfX=XqXGXIXKXrX` e + 2 S l 3 & , y S F M M F C N C N C N C N Z z z z K v v R r.f.d.g.d.d.g.y.h.K.f.@.Q b c F V C N N N N z B H z l = = 8 l z I z z H H z U z N C N C C N A C C M C C M C C N a & d @XIXHXcX;X].xXIXUX;X].pXIX",
".X;XvXIXIXjX;X&XGXGXvX;X2XcXGXGX.XfXjXvXDXjX;X;XNXIXS.N X $ 3 2 , p F S N F F M N C N D N D N C z S S G G v T r.d.h.g.g.a.g.g.y.y.g.h.d.e.Q c C V B A A B N B M z J z l 3 $ 2 l z z U z J z z J C N C A N V N C C C D C M C F N 9   l.IX;X;XvXJXKX1X.X;XIXIXcX.X",
".X(.2XIXIX;X`..XIXIXcXZ.].GXIXIX{.`.gXIXIX.XZ.>XIXIXrX$X( = 2 = p F K M M F F M C N C N V N C C x V K v v T r.f.f.g.g.j.j.j.j.h.h.g.a.g.d.q.W c N N N N B B S A H l z I z 3 = = z H H z z z z z N C N D C N C N N N D C N F F p : 9 vXIX].].,XIXIX>X|.;XIXIXcX.X",
"2X2XkXJXGXjX,X,XcXGXvX,XiXcXGXvX1X|.vXIXmXjX>XqXJXNXkX:X$X= # z C N N C D C C C N C N C N C V B V V U V v ..e.H.d.h.g.j.j.j.g.a.h.j.j.j.h.f.@.v A N N N Z B A A H z z z H z 8 X 8 l H H z U J U C N N C N C N C N N C C N F M 0 O x.GXCX,XjX,XDXGXfX;X>XmXGXcX2X",
"IXIXvX.X.XlXIXIX;X.X1XIXIX1X.X2XIXGXjX].+XKXIXlX+X}.uXVX8 = e z D M x C F N N D C N V N C N B B C Z U c b q.H.u.t.t.g.g.a.j.j.g.y.g.j.j.s.H.e.Q A A N Z B C A F z H J U z z l 8 = e l z z z H z N N C N C N N C M C C N B C u & Z jX=X&XJXIXcX;X.XcXIXUX;X|.1XIX",
"IXIXcX].|.mXIXGX].].jXIXIX;X].2XIXIXcXW.+XUXIXKX].].KX` # , J z N F F N M C C N D N N C N C B B U [ U V T e.d.r.n r.f.g.a.j.g.d.h.i.g.j.g.h.F.X.v A B Z Z B A A z J z z z J H z $ 2 i z J H z S D V N C A N V C N C D N N N 9   M.DXW.(.IXIXGX]..XcXIXKX.X|.1XIX",
"vXvXjXvXvXvXvXcXvXkXjXjXvXkXkXjXjXgXjXjXvXvXvXrXlXNXC.X 2 z l J C C C N C N C N D B C C C M N C [ U U V R u.i.d.q.n ..f.g.g.h.d.h.f.d.d.a.k.i.w.b A Z Z Z B C V z S S B z H z z i = = l P z l S C N C N C N C N h P c C L u X c kXcXiXcXjXcXjXvXjXjXcXvXcXjXzXvX",
"|.].1XIXIX,X}..XUXIXlX]..XDXIXGX{.{.jXIXIX;X}.;XIXGXl $ i U J z N C N C C N N C S N M M F F D B U Z [ D X.f.d.u.J.r.n } t.h.g.g.f.w.w...{ { y.p.b v Z Z Z B C V B B B B H z J z z e $ 3 z H z H N C N D N C N C S M M F M 9 + l..XlXIXGX;X.X1XIXIX,X]..XUXIXlX].",
".X{.7XIXIX1X|.;XIXIXcX|..XbXIXJX.X{.vXIXIX;X}.2XKXN.o 2 z H S z N C N N N C C C C C D N M M N N M C x b n p.h.t.} } n n t.h.g.h.r.n b { o.k.d.t.n A N Z Z V C N B S H z z H z U z z 2 # [ H z F C N C N N N A C C x F C q = c oX].cXIXIX.XA.1XIXIXfX].;XGXIXzX X",
"cXGXcX1X1XcXGXcX1X>XjXGXDXjX,XqXGXDXjX<X>XcXNXlX2Xi 2 8 z S l J V N N C N N D C x N C N C C S S N F v v n w.u.} { } w.i.y.h.j.a.y.n n e.i.h.h.r.b v B Z Z V B C B B z H B z H z B J r $ 8 z S l N C N C C V N C M N F M , . c.HXIX,X.X;XUXIXcX+X;XcXJXGX2X2XqXHX",
"IXIXcXZ.].GXIXIX].].1XIXIX2X].+XIXIX>X XZ.IXIXIXD.X 2 l P l P l N N N N N N N N F F C S K F N h N J Y Y b | w.r.t.y.d.g.g.g.s.a.K.f.} n r.H.e...b D V U V Z V V H z B z H z z H z J z 8 * i H z D N C N N D C N C M x p + r oXIXIX1X|.+XKXIXcX|..XcXIXJX&X.X1XIX",
"JXGXjX;X,XcXGXDX2X2XjXGXcX1X,X1XcXFXjXqX=XGXNXGX^ X e J z l I l C N C B N C N N h c N N y , $ + < , z W h g 0.J.H.h.y.y.h.g.a.h.y.f.y.} { e.u.R v v V V V V V V z H B B z H z z U z z l # 3 B B N C N C C N N C C F N < & N.bXbXUX7X;X2XGXIXcX;X.XcXIXJX&X X1XIX",
"2X;XiXIXUXjX;X,XUXIXcX;X2XZXIXDX;X;XvXUXUXfX;X#Xy : H F l B z H N V D C D N M M L p - + & y ^ z.S < < r P Z F Q w.g.j.g.h.g.y.h.g.h.g.y.t.e.T c V D D D V F V D B z z z U z z H U z J z 2 , i F C N C N V N C N M F h   W HXHX;XoXcXIXUX2X|.fXIXIX1X].;XIXIXZX].",
"(.W.7XIXIX2XZ..XIXIXjXZ.[.UXIXGX].`.cXJXIX=XZ.M.= 2 M i P z B z N A D C C N M c & + q O.oXHXIXIXIXz.r X s U Z D R o.y.d.w.t.K.p.d.f.h.h.q...v V V V D V V V V D H z H H z J z J z z H z y < 7 S N C N D N C N C S h = @ ].IXbX}.].cXIXIX.X].,XIXIX,X|..XIXIXcX].",
"jX1XpXmXcXjX,XvXcXcXvX1X1XkXCXmXqXqXfXGXfXxXlX'   i S z F z S S N V F c C N d o p N.lXUXIXIXIXUXIXIX>X^ : : a K Y k q.J.| e.X.o.f.e.q.~ b v x V V L F V F K x D V L V Z V h L N N N N N z 3 * z F z l B z l B B C y + ` HXjXlXkX1XzXcXcX2XfXpXcXGXfX1X,XcXcXcX1X",
"IXIXvX].].cXIXIX|.].1XIXIX1X]..XIXIXjX|..XKXKXI o l H S S S S S j K x V p ; d c.UXIXIXIXUXIXIXIXHXJXIXIXM.a o 6 v T +.q.| @.X.q.m.r.c g G P K c c -   o 4 p K x L M p V ] F a B B M N B z 8 * r B F B z J H Z z q + ; kXpX].kXZXIX1XW..XIXIXcX].].cXIXIX.XW.1XIX",
"JXIXbX.X.XJXIXGX;X{.,XIXIX2X{.,XUXIXqX].=XJXvX= = z H z S S S z K V K 0 # V ,XUXIXUXIXIXIXIXLXIXIXIXIXUXPXgX` o < j A b Y R v X.q.R b v x 5 * X   y ' / 5 % t K V V L U p V B B F N M B S r * 3 9 i l l l l l B 9 + x.IX&XA.pXIXIX1X&X&XKXIXcX.X.XcXIXIX=X.X1XIX",
"1XpXpXvXvXjX1XjXcXcXvXpXjXcXcXvXqXvXjXzXzXjX}.= d B F z S z S S x x u o L UXIXIXIXW.jXIXUXIXIXIXHXIXIXDXDXPXcXV.w % g T k v Q v c k t > . % B ` Z.xXUXIXzX/ O % [ V c V B V L V B B N B S h < = $ X X # # 8 3 -   h pX;XbXlXbX1X,XkXmXvXvX,XvXcXcXjX,XvXkXZXvX1X",
".X].1XIXIX2X].&XIXIXcX].].JXIXHX]..XjXIXIX1XM.d 3 N N z z S S z P 0 & L KXIXGXKXZ.: Z fXIXJXGXIXIXLXUXIXIXIXPXIX7X( @ < G x g 5 % % < G z.&XUXIXIXIXIXIXUXIX(.4 & y H V F F M C B N B B S z 3 $ ! / / E 2 $ = = l P.1X.XHXIXUX[.].CXIXIX.X].,XIXIX,X]..XIXIXcX].",
"=X;XvXIXIX1X.X;XIXJXkX]..XcXIXJX|.=XjXJXGXqXl.  e Z B M J S S S F * c ZXIXGXIXIXIXc.: & A.IXDXIXHXIXIXIXPXPXPXUXIXIXm.4 + + % t ~ m.aXIXIXIXIXPXCXIXIXJXIXIXZXzXC o c L p L M C N N S N N N 8 $ N.KXIXIX~.W.1XqXbXKXP.oXGXIXZX&X.XcXUXIX&X=X,XIXIX1X.X;XIXIXcX|.",
"UXJXvX&X;XvXHXUX2X=XfXIXIXjX;X,XIXIXjX|.=XGX7.X e F B z F S S z o 8 <XIXIXIXcXIXJXIX.Xy   x.IXmXIXIXIXIXIXPXIXPXUXcXIXLXM.x.&XIXUXLXIXUXZXIXIXPXPXIXIXIXIXIXLXIXzXc : p L C N B N M F z S J q . ` lX!.#XbXIXKX#X;X:XIXIX,X.X;XIXIXjX{.;XGXIXvX;X=XcXIXGX2X|.fXKX",
"IXIXcX].|.JXIXUX.X(.2XIXIXoX`.2XIXIXrXW.+XIX7.. y F B z F S z l X v.JXIXGXKXIXIXIXmXIXcXL . ` IXIXIXIXIXIXPXPXPXIXIXIXIXGXIXPXIXUXUXIXIXIXPXIXIXIXJXIXIXIXLXIXIXIXCXp : V M C N N N S N S J r . ! KX!.W.VXIXNX.X].zXIXIX.X[.kXGXIX1X[.&XIXIXcX.X.XcXIXKX.X.X1XIX",
"GXGXcX2X;XcXJXZX,X2XjXGXGXiX,X,XmXUXvX.XpXIX` O e N F S F z J # p IXIXKXKXIXKXIXIXKXIXIXNX/   / LXAXIXIXJXPXDXPXIXIXIXJXIXIXPXPXIXIXIXIXPXIXIXPXPXIXIXJXIXIXIXIXUXIX,X7 9 h C M M F S z z S z X / NX$X>XlXNXNX1X>XkXcXKX,X,X1XGXGXjX,X2XbXDXcX1X,XcXcXZX2X1XpXGX",
"|.[.7XIXIX1X[..XIXIXkX].].cXIXUX{. XjXIXKXvX/ o e B B B S z l $ N.UXIXIXIXIXIXNXIXIXKXIXIXNXz.  W IXIXUXIXPXPXIXIXJXIXIXIXDXPXIXPXJXPXIXIXJXIXIXIXJXIXIXIXLXS.M ( IXLXM.. e B H N S B B z S h X J bXIXKX#X!.1XKXIXrX].#XJXIXbX.X].cXIXUX=X].1XIXIX1X].;XIXIXcX].",
"+X].,XIXIX;X].;XIXIXlX]..XJXIXmX.X].vXIXIX2X/   e B U z S z 3 3 kXIXJXKXIXlXNXIXKXKXKXIXlXIXKXl.  ` zXIXIXPXIXPXIXGXUXIXDXIXIXGXPXIXIXJXIXIXIXGXIXIXJX,X7.6   4 l.UXIXIXI & c C M S S S S J z X I tXKXIX>X}.wXmXKXqX;X|.GXIXDX|.|.cXIXKX;X.X>XIXIX2X.X.XIXIXcX X",
"vXvXvXjXjXvXjXjXvXjXpXvXvXvXjXkXcXqXjX1XjXDXM.# 8 B S z F S * E KXJXKXIXKXIXKXO.E F F N i e e i +   W.IXDXIXIXIXIXIXIXAXIXGXJXIXIXPXIXIXPXIXIXIXIX:X( o d ^ V.CXIXGXIXIX,X- 8 M B S z J z S z X I NXqXtXrXrXlXkXrXjXlXqXkXjXvXjXjXvXjXzXjXvXfXjXjXjXvXjXzXjXvX1X",
"IXIXcX].|.JXIXIX.X].iXIXIX2X].;XIXUXvXA.{.IXrX= 2 M F B S z + z.IXKXIXNXKXKXlXz , j h r J ! B P 0.` 1XIXIXJXIXIXLXLX).|.*XLXIXLXIXcXIXIXZXIXIXC.B + 4 0.=XIXIXIXIXLXIXIXIX) o M F F M S S S h X ] KXW.{.NXKXGX}.].cXIXIX;X].,XIXIX1X|.+XIXIXcX|..XcXIXKX.X.X1XIX",
"IXIXvX{..XcXIXJX[..XvXIXIX2X|.;XIXJXNX|.2XGXjX6 = l F z S j $ P.KXVXKXIXIXnXKXIXAXKXKXKXKXIXIXIXUXIXIXIXIXPXIXHXLXm.% v t W AXIXIXIXIXGXIXpX~ ; j c.zXIXIXUXIXLXZXIXIXUXKXoX& e C C B S z S j . ! IXW.}.KXKXGX|.}.lXIXIX;X X2XIXIX1X|..XIXIXGX|..XGXIXIX.X|.1XIX",
";X;XjXUXGXjX;X;XJXGXkX;X;XvXGXGX;X=XvXcXGXqXrXC o p S F J w < :XIXNXKXKXI.kXBX[.IX8XnXIXnXBXKXBXIXJXUXKXGXIXIXIXLX5 I.)._.G 0.IXZXIXIXIXIXc.  % W (.LXAXLXIXIXIXIXIXIXIXIXIXN & B N z F S N j X P mXNXVXqX$XjXKXJXrX.X1XbXIXvX2X2XcXJXmX1X=XjXJXGXjX#X,XcXIXcX;X",
".X[.1XIXIX;X].;XIXIXvX].&XJXIXGX+X].cXIXIX|.2X( X r z z P 3 , aXIXmXKX:XS.HXOX3XAXB.nX3XP.IXIXIXIXIXUXIXIXIXIXIXLXK @.I.(.j c.LXIXIXIXUXLXAXx.I % . 4 ` (.bXIXIXIXIXLXIXHXIX` # B Z z B N z u X O.qXIXIX#X{.=XIXIXpX.X[.JXIXGX[.].cXIXIX+X|.,XIXIX2X|.=XIXIXcX].",
";X2XkXUXJXiX;X2XHXJXvX;X2XcXUXGX=X2XcXmXIX1X&XP.; > K h V t 4 7XKXKXnXB.BX3XU.VXY.I.BXB.9XIXKXKXPXIXJXIXIXIXUXIXLXCXI p p ^ CXIXIXIXIXKXIXIXIXIX,Xx.c % O 4 ) (.IXLXIXIXJXIXC.o [ M Z H M N q + V.ZX7XKX2X+XfXJXLXzX<XiXMXUXSX,X&XzXGXZXpX.XjXIXIX1X;X;XUXKXDX+X",
"IXIXcX.X.XcXIXIX.X.XjXIXIX1X.X;XIXIXjX|.;XGXIXLXp % w K K 5 w aXIXbXS.yXBXU.yX9XY.VXU.9XBXKXIXPXDXIXIXIXZXHXLXSXLXIXCXzXCXUXIXIXKXKXKXKXIXUXIXIXIXIXIX|.z.V % . x.IXLXIXIXIX-X; a U N C N M > , pXnXv.I.GXIXMX$X).aXIXFX-X'.iXLXIXkX(.;XGXIXcX[..XcXIXUX;X{.fXIX",
"IXIXcX].].GXIXJX.X].1XIXIX;X].;XKXIXqX|.].LXIXIXl.O 0 j K t 4 |.VX:X~.VX3X^.yXY.0X0XU.KXIXIXIXPXIXDXIXIXI j N.LXIXLXIXUXLXIXSXLXIXJXIXIXIXIXIXUXUXIXHXIXIXIX*Xc.I.IXIXLXIXIXjX6 8 U M B C p . G AXAXm.m.HXIXMX@X=XzXIXUX-X`.<XPXIXjX].2XGXIXGX{.|.ZXIXIX.X X>XIX",
"cXvX1XjXjXjXzXcX1XvXcXzXkXvXkX1XvXcXjXjX1XcXcXlX7XV * 0 P x   M.IXlXKXnX$XVX3X^.nXU.VXHXIXKXIXIXFXIXIXIXx * 5 4 _ v.,XLXIXLXLXUXKX#XIXKXUXIXIXIXIXIXIXHX*XIXLXIXIXIXnXIXKXNXKXd 6 L h B S q . c.AX9XY.$./.nXeXwX$X>XgXCXgXgXgXCXvXpX1XzXcXlXcX,XqXvXvXcX1XjXfXcX",
";X].,XIXIX2X].;XIXIXcX].|.JXIXGX|.|.vXIXIX;X[.;XIX(.o 6 V V o ` IXKXIXKXKXKXyXKXyXnXVXHXIXIXUXIXIXIXUXIXc ' ).~ g 5 % 5 c v G c q * oXIXIXIXIXIXIXLXLXI.*XKXI.3XnX^.KX$XnXKXtX8 8 J l C M ; ; Z.$X0XnX$.#.R.0XVXKXtX~.~.bXIXbX|.oXzXUXIX,X(.iXIXIX1X X=XKXIXmX X",
"].].jXIXIX1X].].IXIXjX].|.mXIXIX].].vXIXIX&X[.&XIXIX) O 4 [ q y bXHXHXKXIXKXKXKXVXKXIXIXHXIXIXUXGXIXIXIXG v aXSX).).m.@.Q T T ~ V * oXIXIXIXLXIXHXIX8XI.HX^.OXVXI.$XnXI.bXKX:X, e F B F i o N ;X!.tXHXR.| $.F./.VXyX^.OXBXLXSX_.).GXIXGX2XZ.1XIXIX2X]. XIXIXcX].",
"cXGXcX,X,XcXGXZX,X,XjXGXGXjX,X>XUXcXjX1XfXvXGXJX,XiXkXp : y a o S.IXIXHXKXIXKXKXIXlXIXIXLXIXIXUXIXUXUXIXE K sX).dX6XdXdXdXSXSXsXG L zXLXIXIXHXLXIXAXI.9XBXU.yX9X^.KXB.8XKXnXrX  i B S M 6 - z.xXeXtX3XY.p.4. .#.4.G././._.T.T.4XOXkX;X,XZXGXkX,X2XzXGXcX>X;XjXDX",
"IXIXcX]..XDXIXJX.X XiXIXIX;X].2XIXIXjX[.].IXIXcX].].GX.X& : 9 & K LXHXHXIXKXKXIXKXIXGXIXIXIXLXIXIXIXIXIX_ x aXaX5X6X5X6XdX5X5X).% l.IXAXIXIXIXLXHXP.$XBXB.yXVXn.VX^.^.KXVXVXv.+ z N C p & s &XIXPXmX[.I.4X#.3.3.*.&. .2.#.#.2.#.m.2X}.[.IXIXvX}.{.cXIXIX+X X,XIX",
"IXIXcX.X;XcXIXGX2X.X1XIXIX,X.X,XGXIXkX.X.XUXIXcX&X{.vXIX`.  6 ; % Z.IXNXIXIXPXIXIXPXPXIXIXIXIXIXIXIXUXIX0.5 aX_.6X_.dX_.dX6XaXe.% ,XIXIXLXIXIXLXnXI.IXOXOXVXU.9XyXB.VXVXVXBX! $ z J l , o c.2XIXPXgX%X,XnX9XG. .*.-.>.*.3.:.&.%.0XjX.X;XUXLXvX2X;XcXPXUX;X;XqXIX",
".X.XjXIXIXfX.X;XGXIXcX;X;XGXIXGX2X;XjXUXIX1X;X1XIXIX7X[.iXXX; o * 0 kXIXNXDXIXPXIXPXIXIXIXUXIXIXLXIXIXIXM.4 I.sXdX_.6XdX6X5X5X5 ~ cXIXIXIXIXIXIXIXHXIXnXnXBX0XyX~.8XKXtXKXnXw 3 z z u $ E IXGX2X&XCXUXCX7X3XR.G.:.=.&.=.>.=.:.9.Y.ZXZXZXpX;X1XJXIXjX.X2XJXIXvX+X",
".X].,XIXIX;X].=XIXIXcXA.Z.JXIXGX XA.jXIXIX|.!.;XIXJXkX].|.LXn.q * % P GXIXKXIXIXJXIXPXJXIXIXIXLXLXIXHXIX,X> m.sX5XdX6X6X6XsXv.> ).IXIXIXIXIXIXIXIXIXHXKXKXVXIXVXKXVXKXKXVXv.+ j J h # # 1XIXIX[.(.aXUXIX1X~.3XyXyXR.8.>.*.=.=.9.I.JXIXIXoXZ.1XIXIX,X.X=XIXIXcX X",
",X1XvXcXcXjX1X,XcXcXvX1XpXcXDXcX1X,XvXcXcX1X1XjXZXZX7X:XzXzXLX8Xt . = P cXIXGXIXJXIXIXIXIXIXIXIXIXIXIXIXLX> z.6X6X6XdX6X5XsXg K IXIXIXIXIXIXUXIXIXIXIXKXIXKXKXKXVXKXKXKXVXj * F u < X c.IXcX1X7XaXaXCXCXkX;XrXnXuXuX/.R.6.>.=.9.9XzXcXcXpX;XzXzXcX1X1X1XDXNXvX2X",
"KXIXcX.X.XZXIXIX.X|.jXIXIX,X{.2XIXIXjX].}.UXIXGXoX|.ZXLXIXOXS.zXIX` $ X h ;XIXUXIXGXZXIXIXIXUXIXIXLXIXUXLXV v aX_.6X6X6XSXe.O Z.IXHXIXIXIXIXIXIXIXIXIXIXIXIXGXIXIXIXIXKXl.. 0 N * X l.IX:XoX.XIXIXCX%X XzXIXGX@XQ.eXVX/.=.;.=.G.HX,X[.&XIXGXGX{.&XcXIXJX;X.XqXIX",
"IXIXkX X}.cXIXIX{.].1XIXUX;X].;XIXIX1X.X|.IXIXHX(.S.IXLXHXaX8X*XHXIXB.w * % l.kXUXIXIXIXIXIXIXLXIXHXIXIXUXx.: 5X6X6X6XdX).4 ` IXIXGXIXIXIXIXIXIXIXIXPXIXIXKXIXIXIXGXDXM.# 0 x , $ ` IXHX7XC.#XNXIXvXXX%XZXIXGX%X'.eXVXF. .=.;.6.BX7X|..XIXIXGX].].DXIXIX{.].<XIX",
"1X1XjXmXDXjX1X,XcXcXvXjXjXcXcXcXjX1XjXcXzXjXpXjXZXIXN.x h j l.kXlXtXIX!.q $ + t x.8XIXIXGXUXIXIXIXHXIXIXUXpX0 @.dX5XdX5Xg t IXKXKXKXIXKXIXIXIXPXUXIXFXPXIXJXIXIXKXIX=X; = - &   +.IXbXbXHXKXmX7XkX7XwXhXxXiXpXCXxXrXyXF.3.6.;.=._.lXvXvXkXpXjXkXcXjX<XfXcXDXvX,X",
".X|.1XIXIX2X.X;XIXIXjX].|.JXIXGX].].vXIXIXoX}.,XLX5X< b X._ 1 @.OX7.z 3 4 < 4 , @ 0 ' }.LXIXIXIXIXIXIXIXIXIX0.o m.aXJ.v % *XIXDXIXIXIXKXIXPXIXPXIXPXIXIXIXIXPXIXKXV.d & - ; 8 ,XIXP./ / N.NXIXoXI.8XPXFX-XZ.iXLXIXrX3Xp.&.<.;.>.F.nXIXKX.X%X2XIXIX<X{. XIXIXcX].",
";X.XpXIXIX1X.X;XIXUXvX.X;XGXIXGX{.;XzXHXIX,XA.jXLXT b J.L.J.e.1 , > @ < j S x G j $ X * p z. XMXIXIXNXIXKXIXGXE . t @ 4 (.IXGXIXIXGXIXIXIXIXIXIXIXKXIXIXGXIXIXHX` 8 ;   * ^ 1Xn.q   +   X 6 O.oX$X7XKXPX-X@X,XLXHXHX~.E.2.;.;.-.:./.VXlX-X XzXSXIXiX%X-XFXIXCX%X",
"GXGXvX,X2XvXGXGX2X2X7XGXGX1X,X1XFXGXbXoX*XIXUXlX5Xg | L.H.u.e.f 5 y F G G A h G G G N 3 X . & [ / M.qXIXIXBXIXIXB./ O.8XIXIXIXIXJXIXIXJXIXIXIXIXJXIXIXKXIXIXn.h #     E P.NXM   e x.P.N./ <   ^ HXNX{.-XMXPXAXaX7X2XKX9X%.1.;.*.=.8./.0XNXDXCXpX<XCXFXDX<X%XiXUX",
"IXIXcX].].GXIXIX{.].1XIXIX&X(.=XIXGXpX[.oXUXPXPX:X@.b H.F._.$.@ > * q y j N x A A K A N F h 6 * X & - Z O.N.oXnXIXLXIXIXHXIXIXJXIXIXIXNXIXIXIXIXIXIXIX[.l.G $ . & L !.:XIX'   ^ lXIXlXIXIX1XH   C.HXZ.+XFXIXAXP.|.1XIXVX$. .>.>.=.:.G./.IXIXzX[.(.CXLXIXXX{.iXIX",
"GXGXvX2X,XcXGXcX,X2XjXNXmX1X;XfXJXIXkX[.2XDXxXxXoX).5 n q.| 1 G I i q 2 * , < < < , < 5 0 j F G e i s # + + > y F 0.v.C.>XjX7XrXrXrX7XnXrX}.P.B.c.W q > % . 0 +.7XIXM.c.N = u lXIXIXIXIXKXKXoX, 4 oX,XqXxXGXLXpX2XmXtXnXT.2.&.=.:.=.:.F.9XKXGX2X,XCXLXUX-X=XpXUX",
";X.X1XIXIX1X|.2XIXIXvX|..XZXIXJXXX XbXIXIX1X-XgXIXIXm.v v b c.SXGX[.D.! 2 . + 0 A j g x < > J h L C F h h h 0 % < @ X + * 7 q q 7 , w j > % * @ . @ > < < % < N 7 8 # . + . c.IXHXKXIXNXIXIXIX( + !.IXmX;X+X;XDXPXfX<X~.VX/.2.:.*.=.*. .F.U.rXKXIX8XI.oXIXIXmX!.",
".X].1XIXIX2X(.;XIXIXzX].|.JXIXGX<XC.1XIXGX<XA.D.^ . w v @.aXIXOX^ s = X & N z..XnXHXIXHX_ % G G C h S C h N J K x h N h 7 0 q + 7 < < < = q < , w 7 < > , , 1 = q h / n.:XA.7XIXIXHXIXIXIXKXKXv.  c.IXVX1X.X-XIXPXiX+X~.VXuX/.6.;.>.>. .%.v.:XIXLX8X3XOXKXKXbX.X",
"kXfXkXvXvXjXfXjXvXvXjXjXjXvXvXkXpXvXkXvXUX-XI     a c 4   a ;     = Z 7..XKXIXIXIXIXHXIX+.+ A N D N N G A N A j > 7 j K P N N W D F S N P D * S nX*XoXoX*X8X:X8XbXIXKXGXIXIXIXIXIXNXIXIXKXHXIXC.  ` GXMXkX1XfXgXxXCXrXtXuX0X4X6.>.;.=.:.T.yXbXtXnX7X8X7XlXcXkX7X",
"IXIXcX].].GXIXJX.X].,XIXIX;X].,XIXIX7X[.].B   I %XxXZXCX` . q ^ N.;XKXIXIXIXJXKXHXIXHXIXz.# h J h P M h P S w @ q > 4 h N S F N M F N h L y % I.IXHXIXIXHXIXIXIXIXIXHXIXKXNXIXIXIXIXIXHXIXIXKXM.  / 2X{.zXIXPX`.{.kXKXKX^.U.2.&.-.=.:.R.VXKXlX[.oXnXIXIX X{.1XIX",
"UXIXcX|..XZXIXUX=X|.qXIXIX;X{.,XLXIX&X8Xl.  ` IXIXUXIXIXPXV.;XIXIXIXIXIXKXGXIXIXKXFXKXJXD.o z F K h M W u % < E aXP.. 7 S x K x S M C B C & H IXBXIXNXIXIXIXGXIXIXBXIXHXIXIXIXIXIXKXIXKXIXKXIX`   D.=X!.KXIXDX-X%XaXLXLX0X9.%.<.6.=.G./.BXIXAX|.oXmXPXPX%X%XiXIX",
",X,XjXGXmXjX,X>XcXcXvX1X1XvXCXlXaX|.AXbX4 j ZXLXIXGXIXPXPXJXIXIXIXHXHXIXIXIXKXGXN.c.PXIXN.# y N h G J , . j v.KXIXBXz.  x A M J L h N B a & !.GXIXIXIXIXKXIXIXIXIXIXNXIXKXGXoXrXGXIXIXIXIXIX.X, a @XJXMXfX;XfXDXCXzX5X9X0X$.#.1.*.5.4XVX1X XzXSXZXfX-X<XDXDXCX,X",
";X].2XIXIX;X].;XIXIXcXZ.{.GXIXIXI.(.LX&X  0.LXIXIXIXIXIXDXIXIXHXIXIXIXNXKXIXJXIXs [ IXIX!.. z E G q > % / rXIXIXHXIXIXM . h G h p H U Z   ^ IXJXIXmXIXIXKXIXIXKXKXGXIXKXGXIXr i 1XIXNXIXHX}.N   x.mXJXKX2X].;XIXIXSXI.).T.#.,.-.&.L.VXJX-XW.pXLXIX<X'.'.IXIXCX(.",
".X.XjXIXIX1X.X&XJXUXvX;X;XcXKXZX*XOXZX.X@ v.LXAXLXIXFXPXPXIXLXIXIXHXIXIXIXIXJXM.  M.IXKXb.% g g < . A S.IXIXNXKXIXHXIX*X7 , S N L C l e 8 1XKXIXIXIXIXIXKXKXPXKXIXIXIXGXHXV., X 3 ) x.S.7.q X l.}.NXPXPX<X].iXLXAXnXOX9XE.#.<.-.=.T.VXFX-X'.iXLXIXiX`.-XPXIXCX(.",
"IXIXvX{.|.cXIXIX;X;XjXIXGX,X&X,XUXLXzXS.o c.LXLXLXIXFXPXPXIXUXC.bXIXbXKXIX#Xc.e e nXnXv @ g 1 f t v.nXIXKXIXKXIXIXNXKXIXN.+ , J h V p . l.IXkXN.v.W.;XcXJXKXJXGXcXZ.c.E u . X l 2     +   2 O.IXIXjX{.@XDXIXUXoX&XkXHXHXF.*.-.*.5.T.^.+XFXPXDX%X&XmXIXJX%X%XiXIX",
"IXIXGX|..XJXIXJX].].qXIXIX;XW.&XIXIXMXx.  ^ LXIXIXIXPXFXFXIXOX< c.qXS.) p . O   +.IXX.5 e.F.e.1 b.HXIXIXIXIXIXIXIXKXKXIXHX) > w P K * h GXIX:X+   + q q e a y y ,   . X 2 ) v.;XS.` ` l.B.!.7XIXIXkX;X XMXPXIX;X.XiXIXVX4.&.-.-.#._.^.oXDXPXDX%X&XnXIXKX@X@XfXIX",
"DXcXvX,X,XvXmXcX1XpXjXcXcXfX1XjXDX;XDX-Xs 6 aXAXIXIXPXFXFXIXz.@ q X   . : F W . U.LXf $.J.H.L.| A KXIXIXGXIXIXJXKXIXIXIXIXbXN & , 4 @ (.IXHXHXI.M $ P < # * , $ B O.l.}.7XIXIX7X>XbXIXHXKX,X:XHXAXaX7X>XgXMXlX8XfXqXlXuXG.=.-.*.4.4X4X9XcXDXxX<X8XsXnXlXwX2XfXMX",
".X}.1XIXIX,X}.;XIXIXcX]..XGXIXJX=X XgXPXA.  ~ IXIXIXPXFXPXZXc > 8 I l.D.1XkX) * sXsX5 b.J.p.L.| Y IXHXIXKXIXIXIXKXIXIXJXIXIXW 5 Y k 5 U.nXIXHXIXW , pX].7XbXbX[.>XjXIXIX>X}.].KXIXkX[.].jXIXHX].(.8XIXIX-X@XoXIXPXeX~././.*.-.*.#.9XAXLX*X`.wXPXIX8XOX$XKXPXMX`.",
".X].1XIXIX,X{.;XIXIXcX]..XGXIXGX|..X<XIXIXC   ] ,XIXPXIXxXI   ' =X+XIXIXIX2X/ q LXAXv n J.J.J.f c.bXIXHXIXPXPXPXPXIXIXAXLXv.5 F.H.H.X.g AXIXIXIX] ; (.&XzXIXUX1XZ.#XIXGXrX{.}.IXIXcX+X!.NXIXGX+X`.wXKXIX2X!.$XKXVXeX^.R.R.>.-.=.2.4XAXHXOX{.-XPXIXiX&X&XLXIXxX{.",
"cXcXvX1XfXvXzXkX1X,XkXcXZXvX1X1XvXcXjXjXjX].]   - C 7./ d   L -XDXgXgX2XjXvXp V LXLX).5 g X.5 k aXIXIXHXIXIXPXIXPXIXIXLXLXb ..H.i.K.H.1 ).IXIXMX' 6 pXzXpXpXjXzXJXqXrXqXlXlXNX>X7XrXlXlXMX>XwXMXMXhXwXqXlXlXnX3XyXE.%.#.>.>.;.;. .E.9X9XtXvXMXgXfXvXCXCXpX1XfXMX",
"IXIXcX].].GXIXUX;X].,XIXIX&X].1XIXIXfX].Z.IXUXc.[ & :   d l.2X2XIXIX2X]..XUX- ^ IXIXLX)._ b b.SXLXIXUXIXIXIXPXPXPXPXJXIXLX@.k J.u.H.F.5 sXPXDXPX` d UXIXjX(.;XGXIXNX}..XcXIXIX#XW.,XKXKX<X@X<XKXJXgX@X`.NXKXLXT.4.&.*.<.-.>.*.3.%.F.Y.0XKXIXMX`.'.CXUXLX&X.X>XIX",
"IXIXcX&X.XcXIXJX X.XvXIXIXfX.X.XKXIXjX.X;XGXIXIX&XC.XXjXvX<X&X;XJXIXjX.X2XGX& 0.UXIXAXIXIXLXLXIXLXLXIXIXIXIXIXIXPXIXIXLXSX).5 b.J.H.b k aXIXPXIX` : iXIXCX|.1XDXIXIX.X[.GXIXGX:X>XlXIXIX<XA.+XJXIXlX}.!.VXKX_.$.5.,.1.1.=.,.:.%.%.b.U.3XcXIXFX X`.CXIXLX.X].wXPX",
"1X;XpXJXGX1X2XjXIXIXjX XoXcXIXJX;X1XkXcXIX1X|.,XGXIXGX;X1XUXJXZX.X8XZXZXUX%X: l.IXIXIXDXGXIXUXIXIXIXIXIXHXIXIXIXIXIXPXJXLXLX@.@ k f v ).IXIXDXPX] - |.:XzXGXDX1X;X;X7XlX8X].].kXC.O.) N.IXIXmX2X;XaXLXLX0XY.4. . .3.5.G.R.4XVX^.Y.9XHXKX:X#XgXFXUXiXoX:XKXKXlX@X",
"].W.1XIXIX,X]..XIXIXzX]..XUXIXJX].].cXIXIX;X.X;XIXDX,X]..XIXIXZX(.(.cXIXIX`.: x.IXvXPXPXIXDXIXFXIXIXIXIXLXIXIXIXIXPXIXIXHXIXIX).z.J.SXIXUXIXIXIXV V *X(.pXIXIX=X;XP # 0 < < 4 q < +   E vXKXKX.X[.*XSXLX4XJ.o.#.p.L.Y.4XKXVXVX!.P.9XKXIX{.W.iXIXIX8X}.oXIXIXMXW.",
",X1XkXcXcXjX1X1XGXmX1X2X2XvXZXGX;X;XcXJXvX;X1XiXNXDXcX;X2XIXIX,XpX8XkXZXGX&X; l.IXIXPXxXPXPXFXPXPXFXIXIXIXIXIXIXIXIXJXIXDXIXHXIXLXLXIXbXIXIXDXIXq ` ZX8XjXJXDXiX;X` $ 0 l M h j M S - c.IXIXGX2X-XmXAXLXU.%.9.F.nXuXOX$XeXMXCX<X:XnXbXNXeX2X<XcXLXpX*X8XNXKXtX@X",
"IXIXcX|..XZXIXGX.X{.7XIXIX,X].;XIXIX,X X;XIXIXcX{.&XzXIXIX.XZ.cXIXIX1X.X&XDXd O.IXJXIXIXIXIXIXPXPXPXIXIXIXIXHXIXUXIXIXIXIXIXIXUXUXIXUXIXIXIXIXjX% +.LXLXlX|.=XmXIXHXh & G J A G S A . S.NXP.{.IXFXDX(.*XU.@.I./.^.tXVXFX-X%X=XLXIXjX}.{.PXIXmX&X|.bXIXKXoX}.wXKX",
"KXIXcX].].DXIXHX.X].1XIXIX;XZ.2XIXIXkXZ.}.IXIXmX|.].cXIXIX].].jXIXIX;XZ.pXlXo ( IXIXIXIXIXIXIXIXPXIXIXIXIXIXIXIXIXIXIXIXIXPXIXIXIXJXPXPXIXIXIX].  x.LXIXkX].;XIXKXIXc.@ h D J h S u 4 ,X:X]..XIXPXDX].|.l.$XVX^.^.tXKXIX*X).5XUXIX,X{.{.PXIXCX{.|.nXIXHXOX{.wXKX",
"vXvXzXcXvXkXjXcXvXjXkXjXvXvXvXkXvXpXjXvXkXjXvXvXvXvXkXvXjXvXvXjXxX<XcXjXkXzXB p AXIXLXIXIXIXLXIXPXPXIXIXIXIXIXIXIXIXIXIXPXIXIXPXPXPXIXPXPXIXGXx.- (.bX7XpXpXjXjXbX,X< = ! D x P G w y lXNXrXkXZXCXxX1XkX~.lXtXtXtX8XyXaXzXaXCXzXvXgXgXvXgXvXvXkXzXkXkXkXkXrXrXrX",
".XW.2XIXIX=XZ.&XIXIXcX].|.UXIXGX.X].fXIXIX&X].,XIXIX1X]..XIXIXcX=XZ.IXIXGX1X` + ,XIXLXLXIXIXLXIXIXPXIXIXIXIXIXIXIXIXIXPXPXPXIXIXFXPXPXIXPXIXKXI & ,X|.}.bXIXIX>XN.; 9 N M j N h P , h ~.kXIXKX].(.aXLXIX;X[.~.KXKX9XOX).LXIXFX'.`.DXIXIX%X[.,XIXIX,X|..XIXIXmX~.",
";X.XiXIXIX1X.X;XIXIXzX.X;XcXIXJX&X.XfXIXIX;X.X1XIXIX7X.X;XUXIXcX.X.XDXGXIX,XO.  0.IXLXLXLXLXIXIXIXPXIXIXIXLXIXIXIXIXIXPXIXIXIXIXIXPXPXIXKXKXNX& ) IX8X&XlXIX.Xl., + I M F F W G A * 7.7XbXIXIX>X|.aXLXAXtX.X$XKXIXaXOXoXAXIXFX-X XxXIXIX;X%X1XIXIX,X.X#XKXIXcX@X",
"GXGXvX,X1XcXGXmX,X2XjXJXZX1X2XpXDXGXkX2X1XcXGXcX,X2XzXGXGX2X,XjXDXDXfX+XvXGXl.  u aXIXIXUXIXIXIXIXIXIXIXIXIXIXIXIXIXIXIXIXIXIXIXIXJXKXIXIXIXv.  M S.V.N.) N , @ u N h N S h 7 h F   M.nXjX:X}.mXGXxX<X2XcXcXGX1X;XvXCXGX<X2XqXFXGXpX,X2XZXbXcX2X2XvXDXCX,X,XpXGX",
"IXIXcXP.].cXIXIX].].1XIXIX;XW.;XIXIXvXZ.[.IXIXUX].].cXIXIX].].2XIXIX;X`..XIXc.O l.ZXIXIXIXIXIXIXIXIXIXIXIXIXIXIXIXIXPXIXIXIXIXIXIXPXIXKXIXHXj = - = # & + 0 y A M H B B N < * > r & 1XIXrX{.{.IXPXvX`.%XvXIXIX`.W.CXPXIX+XW.#XIXIX1X(.[.IXIXZX].].DXIXPX{.`.8XIX",
"GXJXlXiXiXcXJXGX,X2XjXGXmXpX2X1XGXGXkX2X1XcXGXcX,X2XvXGXDX,X2XfXJXmXiX1X1XcXI d JXIXIXIXIXPXPXIXPXIXIXIXIXIXIXIXPXIXIXIXIXIXIXIXKXIXIXIXHXc.& e C Z C L N S A G F B p , + M lXl.  u bXGX1X#X1XGXIXvX&X1XDXIXDX-X-XxXDXmX1X:X9XnXNXpX:X:XbXHXvX2X<XxXDXMXiX,XpXSX",
"&X.XpXIXIX1X.X;XIXIXvX.X;XGXIXDX&X.XpXIXIX1X+X2XIXIX1XoX;XIXIXcX.X2XcXIXUX{.& y IXGXIXIXPXPXPXPXIXIXIXIXIXIXIXIXIXIXIXIXIXIXIXIXIXIXIXIX7X* > 2 q p p i h j j j 9 - * p v.7X:XIXO.z.#XoXmXIXKXoX}.jXIXUXiX%X XPXPXgX@X.XVXKXnXOX[.nXLXIXoXoX>XIXPXwX%X=XIXIXCX|."
};
