/* XPM */
static char *ground1754264455[] = {
/* columns rows colors chars-per-pixel */
"128 128 91 1 ",
"  c #FFC8DD",
". c #FEC9DD",
"X c #FDC8DC",
"o c #FFCBDF",
"O c #FEC7DC",
"+ c #FFC6DC",
"@ c #FFC5DD",
"# c #FEBAD3",
"$ c #F9AFCA",
"% c #FFB0CD",
"& c #FFAFCC",
"* c #FFAECC",
"= c #FFADCC",
"- c #FEAFCC",
"; c #FFB9D3",
": c #FFC5DC",
"> c #FFC7DD",
", c #FFCBE0",
"< c #FFC6DD",
"1 c #FBB1CC",
"2 c #FFAECF",
"3 c #FDACCC",
"4 c #FEAFCE",
"5 c #FBB0CE",
"6 c #F7B1CD",
"7 c #FEBCD7",
"8 c #FFC8E1",
"9 c #FFC6DE",
"0 c #FFC8DF",
"q c #FEC8DF",
"w c #FFC7DF",
"e c #FEBDD5",
"r c #F7B1CB",
"t c #FCB2CD",
"y c #FFB1CE",
"u c #FDADCA",
"i c #FFC9DE",
"p c #FFCADE",
"a c #FFC5DB",
"s c #FFC4DC",
"d c #F8AEC9",
"f c #FEB8D2",
"g c #FFC4DB",
"h c #FFCADF",
"j c #FFC7DE",
"k c #FFC9E0",
"l c #FFC8E0",
"z c #FFC8DE",
"x c #FEC7DE",
"c c #FDC7DE",
"v c #FFC3DB",
"b c #F5AFC9",
"n c #FBB2CD",
"m c #FCB0CC",
"M c #FAB1CC",
"N c #FCB1CF",
"B c #F9AECC",
"V c #FAB1CE",
"C c #F8B2CE",
"Z c #F6B1CD",
"A c #FFC7E1",
"S c #FFC5DE",
"D c #FFBCD5",
"F c #F6B2CB",
"G c #FCB3CE",
"H c #FFC4DE",
"J c #FFC6DF",
"K c #FFC5DF",
"L c #FFBBD4",
"P c #FAB0CB",
"I c #F9B3CD",
"U c #FFC9DF",
"Y c #FCBBD3",
"T c #F6B0CA",
"R c #FDBCD4",
"E c #FDB3CE",
"W c #FEAECB",
"Q c #FFAFCD",
"! c #FCC9DC",
"~ c #FFCCDF",
"^ c #F8AFCA",
"/ c #FDB1CD",
"( c #FECBDE",
") c #F7AEC9",
"_ c #FFADCB",
"` c #FFACCB",
"' c #FDAECB",
"] c #FFAECD",
"[ c #F8B2CC",
"{ c #F5B1CA",
"} c white",
/* pixels */
"               .XoO+@#$%&*==**&&--&&***&%$;@:>,.               <1&&&&&&&&&&&&&&&234567890qqq00ww>>  ... +0ertyu*&&&&&&&&&&&&&&&&",
"               .XoO+@#$%&*==**&&--&&***&%$;@:>,.               <1&&&&&&&&&&&&&&&234567890qqq00ww>>  ... +0ertyu*&&&&&&&&&&&&&&&&",
"               .XoO+@#$%&*==**&&--&&***&%$;@:>,.               <1&&&&&&&&&&&&&&&234567890qqq00ww>>  ... +0ertyu*&&&&&&&&&&&&&&&&",
"               .XoO+@#$%&*==**&&--&&***&%$;@:>,.               <1&&&&&&&&&&&&&&&234567890qqq00ww>>  ... +0ertyu*&&&&&&&&&&&&&&&&",
"               .XoO+@#$%&*==**&&--&&***&%$;@:>,.               <1&&&&&&&&&&&&&&&234567890qqq00ww>>  ... +0ertyu*&&&&&&&&&&&&&&&&",
"               .XoO+@#$%&*==**&&--&&***&%$;@:>,.               <1&&&&&&&&&&&&&&&234567890qqq00ww>>  ... +0ertyu*&&&&&&&&&&&&&&&&",
"               .XoO+@#$%&*==**&&--&&***&%$;@:>,.               <1&&&&&&&&&&&&&&&234567890qqq00ww>>  ... +0ertyu*&&&&&&&&&&&&&&&&",
"               .XoO+@#$%&*==**&&--&&***&%$;@:>,.               <1&&&&&&&&&&&&&&&234567890qqq00ww>>  ... +0ertyu*&&&&&&&&&&&&&&&&",
"iiiiiiiiiiiiiiipXpOas#d%&*==**&&--&&***&-dfsg+hXiiiiiiiiiiiiiiij1&&&&&&&&&&&&&&&23456789kkkkkkllzziipppi+0ertyu*&&&&&&&&&&&&&&&&",
"iiiiiiiiiiiiiiipXpOas#d%&*==**&&--&&***&-dfsg+hXiiiiiiiiiiiiiiij1&&&&&&&&&&&&&&&23456789kkkkkkllzziipppi+0ertyu*&&&&&&&&&&&&&&&&",
"               .XpOas#d%&*==**&&--&&***&-dfsg+hX               <1&&&&&&&&&&&&&&&234567890qqq00ww>>  ... +0ertyu*&&&&&&&&&&&&&&&&",
"               .XpOas#d%&*==**&&--&&***&-dfsg+hX               <1&&&&&&&&&&&&&&&234567890qqq00ww>>  ... +0ertyu*&&&&&&&&&&&&&&&&",
"               .XpOas#d%&*==**&&--&&***&-dfsg+hX               <1&&&&&&&&&&&&&&&234567890qqq00ww>>  ... +0ertyu*&&&&&&&&&&&&&&&&",
"OOOOOOOOOOOOOOOXXpOas#d%&*==**&&--&&***&-dfsg+hXOOOOOOOOOOOOOOO:1&&&&&&&&&&&&&&&23456789xcccxx99++OOXXXO+0ertyu*&&&&&&&&&&&&&&&&",
"OOOOOOOOOOOOOOOXXpOas#d%&*==**&&--&&***&-dfsg+hXOOOOOOOOOOOOOOO:1&&&&&&&&&&&&&&&23456789xcccxx99++OOXXXO+0ertyu*&&&&&&&&&&&&&&&&",
"::::::::::::::::+z:vs#bn1mmmmm11111111m1Mbfsvs0::::::::::::::::sM111111111111111NBVCZ7ASSSSSSSSSs::::+::swDFnG$11111111111111111",
"1111111111111111NBVCZ7AHJJJJJJKK@<<<<><<s9LFGGPt1111111111111ttIs::<<<<<<<<<<<<>+U+:@YTnM111111M111111m1nT;@s@k<<<<<<<<<<<<<<<<<",
"&&&&&&&&&&&&&&&&234567890qqq00ww>>  ... +jRrEyWQ&&&&&&&&&&&&&%%t:OO            .!~X+<Y^/-&**&&----&&***&%$;@:>,.                ",
"&&&&&&&&&&&&&&&&234567890qqq00ww>>  ... +jRrEyWQ&&&&&&&&&&&&&%%t:OO            .!~X+<Y^/-&**&&----&&***&%$;@:>,.                ",
"&&&&&&&&&&&&&&&&234567890qqq00ww>>  ... +jRrEyWQ&&&&&&&&&&&&&%%t:OO            .!~X+<Y^/-&**&&----&&***&%$;@:>,.                ",
"&&&&&&&&&&&&&&&&234567890qqq00ww>>  ... +jRrEyWQ&&&&&&&&&&&&&%%t:OO            .!~X+<Y^/-&**&&----&&***&%$;@:>,.                ",
"&&&&&&&&&&&&&&&&234567890qqq00ww>>  ... +jRrEyWQ&&&&&&&&&&&&&%%t:OO            .!~X+<Y^/-&**&&----&&***&%$;@:>,.                ",
"&&&&&&&&&&&&&&&&234567890qqq00ww>>  ... +jRrEyWQ&&&&&&&&&&&&&%%t:OO            .!~X+<Y^/-&**&&----&&***&%$;@:>,.                ",
"&&&&&&&&&&&&&&&&234567890qqq00ww>>  ... +jRrEyWQ&&&&&&&&&&&&&%%t:OO            .!~X+<Y^/-&**&&----&&***&%$;@:>,.                ",
"&&&&&&&&&&&&&&&&23456789kkkkkkllzziipppi+jRrEyWQ&&&&&&&&&&&&&%%t<       iiiiiiip!(Xa:Y)/-&**&&----&&***&%d;sg+iXiiiiiiiiiiiiiiii",
"&&&&&&&&&&&&&&&&23456789kkkkkkllzziipppi+jRrEyWQ&&&&&&&&&&&&&%%t<       iiiiiiip!(Xa:Y)/-&**&&----&&***&%d;sg+iXiiiiiiiiiiiiiiii",
"&&&&&&&&&&&&&&&&234567890qqq00ww>>  ... +jRrEyWQ&&&&&&&&&&&&&%%t<              .!(Xa:Y)/-&**&&----&&***&%d;sg+iX                ",
"&&&&&&&&&&&&&&&&234567890qqq00ww>>  ... +jRrEyWQ&&&&&&&&&&&&&%%t<              .!(Xa:Y)/-&**&&----&&***&%d;sg+iX                ",
"&&&&&&&&&&&&&&&&234567890qqq00ww>>  ... +jRrEyWQ&&&&&&&&&&&&&%%t<              .!(Xa:Y)/-&**&&----&&***&%d;sg+iX                ",
"&&&&&&&&&&&&&&&&23456789xcccxx99++OOXXXO+jRrEyWQ&&&&&&&&&&&&&%%t<       OOOOOOOX!(Xa:Y)/-&**&&----&&***&%d;sg+iXOOOOOOOOOOOOOOOO",
"&&&&&&&&&&&&&&&&23456789xcccxx99++OOXXXO+jRrEyWQ&&&&&&&&&&&&&%%t<       OOOOOOOX!(Xa:Y)/-&**&&----&&***&%d;sg+iXOOOOOOOOOOOOOOOO",
"1111111111111111NBVCZ7AHSSSSSSHHs::::+::s9LFGGPt1111111111111ttI@<<<<<<<:::::::++z+gsYbnM111111M111111m1nb;svsj:::::::::::::::::",
"::::::::::::::::+z:vs#bn1mmmmm11111111m1Mbfsvs0::::::::::::::::sM111111111111111NBVCZ7ASSSSSSSSSs::::+::swDFnG$11111111111111111",
"OOOOOOOOOOOOOOOXXpOas#d%&*==**&&--&&***&-dfsg+hXOOOOOOOOOOOOOOO:1&&&&&&&&&&&&&&&23456789xcccxx99++OOXXXO+0ertyu*&&&&&&&&&&&&&&&&",
"OOOOOOOOOOOOOOOXXpOas#d%&*==**&&--&&***&-dfsg+hXOOOOOOOOOOOOOOO:1&&&&&&&&&&&&&&&23456789xcccxx99++OOXXXO+0ertyu*&&&&&&&&&&&&&&&&",
"               .XpOas#d%&*==**&&--&&***&-dfsg+hX               <1&&&&&&&&&&&&&&&234567890qqq00ww>>  ... +0ertyu*&&&&&&&&&&&&&&&&",
"               .XpOas#d%&*==**&&--&&***&-dfsg+hX               <1&&&&&&&&&&&&&&&234567890qqq00ww>>  ... +0ertyu*&&&&&&&&&&&&&&&&",
"               .XpOas#d%&*==**&&--&&***&-dfsg+hX               <1&&&&&&&&&&&&&&&234567890qqq00ww>>  ... +0ertyu*&&&&&&&&&&&&&&&&",
"iiiiiiiiiiiiiiipXpOas#d%&*==**&&--&&***&-dfsg+hXiiiiiiiiiiiiiiij1&&&&&&&&&&&&&&&23456789kkkkkkllzziipppi+0ertyu*&&&&&&&&&&&&&&&&",
"iiiiiiiiiiiiiiipXpOas#d%&*==**&&--&&***&-dfsg+hXiiiiiiiiiiiiiiij1&&&&&&&&&&&&&&&23456789kkkkkkllzziipppi+0ertyu*&&&&&&&&&&&&&&&&",
"               .XoO+@#$%W_``__WW''WW___W%$;@:>,.               <PWWWWWWWWWWWWWWW234567890qqq00ww>>  ... +jRrEyWQWWWWWWWWWWWWWWWW",
"               .XoO+@#$%&*==**&&--&&***&%$;@:>,.               <1&&&&&&&&&&&&&&&234567890qqq00ww>>  ... +jRrEyWQ&&&&&&&&&&&&&&&&",
"               .XoO+@#$%&*==**&&--&&***&%$;@:>,.               <1&&&&&&&&&&&&&&&234567890qqq00ww>>  ... +jRrEyWQ&&&&&&&&&&&&&&&&",
"               .XoO+@#$%&*==**&&--&&***&%$;@:>,.               <1&&&&&&&&&&&&&&&234567890qqq00ww>>  ... +jRrEyWQ&&&&&&&&&&&&&&&&",
"               .XoO+@#$%&*==**&&--&&***&%$;@:>,.               <1&&&&&&&&&&&&&&&234567890qqq00ww>>  ... +jRrEyWQ&&&&&&&&&&&&&&&&",
"               .XoO+@#$%%Q]]QQ%%%%%%QQQ%%$;@:>,.               <t%%%%%%%%%%%%%%%234567890qqq00ww>>  ... +jRrEyWQ%%%%%%%%%%%%%%%%",
"               .XoO+@#$%%Q]]QQ%%%%%%QQQ%%$;@:>,.               <t%%%%%%%%%%%%%%%234567890qqq00ww>>  ... +jRrEyWQ%%%%%%%%%%%%%%%%",
"<<<<<<<<<<<<<<<<+U:s@#Tnt/////tttttttt/tnT;@s@k<<<<<<<<<<<<<<<<@ntttttttttttttttNBVCZ7AHJJJJJJKK@<<<<><<s9LFGGPttttttttttttttttt",
"ttttttttttttttttNBVCZ7AHJJJJJJKK@<<<<><<s9LFGGPttttttttt1111111[s::<<<<<<<<<<<<<+z:vs#bnt/////tttttttt/tMbfsvs0:<<<<<<<<<<<<<<<<",
"%%%%%%%%%%%%%%%%234567890qqq00ww>>  ... +jRrEyWQ%%%%%%%%&&&&&&&1:OO            .XpOas#d%%Q]]QQ%%%%%%QQQ%-dfsg+hX                ",
"%%%%%%%%%%%%%%%%234567890qqq00ww>>  ... +jRrEyWQ%%%%%%%%&&&&&&&1:OO            .XpOas#d%%Q]]QQ%%%%%%QQQ%-dfsg+hX                ",
"&&&&&&&&&&&&&&&&234567890qqq00ww>>  ... +jRrEyWQ&&&&&&&&&&&&&&&1:OO            .XpOas#d%&*==**&&--&&***&-dfsg+hX                ",
"&&&&&&&&&&&&&&&&234567890qqq00ww>>  ... +jRrEyWQ&&&&&&&&&&&&&&&1:OO            .XpOas#d%&*==**&&--&&***&-dfsg+hX                ",
"&&&&&&&&&&&&&&&&234567890qqq00ww>>  ... +jRrEyWQ&&&&&&&&&&&&&&&1:OO            .XpOas#d%&*==**&&--&&***&-dfsg+hX                ",
"&&&&&&&&&&&&&&&&234567890qqq00ww>>  ... +jRrEyWQ&&&&&&&&&&&&&&&1:OO            .XpOas#d%&*==**&&--&&***&-dfsg+hX                ",
"WWWWWWWWWWWWWWWW234567890qqq00ww>>  ... +jRrEyWQWWWWWWWW&&&&&&&1:OO            .XpOas#d%W_``__WW''WW___W-dfsg+hX                ",
"&&&&&&&&&&&&&&&&234567890qqq00ww>>  ... +0ertyu*&&&&&&&&&&&&&%%t:OO            .XpOas#d%&*==**&&--&&***&-dfsg+hX                ",
"&&&&&&&&&&&&&&&&234567890qqq00ww>>  ... +0ertyu*&&&&&&&&&&&&&%%t:OO            .XpOas#d%&*==**&&--&&***&-dfsg+hX                ",
"&&&&&&&&&&&&&&&&234567890qqq00ww>>  ... +0ertyu*&&&&&&&&&&&&&%%t:OO            .XpOas#d%&*==**&&--&&***&-dfsg+hX                ",
"&&&&&&&&&&&&&&&&234567890qqq00ww>>  ... +0ertyu*&&&&&&&&&&&&&%%t:OO            .XpOas#d%&*==**&&--&&***&-dfsg+hX                ",
"&&&&&&&&&&&&&&&&234567890qqq00ww>>  ... +0ertyu*&&&&&&&&&&&&&%%t:OO            .XpOas#d%&*==**&&--&&***&-dfsg+hX                ",
"&&&&&&&&&&&&&&&&234567890qqq00ww>>  ... +0ertyu*&&&&&&&&&&&&&%%t:OO            .XpOas#d%&*==**&&--&&***&-dfsg+hX                ",
"&&&&&&&&&&&&&&&&234567890qqq00ww>>  ... +0ertyu*&&&&&&&&&&&&&%%t:OO            .XpOas#d%&*==**&&--&&***&-dfsg+hX                ",
"1111111111111111NBVCZ7ASJJJJJJJJ@<<<<><<swDFnG$11111111111111ttIs::<<<<<<<<<<<<<+z:vs#bn1mmmmm11111111m1Mbfsvs0:<<<<<<<<<<<<<<<<",
"<<<<<<<<<<<<<<<>+z+gsYbnM111111M111111m1Mbfsvs0:<<<<<<<<::<<<<:sM1111111ttttttttNBVCZ7AHJJJJJJKK@<<<<><<s9L{nGPttttttttttttttttt",
"               .!(Xa:Y)/-&**&&----&&***&-dfsg+hX        OO    O:1&&&&&&&%%%%%%%%234567890qqq00ww>>  ... +jRTtyWQ%%%%%%%%%%%%%%%%",
"               .!(Xa:Y)/-&**&&----&&***&-dfsg+hX        OO    O:1&&&&&&&%%%%%%%%234567890qqq00ww>>  ... +jRTtyWQ%%%%%%%%%%%%%%%%",
"               .!(Xa:Y)/-&**&&----&&***&-dfsg+hX        OO    O:1&&&&&&&&&&&&&&&234567890qqq00ww>>  ... +jRTtyWQ&&&&&&&&&&&&&&&&",
"               .!(Xa:Y)/-&**&&----&&***&-dfsg+hX        OO    O:1&&&&&&&&&&&&&&&234567890qqq00ww>>  ... +jRTtyWQ&&&&&&&&&&&&&&&&",
"               .!(Xa:Y)/-&**&&----&&***&-dfsg+hX        OO    O:1&&&&&&&&&&&&&&&234567890qqq00ww>>  ... +jRTtyWQ&&&&&&&&&&&&&&&&",
"               .!(Xa:Y)/-&**&&----&&***&-dfsg+hX        OO    O:1&&&&&&&&&&&&&&&234567890qqq00ww>>  ... +jRTtyWQ&&&&&&&&&&&&&&&&",
"               .!(Xa:Y)/-&**&&----&&***&-dfsg+hX        OO    O:1&&&&&&&WWWWWWWW234567890qqq00ww>>  ... +jRTtyWQWWWWWWWWWWWWWWWW",
"iiiiiiiiiiiiiiip!(Xa:Y)/-&**&&----&&***&%d;sg+iXiiiiiiiiiiiiiiij1&&&&&&&&&&&&&&&23456789kkkkkkllzziipppi+jRrEyWQ&&&&&&&&&&&&&&&&",
"iiiiiiiiiiiiiiip!(Xa:Y)/-&**&&----&&***&%d;sg+iXiiiiiiiiiiiiiiij1&&&&&&&&&&&&&&&23456789kkkkkkllzziipppi+jRrEyWQ&&&&&&&&&&&&&&&&",
"               .!(Xa:Y)/-&**&&----&&***&%d;sg+iX               <1&&&&&&&&&&&&&&&234567890qqq00ww>>  ... +jRrEyWQ&&&&&&&&&&&&&&&&",
"               .!(Xa:Y)/-&**&&----&&***&%d;sg+iX               <1&&&&&&&&&&&&&&&234567890qqq00ww>>  ... +jRrEyWQ&&&&&&&&&&&&&&&&",
"               .!(Xa:Y)/-&**&&----&&***&%d;sg+iX               <1&&&&&&&&&&&&&&&234567890qqq00ww>>  ... +jRrEyWQ&&&&&&&&&&&&&&&&",
"OOOOOOOOOOOOOOOX!(Xa:Y)/-&**&&----&&***&%d;sg+iXOOOOOOOOOOOOOOO:1&&&&&&&&&&&&&&&23456789xcccxx99++OOXXXO+jRrEyWQ&&&&&&&&&&&&&&&&",
"OOOOOOOOOOOOOOOX!(Xa:Y)/-&**&&----&&***&%d;sg+iXOOOOOOOOOOOOOOO:1&&&&&&&&&&&&&&&23456789xcccxx99++OOXXXO+jRrEyWQ&&&&&&&&&&&&&&&&",
":::::::::::::::++z+gsYbnM111111M111111m1nb;svsj::::::::::::::::sM111111111111111NBVCZ7AHSSSSSSHHs::::+::s9LFGGPt1111111111111111",
"1111111111111111NBVCZ7ASJJJJJJJJ@<<<<><<swDFnG$11111111111111ttIs::<<<<<<<<<<<<<+z:vs#bn1mmmmm11111111m1Mbfsvs0:<<<<<<<<<<<<<<<<",
"&&&&&&&&&&&&&&&&234567890qqq00ww>>  ... +0ertyu*&&&&&&&&&&&&&%%t:OO            .XpOas#d%&*==**&&--&&***&-dfsg+hX                ",
"&&&&&&&&&&&&&&&&234567890qqq00ww>>  ... +0ertyu*&&&&&&&&&&&&&%%t:OO            .XpOas#d%&*==**&&--&&***&-dfsg+hX                ",
"&&&&&&&&&&&&&&&&234567890qqq00ww>>  ... +0ertyu*&&&&&&&&&&&&&%%t:OO            .XpOas#d%&*==**&&--&&***&-dfsg+hX                ",
"&&&&&&&&&&&&&&&&234567890qqq00ww>>  ... +0ertyu*&&&&&&&&&&&&&%%t:OO            .XpOas#d%&*==**&&--&&***&-dfsg+hX                ",
"&&&&&&&&&&&&&&&&234567890qqq00ww>>  ... +0ertyu*&&&&&&&&&&&&&%%t:OO            .XpOas#d%&*==**&&--&&***&-dfsg+hX                ",
"&&&&&&&&&&&&&&&&234567890qqq00ww>>  ... +0ertyu*&&&&&&&&&&&&&%%t:OO            .XpOas#d%&*==**&&--&&***&-dfsg+hX                ",
"&&&&&&&&&&&&&&&&234567890qqq00ww>>  ... +0ertyu*&&&&&&&&&&&&&%%t:OO            .XpOas#d%&*==**&&--&&***&-dfsg+hX                ",
"&&&&&&&&&&&&&&&&234567890qqq00ww>>  ... +0ertyu*&&&&&&&&&&&&&%%t:OO            .XoO+@#$%&*==**&&--&&***&%$;@:>,.                ",
"&&&&&&&&&&&&&&&&234567890qqq00ww>>  ... +0ertyu*&&&&&&&&&&&&&%%t:OO            .XoO+@#$%&*==**&&--&&***&%$;@:>,.                ",
"&&&&&&&&&&&&&&&&234567890qqq00ww>>  ... +0ertyu*&&&&&&&&&&&&&%%t:OO            .XoO+@#$%&*==**&&--&&***&%$;@:>,.                ",
"&&&&&&&&&&&&&&&&234567890qqq00ww>>  ... +0ertyu*&&&&&&&&&&&&&%%t:OO            .XoO+@#$%&*==**&&--&&***&%$;@:>,.                ",
"&&&&&&&&&&&&&&&&234567890qqq00ww>>  ... +0ertyu*&&&&&&&&&&&&&%%t:OO            .XoO+@#$%&*==**&&--&&***&%$;@:>,.                ",
"&&&&&&&&&&&&&&&&234567890qqq00ww>>  ... +0ertyu*&&&&&&&&&&&&&%%t:OO            .XoO+@#$%&*==**&&--&&***&%$;@:>,.                ",
"&&&&&&&&&&&&&&&&234567890qqq00ww>>  ... +0ertyu*&&&&&&&&&&&&&%%t:OO            .XoO+@#$%&*==**&&--&&***&%$;@:>,.                ",
"1111111111111111NBVCZ7AHJJJJJJKK@<<<<><<swDFnG$11111111111111ttIs::<<<<<<<<<<<<<+U:s@#Tn1mmmmm11111111m1nT;@s@k<<<<<<<<<<<<<<<<<",
"<<<<<<<<<<<<<<<<+U:s@#Tnt/////tttttttt/tnT;@s@k<<<<<<<<<::<<<<:sntttttttttttttttNBVCZ7AHJJJJJJKK@<<<<><<@wLFnn$1tttttttttttttttt",
"               .XoO+@#$%%Q]]QQ%%%%%%QQQ%%$;@:>,.        OO    O:t%%%%%%%%%%%%%%%234567890qqq00ww>>  ... >0Rrt%u*%%%%%%%%%%%%%%%%",
"               .XoO+@#$%%Q]]QQ%%%%%%QQQ%%$;@:>,.        OO    O:t%%%%%%%%%%%%%%%234567890qqq00ww>>  ... >0Rrt%u*%%%%%%%%%%%%%%%%",
"               .XoO+@#$%&*==**&&--&&***&%$;@:>,.        OO    O:1&&&&&&&&&&&&&&&234567890qqq00ww>>  ... >0Rrt%u*&&&&&&&&&&&&&&&&",
"               .XoO+@#$%&*==**&&--&&***&%$;@:>,.        OO    O:1&&&&&&&&&&&&&&&234567890qqq00ww>>  ... >0Rrt%u*&&&&&&&&&&&&&&&&",
"               .XoO+@#$%&*==**&&--&&***&%$;@:>,.        OO    O:1&&&&&&&&&&&&&&&234567890qqq00ww>>  ... >0Rrt%u*&&&&&&&&&&&&&&&&",
"               .XoO+@#$%&*==**&&--&&***&%$;@:>,.        OO    O:1&&&&&&&&&&&&&&&234567890qqq00ww>>  ... >0Rrt%u*&&&&&&&&&&&&&&&&",
"               .XoO+@#$%W_``__WW''WW___W%$;@:>,.        OO    O:PWWWWWWWWWWWWWWW234567890qqq00ww>>  ... >0Rrt%u*WWWWWWWWWWWWWWWW",
"               .XpOas#d%&*==**&&--&&***&-dfsg+hX               <1&&&&&&&&&&&&&&&234567890qqq00ww>>  ... +0ertyu*&&&&&&&&&&&&&&&&",
"               .XpOas#d%&*==**&&--&&***&-dfsg+hX               <1&&&&&&&&&&&&&&&234567890qqq00ww>>  ... +0ertyu*&&&&&&&&&&&&&&&&",
"               .XpOas#d%&*==**&&--&&***&-dfsg+hX               <1&&&&&&&&&&&&&&&234567890qqq00ww>>  ... +0ertyu*&&&&&&&&&&&&&&&&",
"               .XpOas#d%&*==**&&--&&***&-dfsg+hX               <1&&&&&&&&&&&&&&&234567890qqq00ww>>  ... +0ertyu*&&&&&&&&&&&&&&&&",
"               .XpOas#d%&*==**&&--&&***&-dfsg+hX               <1&&&&&&&&&&&&&&&234567890qqq00ww>>  ... +0ertyu*&&&&&&&&&&&&&&&&",
"               .XpOas#d%&*==**&&--&&***&-dfsg+hX               <1&&&&&&&&&&&&&&&234567890qqq00ww>>  ... +0ertyu*&&&&&&&&&&&&&&&&",
"               .XpOas#d%&*==**&&--&&***&-dfsg+hX               <1&&&&&&&&&&&&&&&234567890qqq00ww>>  ... +0ertyu*&&&&&&&&&&&&&&&&",
"<<<<<<<<<<<<<<<<+z:vs#bn1mmmmm11111111m1Mbfsvs0:<<<<<<<<<<<<<<<@M111111111111111NBVCZ7AHJJJJJJKK@<<<<><<swDFnG$11111111111111111",
"1111111111111111NBVCZ7AHJJJJJJKK@<<<<><<swDFnG$11111111111111ttIs::<<<<<<<<<<<<<+z:vs#bn1mmmmm11111111m1Mbfsvs0:<<<<<<<<<<<<<<<<",
"&&&&&&&&&&&&&&&&234567890qqq00ww>>  ... +0ertyu*&&&&&&&&&&&&&%%t:OO            .XpOas#d%&*==**&&--&&***&-dfsg+hX                ",
"&&&&&&&&&&&&&&&&234567890qqq00ww>>  ... +0ertyu*&&&&&&&&&&&&&%%t:OO            .XpOas#d%&*==**&&--&&***&-dfsg+hX                ",
"&&&&&&&&&&&&&&&&234567890qqq00ww>>  ... +0ertyu*&&&&&&&&&&&&&%%t:OO            .XpOas#d%&*==**&&--&&***&-dfsg+hX                ",
"&&&&&&&&&&&&&&&&234567890qqq00ww>>  ... +0ertyu*&&&&&&&&&&&&&%%t:OO            .XpOas#d%&*==**&&--&&***&-dfsg+hX                ",
"&&&&&&&&&&&&&&&&234567890qqq00ww>>  ... +0ertyu*&&&&&&&&&&&&&%%t:OO            .XpOas#d%&*==**&&--&&***&-dfsg+hX                ",
"&&&&&&&&&&&&&&&&234567890qqq00ww>>  ... +0ertyu*&&&&&&&&&&&&&%%t:OO            .XpOas#d%&*==**&&--&&***&-dfsg+hX                ",
"&&&&&&&&&&&&&&&&234567890qqq00ww>>  ... +0ertyu*&&&&&&&&&&&&&%%t:OO            .XpOas#d%&*==**&&--&&***&-dfsg+hX                ",
"&&&&&&&&&&&&&&&&234567890qqq00ww>>  ... +0ertyu*&&&&&&&&&&&&&%%t:OO            .XoO+@#$%&*==**&&--&&***&%$;@:>,.                ",
"&&&&&&&&&&&&&&&&234567890qqq00ww>>  ... +0ertyu*&&&&&&&&&&&&&%%t:OO            .XoO+@#$%&*==**&&--&&***&%$;@:>,.                ",
"&&&&&&&&&&&&&&&&234567890qqq00ww>>  ... +0ertyu*&&&&&&&&&&&&&%%t:OO            .XoO+@#$%&*==**&&--&&***&%$;@:>,.                ",
"&&&&&&&&&&&&&&&&234567890qqq00ww>>  ... +0ertyu*&&&&&&&&&&&&&%%t:OO            .XoO+@#$%&*==**&&--&&***&%$;@:>,.                ",
"&&&&&&&&&&&&&&&&234567890qqq00ww>>  ... +0ertyu*&&&&&&&&&&&&&%%t:OO            .XoO+@#$%&*==**&&--&&***&%$;@:>,.                ",
"&&&&&&&&&&&&&&&&234567890qqq00ww>>  ... +0ertyu*&&&&&&&&&&&&&%%t:OO            .XoO+@#$%&*==**&&--&&***&%$;@:>,.                ",
"&&&&&&&&&&&&&&&&234567890qqq00ww>>  ... +0ertyu*&&&&&&&&&&&&&%%t:OO            .XoO+@#$%&*==**&&--&&***&%$;@:>,.                ",
"&&&&&&&&&&&&&&&&234567890qqq00ww>>  ... +0ertyu*&&&&&&&&&&&&&%%t:OO            .XoO+@#$%&*==**&&--&&***&%$;@:>,.                "
};
