/* XPM */
static char *player1754264454[] = {
/* columns rows colors chars-per-pixel */
"128 128 165 2 ",
"   c #161817",
".  c #171818",
"X  c #1C1C1C",
"o  c #201D1F",
"O  c #1E201F",
"+  c #2B291E",
"@  c #231F21",
"#  c #1F2120",
"$  c #232323",
"%  c #2A2326",
"&  c #262827",
"*  c #2B2826",
"=  c #2E2529",
"-  c #272828",
";  c #2B2B2B",
":  c #32262C",
">  c #35282E",
",  c #3C3624",
"<  c #3C3429",
"1  c #2F2F30",
"2  c #362B30",
"3  c #3B2C32",
"4  c #2F3030",
"5  c #333333",
"6  c #373837",
"7  c #3C3639",
"8  c #373838",
"9  c #3C3C3C",
"0  c #423C23",
"q  c #412E36",
"w  c #432F38",
"e  c #453632",
"r  c #45313A",
"t  c #4B343E",
"y  c #403E3E",
"u  c #3F403F",
"i  c #494221",
"p  c #4A422B",
"a  c #584F22",
"s  c #554B2D",
"d  c #554635",
"f  c #5D5331",
"g  c #645A28",
"h  c #615433",
"j  c #6C6027",
"k  c #7B6D2A",
"l  c #716235",
"z  c #4E3540",
"x  c #513743",
"c  c #553945",
"v  c #5C3C4A",
"b  c #603F4E",
"n  c #3F4040",
"m  c #444444",
"M  c #474847",
"N  c #474848",
"B  c #4B4C4B",
"V  c #504F4F",
"C  c #4F504F",
"Z  c #595649",
"A  c #4F5050",
"S  c #535453",
"D  c #575759",
"F  c #575858",
"G  c #5B5C5C",
"H  c #63404F",
"J  c #654151",
"K  c #6B4455",
"L  c #6F4658",
"P  c #714759",
"I  c #75495D",
"U  c #784B5F",
"Y  c #5F605F",
"T  c #7C4D62",
"R  c #636463",
"E  c #676867",
"W  c #6C6C6C",
"Q  c #73716C",
"!  c #6F7070",
"~  c #737373",
"^  c #7C7C7C",
"/  c #87762A",
"(  c #814F65",
")  c #825067",
"_  c #865269",
"`  c #8B546D",
"'  c #8F5770",
"]  c #905771",
"[  c #945974",
"{  c #995B76",
"}  c #9C5D79",
"|  c #A15F7C",
" . c #807F7F",
".. c #A2617E",
"X. c #99872D",
"o. c #A08D2F",
"O. c #AE972E",
"+. c #AD9731",
"@. c #B49D32",
"#. c #BDA634",
"$. c #CCB135",
"%. c #E6C838",
"&. c #F4D43A",
"*. c #FBDA3A",
"=. c #988141",
"-. c #E2BB59",
";. c #F8CD61",
":. c #A66281",
">. c #AB6584",
",. c #AE6887",
"<. c #AF6988",
"1. c #B06787",
"2. c #B16788",
"3. c #B4698B",
"4. c #BA6C8E",
"5. c #BD6E91",
"6. c #BD7092",
"7. c #C06F93",
"8. c #C47195",
"9. c #C67398",
"0. c #CC759B",
"q. c #CC789E",
"w. c #D0779F",
"e. c #D479A2",
"r. c #DA7CA6",
"t. c #DD7EA8",
"y. c #E07FAA",
"u. c #838383",
"i. c #8B8B8B",
"p. c #908F8F",
"a. c #949494",
"s. c #9B9B9B",
"d. c #9F9FA0",
"f. c #A3A3A3",
"g. c #A7A7A8",
"h. c #ABABAB",
"j. c #B0AFAF",
"k. c #B4B4B4",
"l. c #B8B7B7",
"z. c #BCBCBC",
"x. c #DE81AB",
"c. c #E481AD",
"v. c #E883AF",
"b. c #E686B1",
"n. c #E987B3",
"m. c #EB88B5",
"M. c #F087B6",
"N. c #F288B7",
"B. c #F489B8",
"V. c #FA8CBD",
"C. c #C4C3C3",
"Z. c #C7C8C8",
"A. c #CBCBCB",
"S. c #D0CFCF",
"D. c #CFCFD0",
"F. c #D3D3D3",
"G. c #D8D7D7",
"H. c #DCDCDC",
"J. c #E0E0DF",
"K. c #E3E3E3",
"L. c #E8E7E7",
"P. c #EDEDED",
"I. c #F0EFEF",
"U. c #F5F5F5",
"Y. c #FCFCFC",
/* pixels */
"Y.Y.Y.U.P.P.U.Y.Y.U.P.P.Y.Y.Y.U.P.P.U.Y.Y.U.P.P.U.Y.Y.U.U.P.U.Y.Y.U.U.P.U.Y.Y.Y.U.P.U.U.Y.Y.U.P.P.Y.Y.Y.U.P.P.Y.Y.Y.G.k.f.d.g.z.G.P.P.U.Y.Y.U.P.P.U.Y.Y.U.P.P.U.Y.Y.U.P.P.U.Y.Y.U.P.P.U.Y.Y.Y.U.P.P.Y.Y.Y.U.P.P.Y.Y.Y.U.U.P.U.Y.Y.U.U.P.U.Y.Y.Y.P.P.U.Y.Y.Y.U.P.",
"Y.Y.Y.P.P.P.Y.Y.U.U.P.P.Y.Y.Y.U.P.P.Y.Y.Y.U.P.P.U.Y.Y.U.P.P.U.Y.Y.U.P.P.U.Y.Y.U.P.P.U.Y.Y.Y.P.P.U.Y.Y.Y.P.P.U.U.A.^ m - # X $ $ 6 R h.U.Y.Y.U.P.U.U.Y.Y.U.U.P.U.Y.Y.U.U.P.U.Y.Y.Y.U.P.P.Y.Y.Y.U.P.P.U.Y.Y.U.P.P.U.Y.Y.U.P.P.U.Y.Y.U.P.P.U.Y.Y.U.P.P.U.Y.Y.Y.U.P.",
"Y.Y.Y.U.P.U.Y.Y.Y.U.P.U.U.U.Y.U.U.U.U.Y.Y.U.P.U.U.Y.Y.U.P.U.U.Y.Y.U.P.U.U.U.Y.U.P.U.U.U.Y.U.U.U.U.U.Y.U.P.U.K.i.1 X > v T ) T b 3 X $ ~ J.Y.U.I.P.U.Y.Y.U.U.U.U.U.Y.U.U.U.U.Y.Y.U.U.P.U.Y.Y.Y.U.P.U.U.Y.Y.U.U.P.U.U.Y.U.P.P.U.U.Y.U.U.P.U.Y.Y.U.U.U.U.U.Y.U.U.P.",
"U.P.U.U.U.Y.P.U.U.U.Y.Y.U.U.U.U.U.U.U.U.U.U.Y.Y.U.U.U.U.U.Y.U.U.P.U.Y.Y.U.U.U.U.Y.Y.U.U.P.U.U.Y.U.U.U.U.Y.H.R . : ` e.M.N.B.N.M.t.} r X S D.Y.Y.Y.U.U.P.U.Y.U.U.U.P.U.Y.U.U.U.P.U.Y.Y.U.P.P.U.Y.Y.Y.U.P.U.U.Y.U.U.U.U.U.Y.Y.U.U.P.Y.Y.U.U.P.U.U.U.Y.U.U.U.U.Y.U.",
"P.P.U.Y.Y.Y.U.P.P.U.Y.Y.P.P.U.Y.Y.Y.U.P.P.U.Y.Y.U.P.U.U.Y.Y.U.P.P.U.Y.Y.U.P.P.U.Y.Y.U.U.P.U.Y.Y.Y.P.P.U.H.G . x 7.N.N.N.N.N.N.N.B.B.e.v . G P.Y.Y.U.P.P.U.Y.Y.U.P.P.U.Y.Y.U.P.P.U.Y.Y.U.U.P.P.U.Y.Y.U.P.P.U.Y.Y.U.P.P.U.Y.Y.U.P.P.U.Y.Y.U.U.P.U.Y.Y.U.P.P.P.U.Y.",
"P.P.U.U.Y.Y.U.P.U.U.Y.Y.U.U.P.U.Y.Y.U.U.U.U.Y.U.U.P.U.U.Y.Y.U.U.U.U.Y.Y.U.P.U.U.Y.Y.U.U.P.P.Y.U.U.I.P.J.R X v r.V.N.N.N.N.N.N.N.B.B.B.r.z O a.Y.Y.U.P.U.U.Y.Y.U.P.U.U.Y.Y.U.P.U.U.Y.Y.U.U.P.U.U.Y.U.U.U.U.U.Y.Y.U.U.P.U.Y.Y.U.U.P.U.Y.Y.U.P.U.U.Y.Y.U.U.P.U.U.Y.",
"Y.Y.Y.U.P.P.U.Y.Y.U.P.U.U.Y.U.U.U.P.U.Y.U.U.U.P.U.Y.Y.U.P.P.U.Y.Y.U.P.U.U.Y.Y.U.U.P.U.Y.Y.Y.U.P.U.Y.Y.i.X t e.B.N.N.N.N.N.N.N.N.N.N.N.B.3.= 9 G.U.U.Y.Y.U.P.U.U.Y.Y.U.P.U.U.Y.Y.U.P.U.U.U.Y.Y.U.U.P.U.Y.U.U.U.P.U.Y.Y.U.U.P.U.Y.Y.U.U.P.U.Y.Y.U.U.P.U.Y.Y.U.U.U.",
"Y.Y.U.U.P.U.Y.Y.Y.P.P.P.Y.Y.Y.U.P.P.U.Y.Y.U.P.P.U.Y.Y.U.P.U.U.Y.Y.U.P.P.U.Y.Y.Y.P.P.P.Y.Y.Y.P.P.U.Y.z.; : 7.B.N.N.N.N.N.N.N.N.N.N.N.N.N.n.b X a.I.U.Y.Y.U.P.P.U.Y.Y.U.P.P.U.Y.Y.U.U.P.P.Y.Y.Y.U.P.P.Y.Y.Y.U.P.P.U.Y.Y.U.P.P.U.Y.Y.U.P.P.U.Y.Y.U.P.P.U.Y.Y.Y.U.P.",
"Y.Y.U.U.U.U.U.U.Y.U.U.P.U.Y.Y.U.P.U.U.U.Y.U.U.U.U.Y.U.U.U.U.U.U.U.U.U.U.U.U.Y.U.U.U.U.Y.Y.U.U.U.U.P.S X [ N.N.N.N.N.N.N.N.N.N.N.N.N.N.N.N.,.o F P.U.U.Y.U.U.U.U.U.Y.U.U.U.U.U.Y.U.U.U.U.Y.U.Y.U.U.U.U.Y.Y.U.U.U.U.Y.Y.U.U.U.U.Y.Y.U.U.U.U.Y.Y.U.U.P.U.Y.Y.U.U.U.",
"U.P.U.Y.Y.Y.U.P.U.U.Y.Y.P.P.U.U.Y.Y.U.P.U.U.U.Y.U.U.U.U.Y.Y.U.U.P.U.Y.Y.U.U.P.P.U.Y.U.P.U.U.U.Y.U.s.X c c.N.N.N.N.N.N.N.N.N.N.N.N.N.N.N.N.t.3 5 G.U.P.P.U.Y.Y.U.P.P.U.Y.Y.U.P.P.U.Y.Y.U.U.U.P.Y.U.Y.U.P.U.U.U.Y.U.P.U.U.Y.Y.U.P.P.Y.U.Y.U.P.U.U.Y.Y.U.U.P.U.U.U.",
"P.P.P.U.Y.Y.P.P.U.Y.Y.Y.U.P.P.Y.Y.Y.U.P.P.U.Y.Y.U.P.P.U.Y.Y.U.P.P.U.Y.Y.U.P.P.U.Y.Y.U.U.P.P.Y.Y.L.m @ 2.B.N.N.N.N.N.N.N.N.N.N.N.N.N.N.N.N.M.J O k.U.P.P.U.Y.Y.Y.P.P.U.Y.Y.U.U.P.U.Y.Y.Y.P.P.P.U.Y.Y.U.P.P.U.Y.Y.U.P.P.U.Y.Y.U.P.P.U.Y.Y.U.I.P.U.Y.Y.U.P.P.P.Y.Y.",
"P.U.U.Y.Y.U.U.U.U.U.Y.Y.U.P.U.U.Y.Y.U.U.U.U.U.Y.U.P.U.U.Y.U.U.U.U.U.Y.U.U.U.U.U.Y.Y.U.U.P.U.U.Y.s.X b b.N.N.N.N.N.N.N.N.N.N.N.N.N.N.N.N.N.N.` . a.Y.P.U.U.Y.U.U.U.U.U.Y.Y.U.U.P.U.U.Y.U.P.P.U.U.Y.U.U.P.U.U.Y.U.U.U.U.U.U.Y.U.U.U.U.Y.U.U.U.U.U.Y.Y.U.U.P.U.Y.Y.",
"Y.Y.Y.U.P.U.Y.Y.U.U.P.P.U.Y.Y.U.U.P.U.Y.Y.U.P.P.U.Y.Y.U.U.P.U.Y.Y.U.U.U.U.Y.Y.U.U.P.U.U.Y.Y.U.H.B @ 1.V.M.N.N.N.N.N.N.N.N.N.N.N.N.N.N.N.N.B.:.X W U.Y.Y.U.P.I.U.Y.Y.U.P.U.U.Y.Y.U.U.P.U.Y.Y.Y.U.U.P.Y.Y.Y.U.P.P.U.U.Y.U.U.P.U.Y.U.U.U.P.U.Y.Y.U.I.P.U.Y.Y.Y.U.P.",
"Y.Y.U.U.P.P.Y.Y.U.U.P.P.Y.Y.Y.U.P.P.U.Y.Y.U.P.P.U.Y.Y.U.P.P.U.Y.Y.U.P.P.U.Y.Y.Y.P.P.U.Y.Y.Y.U.h.$ c c.N.N.N.N.N.N.N.N.N.N.N.N.N.N.N.N.N.N.B.5.@ G U.Y.Y.U.U.P.U.Y.Y.U.U.P.U.Y.Y.Y.P.P.U.Y.Y.Y.U.P.P.U.Y.Y.U.P.P.U.Y.Y.U.P.P.U.Y.Y.U.P.P.Y.Y.Y.U.P.P.U.Y.Y.Y.U.P.",
"Y.U.Y.U.P.U.U.U.Y.U.U.U.U.U.Y.U.P.U.Y.Y.Y.U.U.P.Y.Y.Y.U.P.U.U.Y.U.U.U.U.U.Y.Y.U.U.U.U.U.Y.U.P.R . { B.N.N.N.N.N.N.N.N.N.N.N.N.N.N.N.N.N.N.B.0.% A P.Y.Y.U.U.U.U.Y.Y.U.U.P.U.Y.U.U.U.P.U.U.Y.Y.U.U.U.U.Y.Y.U.U.U.U.Y.Y.U.U.U.U.Y.Y.U.U.P.U.U.U.Y.U.P.U.Y.Y.U.U.P.",
"U.P.U.U.Y.Y.U.P.U.U.U.Y.U.U.U.U.Y.U.U.U.U.U.U.Y.U.U.P.U.Y.Y.U.U.U.U.U.Y.U.P.P.U.U.Y.U.U.P.U.G.6 2 e.B.N.N.N.N.N.N.N.N.N.N.N.N.N.N.N.N.N.N.B.w.: m L.P.P.U.Y.Y.U.P.P.U.Y.Y.U.P.P.U.Y.Y.U.U.P.P.Y.U.Y.U.P.U.U.U.Y.U.U.P.U.U.Y.U.P.P.U.Y.Y.Y.P.I.U.Y.Y.U.P.U.U.U.Y.",
"P.P.P.Y.Y.Y.P.P.U.Y.Y.Y.U.P.U.U.Y.Y.U.P.P.U.Y.Y.U.P.P.U.Y.Y.U.P.P.U.Y.Y.U.U.P.U.Y.Y.Y.P.P.U.s.. L N.N.N.N.N.N.B.N.N.N.N.N.N.N.N.N.N.N.N.N.B.e.> m K.P.P.U.Y.Y.Y.P.P.U.Y.Y.U.U.P.U.Y.Y.Y.P.P.P.U.Y.Y.U.P.U.U.Y.Y.U.P.P.U.Y.Y.U.P.P.U.Y.Y.U.U.P.U.Y.Y.U.U.P.P.U.Y.",
"P.U.U.U.Y.U.U.U.U.U.Y.U.U.P.U.U.Y.Y.U.U.U.U.Y.Y.U.U.U.U.Y.Y.U.U.U.U.Y.Y.U.U.U.U.U.Y.U.U.U.P.R X >.B.N.N.N.N.N.N.N.N.N.N.N.N.N.N.N.N.N.N.N.B.e.: 9 K.U.P.U.Y.Y.U.P.P.U.Y.Y.U.P.U.U.U.Y.U.U.U.U.U.Y.U.U.U.U.U.Y.U.U.U.U.U.Y.Y.U.U.U.U.Y.Y.U.U.P.U.Y.Y.U.U.P.U.U.Y.",
"Y.Y.Y.U.U.P.Y.Y.U.U.P.U.U.U.Y.U.P.P.U.Y.Y.U.P.P.U.Y.Y.U.P.U.U.Y.Y.U.P.P.U.Y.Y.Y.P.P.U.Y.Y.H.5 2 r.N.N.N.N.N.N.N.N.N.N.N.N.N.N.N.N.N.N.N.N.N.e.: m L.Y.Y.Y.P.P.U.Y.Y.U.P.P.U.Y.Y.U.U.P.U.U.Y.Y.U.U.P.U.Y.Y.U.P.P.U.U.Y.U.U.P.U.Y.Y.U.P.P.U.Y.Y.U.P.P.U.Y.Y.Y.U.U.",
"Y.Y.Y.P.P.P.Y.Y.U.U.P.P.Y.Y.Y.U.P.U.U.Y.Y.U.P.P.U.Y.Y.U.P.P.U.Y.Y.U.P.P.U.Y.Y.U.P.P.U.Y.Y.h.X K M.N.N.N.N.N.N.N.N.N.N.N.N.N.N.N.N.N.N.N.N.N.w.= m P.Y.Y.U.P.P.U.Y.Y.U.U.P.U.Y.Y.U.P.P.U.Y.Y.Y.U.P.P.U.Y.Y.U.P.P.U.Y.Y.U.P.P.U.Y.Y.U.P.P.U.Y.Y.U.P.P.U.Y.Y.U.U.P.",
"Y.U.Y.U.U.U.U.U.Y.U.U.P.U.U.Y.U.U.P.U.Y.U.U.U.U.U.U.Y.U.P.U.U.U.U.U.U.U.U.U.Y.U.U.P.U.U.Y.~ . ..B.N.N.N.N.N.N.N.N.N.N.N.N.N.N.N.N.M.M.B.N.N.0.@ A P.Y.Y.U.U.I.U.Y.U.U.U.U.U.Y.Y.U.U.U.U.Y.U.U.U.P.U.U.Y.Y.U.U.U.U.Y.Y.U.U.U.U.U.Y.U.U.U.U.U.U.U.U.U.U.Y.Y.U.U.U.",
"P.U.U.U.Y.Y.U.P.U.U.Y.Y.U.P.U.U.Y.Y.U.P.U.U.Y.Y.U.P.U.U.Y.Y.U.U.P.U.Y.Y.Y.P.P.U.Y.Y.U.U.K.m % 0.N.N.N.N.N.N.N.N.N.N.N.N.N.N.N.N.N.M.B.M.N.N.7.@ Y I.P.P.U.Y.Y.U.U.U.U.Y.Y.U.P.P.U.Y.Y.U.U.P.U.Y.Y.Y.U.P.P.Y.Y.Y.U.U.U.U.Y.Y.U.P.U.U.Y.Y.U.U.P.U.Y.Y.U.P.U.P.U.Y.",
"P.P.P.Y.Y.Y.P.P.U.Y.Y.Y.P.P.P.Y.Y.Y.U.P.P.U.Y.Y.U.U.P.U.Y.Y.U.P.P.U.Y.Y.U.U.P.U.Y.Y.Y.U.z.& t c.N.N.N.N.N.N.N.N.N.N.N.N.N.N.N.N.N.N.M.B.B.B.2.o ! U.P.P.U.Y.Y.Y.P.P.U.Y.Y.U.P.P.U.Y.Y.U.P.P.P.U.Y.Y.U.P.P.U.Y.Y.U.P.P.U.Y.Y.U.P.P.U.Y.Y.U.P.P.U.Y.Y.U.P.P.U.Y.Y.",
"U.U.U.U.Y.U.U.P.U.U.Y.Y.U.U.U.U.Y.U.U.U.U.U.Y.Y.U.U.U.U.Y.U.U.U.U.U.Y.Y.U.U.U.U.Y.U.U.U.s.. U B.N.N.N.N.N.N.N.N.N.N.N.N.N.N.B.N.N.N.M.B.M.B.} X  .U.I.I.Y.Y.Y.U.U.P.U.U.Y.U.U.U.U.Y.Y.U.P.U.U.U.Y.U.U.U.U.U.Y.U.U.P.U.U.Y.Y.U.U.U.U.U.Y.U.U.U.U.U.Y.U.U.P.U.U.Y.",
"U.Y.Y.U.P.P.U.Y.Y.U.P.P.U.Y.Y.U.P.P.Y.Y.U.U.P.P.U.Y.Y.U.U.P.U.Y.Y.U.U.P.U.Y.Y.U.I.P.U.Y.~ X :.B.N.N.N.N.N.N.N.N.N.N.N.N.N.N.N.N.N.N.N.N.N.B.` . p.Y.Y.Y.U.P.P.U.Y.Y.U.U.I.U.Y.Y.Y.I.P.U.Y.Y.Y.U.P.U.U.Y.Y.U.P.U.U.Y.Y.U.U.P.U.Y.Y.U.P.P.U.Y.Y.U.U.P.U.Y.Y.Y.U.P.",
"Y.Y.Y.P.P.P.Y.Y.Y.U.P.P.Y.Y.Y.U.P.U.U.Y.Y.U.P.P.U.Y.Y.U.P.P.U.Y.Y.Y.P.P.U.Y.Y.Y.P.P.I.I.V @ 9.B.N.N.N.N.N.N.N.N.N.N.N.N.N.N.N.N.N.N.N.N.N.N.L X g.U.Y.Y.U.L.K.I.U.Y.U.U.P.U.Y.Y.U.P.P.I.Y.Y.Y.U.P.P.Y.Y.Y.U.P.P.U.Y.Y.U.P.P.U.Y.Y.U.P.P.U.Y.Y.U.P.P.U.Y.Y.Y.U.P.",
"Y.U.U.U.U.U.Y.U.U.U.U.U.U.U.U.U.U.P.U.U.Y.U.U.U.U.U.Y.U.U.U.U.Y.U.U.U.U.U.U.Y.U.I.I.U.F.2 w y.B.N.N.N.N.N.N.N.N.N.N.N.N.N.N.N.N.N.N.N.N.B.b.c & z.J.z.i.W D C F W =.f.Z.K.U.U.U.U.U.I.U.U.Y.Y.U.P.U.U.U.Y.U.P.U.U.U.Y.U.U.U.U.U.Y.U.U.U.U.Y.U.U.U.U.U.U.Y.U.U.P.",
"U.P.U.Y.Y.U.U.U.U.U.Y.Y.U.U.U.U.Y.Y.U.P.U.U.Y.Y.U.U.U.U.Y.Y.U.P.P.U.Y.Y.U.U.P.U.Y.Y.Y.j.# b M.M.N.N.N.N.N.N.N.N.N.N.N.N.N.N.N.N.N.N.N.N.B.t.3 & R 9 $ X @ $ = $ $ X . ; D d.G.P.U.Y.Y.Y.I.P.P.Y.Y.Y.U.P.U.U.Y.U.U.P.U.U.Y.Y.U.P.U.U.Y.Y.U.U.P.U.Y.Y.U.P.U.U.U.Y.",
"P.P.P.Y.Y.Y.U.P.P.U.Y.Y.P.P.P.Y.Y.Y.U.P.P.U.Y.Y.U.P.U.U.Y.Y.U.P.P.U.Y.Y.U.P.P.U.Y.Y.Y.i.X ` M.M.N.N.N.N.N.N.N.N.N.N.N.N.N.N.N.N.N.N.N.N.N.3.= . . 2 J [ 3.9.q.q.6.:.T n $ X N g.I.Y.Y.Y.P.P.P.U.Y.Y.U.P.P.U.Y.Y.U.P.P.U.Y.Y.U.P.P.U.Y.Y.U.U.P.U.Y.Y.U.P.P.P.U.Y.",
"P.U.U.U.Y.U.U.U.U.U.Y.Y.U.U.U.U.Y.U.U.U.U.U.Y.U.U.P.U.U.U.Y.U.U.U.U.Y.U.U.P.U.U.Y.Y.Y.W X >.B.B.N.N.N.N.N.N.N.N.N.N.N.N.N.N.N.N.N.N.V.y.{ > X r ' q.b.m.m.n.n.n.m.b.b.x.3.J X - s.U.Y.U.U.I.U.U.Y.U.U.U.U.U.U.Y.U.U.U.U.Y.Y.U.U.P.U.U.Y.U.U.U.U.Y.Y.U.U.U.U.Y.U.",
"Y.Y.Y.U.P.P.U.Y.Y.U.P.P.U.Y.Y.U.P.P.U.Y.Y.U.P.P.U.Y.Y.U.P.P.U.Y.Y.U.P.P.U.Y.Y.Y.I.P.K.C @ 0.B.N.N.N.N.N.N.N.N.N.N.N.N.N.N.N.N.N.N.N.y.P o = ( e.m.m.n.n.n.n.n.n.b.b.m.m.m.b.:.$ - a.I.U.Y.Y.Y.U.P.U.Y.Y.Y.U.U.P.U.Y.Y.U.P.P.U.Y.Y.U.U.P.U.Y.Y.U.P.P.U.Y.Y.Y.U.P.",
"Y.Y.Y.P.P.U.Y.Y.Y.U.P.P.Y.Y.Y.U.P.P.Y.Y.Y.U.P.U.U.Y.Y.U.P.U.U.Y.Y.U.P.P.U.Y.Y.U.P.P.F.6 3 t.B.N.N.N.N.N.N.N.N.N.N.N.N.N.N.N.N.N.N.r.b X q 1.b.n.n.n.n.n.n.n.n.n.b.m.b.m.b.m.x.:.$ ; k.U.Y.Y.Y.U.P.P.U.Y.Y.U.P.P.U.Y.Y.U.P.P.U.Y.Y.U.P.P.U.Y.Y.U.P.P.U.Y.Y.Y.U.P.",
"Y.U.U.U.U.U.U.U.U.U.U.U.U.U.Y.U.U.U.U.U.Y.U.U.U.U.U.Y.U.U.U.U.U.Y.U.U.U.U.Y.Y.U.U.U.C.$ c n.M.M.N.N.N.N.N.N.N.N.N.N.N.N.N.N.N.N.t.V X p x.m.b.m.b.m.b.m.m.m.b.m.m.b.m.b.b.m.m.m.` X B J.Y.U.U.U.P.U.U.U.Y.U.U.U.U.U.Y.U.U.U.U.Y.Y.U.U.U.U.U.Y.U.U.U.U.Y.Y.U.U.U.",
"U.P.U.Y.Y.Y.U.P.U.Y.Y.Y.U.P.U.U.Y.Y.U.P.U.U.Y.Y.U.P.U.U.Y.Y.U.P.P.U.Y.Y.U.I.P.U.Y.Y.k.O L M.N.N.N.N.N.N.N.N.N.N.N.N.N.N.N.N.N.n.T X z x.x.b.m.m.m.b.m.b.b.b.m.b.b.m.b.m.m.b.m.n.x.v X i.U.P.U.Y.Y.U.U.P.U.U.Y.Y.U.P.P.U.Y.Y.U.P.P.U.Y.Y.U.P.P.U.Y.Y.U.P.U.P.U.Y.",
"P.P.P.Y.Y.Y.U.P.P.U.Y.Y.U.P.P.U.Y.Y.U.P.P.U.Y.Y.U.P.P.U.Y.Y.U.P.P.U.Y.Y.Y.P.P.U.Y.Y.a.. ` B.N.N.N.N.N.N.N.N.N.N.N.N.N.N.N.N.N.{ X 3 6.m.b.b.m.b.b.m.m.b.m.b.b.m.m.b.m.b.b.m.n.m.m.4.% 8 A.U.P.U.Y.Y.U.P.U.Y.Y.Y.U.P.U.U.Y.Y.U.P.U.U.Y.Y.U.P.U.U.Y.Y.U.P.P.P.Y.Y.",
"U.U.U.U.U.U.U.U.U.U.Y.U.U.U.U.U.Y.U.U.U.U.U.Y.U.U.U.U.U.U.Y.U.U.U.U.U.Y.U.U.U.U.Y.Y.^ . | B.N.B.B.B.B.N.N.N.N.N.N.N.N.N.N.B.0.2 @ :.m.m.b.b.b.m.m.b.b.m.b.m.m.b.m.m.m.b.m.b.n.n.n.b.K X i.U.U.U.Y.U.U.U.U.U.Y.U.U.U.U.U.Y.U.U.U.U.U.U.Y.U.U.U.U.U.Y.Y.U.U.U.U.Y.",
"Y.Y.Y.U.P.P.Y.Y.Y.U.P.P.U.Y.Y.U.P.P.U.Y.Y.U.P.P.U.Y.Y.U.U.P.U.Y.Y.U.I.P.K.F.A.A.G.L.G o 5.V.n.0.3.>.1.0.n.B.N.N.N.N.N.N.N.M.P X T b.b.m.m.b.m.b.b.b.m.b.m.m.b.m.b.m.b.m.n.n.b.n.n.m.<.@ S P.Y.U.P.P.Y.Y.U.U.P.P.Y.Y.Y.U.P.P.U.Y.Y.U.P.P.U.Y.Y.U.P.P.U.Y.Y.Y.U.P.",
"Y.Y.U.U.P.P.Y.Y.Y.P.P.P.Y.Y.Y.U.P.P.U.Y.Y.U.P.P.U.Y.Y.U.P.P.U.Y.Y.Y.G.i.m ; $ ; 9 E 8 = 7.:.c : O O o = J 6.N.N.N.N.N.N.N.7.- 3 q.b.m.b.b.m.b.m.m.m.b.m.b.m.m.b.m.b.m.b.n.n.n.n.n.n.x.r - Z.Y.U.P.U.U.Y.Y.U.P.P.U.Y.Y.U.P.U.U.Y.Y.U.P.P.U.Y.Y.U.P.P.U.Y.Y.Y.U.P.",
"U.U.U.U.U.U.U.U.U.U.U.U.U.U.U.U.U.U.U.U.U.U.U.U.U.U.U.U.U.U.U.U.Y.G.F X 8 E ^ ~ B $ . : x o ; G u.a.i.D # 2 3.N.N.N.N.N.N.T   T m.b.m.b.b.m.b.m.b.m.m.b.m.b.m.b.m.b.b.m.n.n.n.n.n.n.n.T . a.Y.U.U.U.U.U.U.U.U.U.U.U.Y.U.U.U.U.Y.U.U.U.U.U.U.U.U.U.U.U.U.Y.U.U.U.",
"U.P.U.Y.Y.Y.U.P.P.Y.Y.Y.U.P.U.Y.Y.Y.U.P.U.U.Y.Y.U.U.U.U.U.Y.U.U.L.R X ~ G.U.U.U.L.j.N X o E Z.I.U.Y.U.P.s.& z x.B.N.N.B.r.3 = 9.m.m.b.m.m.b.m.b.m.m.b.m.b.m.b.m.b.m.b.m.n.b.n.n.n.n.m.,.X Y P.U.Y.U.U.P.U.U.Y.Y.U.P.P.U.Y.U.U.P.U.U.Y.Y.U.U.U.U.Y.Y.U.U.P.P.Y.U.",
"P.P.U.Y.Y.Y.U.P.P.Y.Y.Y.U.P.P.U.Y.Y.U.P.P.U.Y.Y.U.P.U.U.Y.Y.U.U.k.$ G L.Y.U.U.U.U.U.F.S ~ P.U.U.U.U.Y.U.U.~ # :.N.N.N.V.,.# v b.m.b.b.m.b.m.b.m.m.m.m.b.m.m.m.b.m.b.b.m.b.m.b.m.b.m.m.0.: 9 G.Y.Y.Y.U.P.P.U.Y.Y.U.P.P.U.Y.Y.U.P.P.U.Y.Y.U.P.U.U.Y.Y.U.U.P.P.U.Y.",
"P.U.U.U.U.U.U.U.U.U.U.U.U.U.U.U.U.U.U.U.U.U.Y.U.U.U.U.U.Y.U.U.U.u.X f.Y.U.Y.U.U.U.U.U.L.P.U.U.U.U.U.U.U.Y.l.# T N.N.N.N.) X ` m.b.m.m.m.m.b.m.b.n.n.b.m.m.b.m.b.b.m.m.b.m.b.m.b.m.m.b.c.t ; Z.Y.Y.U.U.U.U.U.Y.U.U.U.U.U.U.U.U.U.U.U.Y.U.U.U.U.U.Y.U.U.U.U.U.Y.U.",
"Y.Y.Y.U.U.P.Y.Y.Y.U.P.P.Y.Y.Y.U.P.P.Y.Y.Y.U.P.P.U.Y.Y.U.P.P.U.Y.u.O k.Y.U.U.U.Y.U.U.Y.U.Y.U.U.U.U.Y.Y.U.U.C.# P N.N.N.m.J X <.m.m.b.m.b.m.b.m.b.n.n.b.n.b.m.b.m.m.m.b.m.m.m.b.m.m.b.m.b.J O k.U.P.P.U.Y.Y.U.P.P.U.Y.Y.U.P.P.U.Y.Y.U.P.P.U.Y.Y.U.U.P.U.Y.Y.Y.U.P.",
"Y.Y.U.U.P.P.Y.Y.Y.U.P.P.Y.Y.Y.U.P.U.U.Y.Y.U.P.P.U.Y.Y.U.P.P.U.Y.d.X p.U.U.U.U.U.Y.U.F.g.f.z.P.Y.U.U.U.U.Y.g.# T N.N.N.n.c $ 6.m.b.m.b.m.b.m.b.m.n.n.n.n.m.b.m.b.m.b.x.' :.b.b.m.b.m.b.m.) X s.U.P.P.Y.Y.Y.U.P.P.U.Y.Y.U.P.U.U.Y.Y.U.P.P.U.Y.Y.U.P.P.U.U.Y.Y.U.P.",
"U.U.U.U.U.U.U.U.U.U.U.U.U.U.U.U.U.U.U.U.Y.U.U.U.U.U.U.U.U.U.U.Y.F.4 m G.U.U.U.U.P.i.5 * * * G F.U.U.U.U.P.G @ 4.V.N.N.y.c @ 5.m.n.n.n.n.m.m.b.m.n.n.n.n.n.n.n.n.b.b.` X V c.m.n.b.m.b.m.[ . u.U.U.U.U.U.Y.U.U.U.Y.U.U.U.U.U.U.Y.Y.U.U.U.U.Y.U.U.U.U.U.U.U.U.U.U.",
"U.P.U.Y.Y.Y.U.P.U.Y.Y.Y.U.P.U.Y.Y.Y.U.P.U.U.Y.Y.U.U.U.U.Y.Y.U.P.P. .X E J.U.Y.Y.s.+ j #.$.X.+ R P.U.Y.K. .@ b n.N.N.N.N.b O 2.m.n.n.n.m.b.m.m.b.n.n.n.n.n.n.n.n.m...% = 2.N.m.n.m.b.m.m.| X ! Y.Y.Y.U.P.U.U.Y.Y.U.U.P.U.Y.Y.U.P.P.U.Y.Y.U.P.U.U.Y.Y.U.P.U.P.Y.Y.",
"P.P.P.Y.Y.Y.U.P.P.U.Y.Y.U.P.P.U.Y.Y.U.P.P.U.Y.Y.U.P.P.U.Y.Y.U.P.I.J.R X A D.Y.I.S i %.&.*.&./ ; D.U.U.:.. > 0.N.N.N.N.N.) X ` m.n.n.m.b.b.m.b.m.n.n.n.n.n.m.n.n.>.: $ { N.N.N.m.m.m.n.m.1.o R Y.Y.Y.U.P.P.U.Y.Y.U.P.P.U.Y.Y.U.P.U.U.Y.Y.U.P.P.U.Y.Y.U.P.P.U.U.Y.",
"U.U.U.U.U.U.U.U.U.U.U.U.U.U.U.U.U.U.U.U.U.U.U.U.U.U.U.U.Y.U.U.U.U.I.^ X 9 C.U.I.D i %.*.*.&.k 5 G.U.U.C.N @ [ M.N.N.N.V.3.@ t r.n.n.b.m.m.b.m.b.n.n.n.n.b.m.b.{ - $ ` m.N.N.N.B.B.M.m.m.3.o Y U.U.Y.U.U.U.U.U.Y.U.U.U.U.U.Y.U.U.U.U.Y.U.U.U.U.U.Y.U.U.U.U.U.Y.U.",
"Y.Y.Y.U.P.P.U.Y.Y.U.P.P.U.Y.Y.U.P.P.U.Y.Y.U.P.P.U.Y.Y.U.U.P.U.Y.Y.l.$ B D.U.U.Y.d.$ g @.#.k + ~ I.U.U.Y.Z.6 = 9.B.M.B.B.y.v X ( b.n.n.n.b.m.n.n.b.m.n.b.m.r.T # % ] M.N.N.N.N.N.N.N.N.N.4.o Y P.P.P.Y.Y.Y.U.P.P.U.Y.Y.U.P.P.U.Y.Y.U.P.P.U.Y.Y.U.U.P.U.Y.Y.Y.U.P.",
"Y.Y.U.U.P.P.Y.Y.U.U.P.P.Y.Y.Y.U.P.P.Y.Y.Y.U.P.P.U.Y.Y.U.P.P.U.Y.Y.E $ l.Y.U.U.U.P.a.6 * * ; ~ K.Y.U.Y.U.Y.s.X ( B.B.M.M.B.7.> o T x.m.m.m.n.b.m.n.m.m.y.,.x X 2 | M.N.N.N.N.N.N.N.N.N.B.7.@ V K.P.U.U.Y.Y.U.P.P.U.Y.Y.U.P.U.U.Y.Y.U.P.P.U.Y.Y.U.P.P.U.Y.Y.Y.U.P.",
"U.U.U.U.U.U.U.Y.U.U.U.U.U.U.U.U.U.U.U.U.U.U.U.U.U.Y.U.U.U.U.U.U.K.n n K.U.Y.Y.U.U.U.G.k.k.S.U.U.U.U.Y.U.U.F.5 c n.B.B.M.B.M.>.: O z [ 9.y.b.m.m.x.q.:.v # X b 9.N.N.N.N.N.N.N.N.N.N.N.N.y.t $ d.U.U.U.U.U.U.U.U.Y.U.U.U.U.U.U.U.U.U.U.U.U.Y.U.U.U.U.U.U.Y.U.U.U.",
"U.P.U.Y.Y.Y.U.P.U.Y.Y.Y.U.P.U.U.Y.Y.U.P.U.U.Y.Y.U.P.U.U.U.Y.U.U.G.9 N L.U.U.U.U.U.U.U.Y.Y.U.U.U.U.U.U.U.Y.K.9 r y.B.M.B.M.B.M.7.v # X ; z b K b x 1 X X z :.b.N.N.N.N.N.N.N.N.N.N.N.N.N.B.>.@ e G.Y.U.P.U.U.Y.Y.U.U.U.U.Y.U.U.U.U.U.Y.Y.U.P.P.U.Y.Y.U.U.P.P.Y.U.",
"P.P.U.U.Y.Y.U.P.P.U.Y.Y.U.P.P.Y.Y.Y.U.P.P.U.Y.Y.Y.P.P.U.Y.Y.U.P.A.6 5 D.Y.U.U.U.U.U.U.U.h.z.Y.U.U.U.U.U.U.D.; c n.B.B.M.B.M.B.N.b.3.T z - # # @ @ z L ,.t.N.N.N.N.N.N.N.N.N.N.N.N.N.N.N.N.M.I . W U.U.P.P.U.Y.Y.U.P.P.U.Y.Y.U.P.P.U.Y.Y.U.U.U.U.Y.Y.U.P.P.P.U.Y.",
"U.U.U.U.U.U.U.U.U.U.U.Y.U.U.U.U.U.U.U.U.U.U.Y.U.U.U.U.U.U.Y.U.U. .X . ^ I.Y.U.U.U.Y.U.p.$ 8 h.I.U.Y.Y.U.P.~ X ' N.N.M.B.M.B.M.B.B.B.N.c.0.5.4.5.0.t.N.B.N.N.N.N.N.N.N.N.N.N.N.N.N.N.N.N.N.N.r.e $ h.U.U.U.U.U.Y.U.U.U.U.U.U.U.U.U.U.U.U.U.U.U.U.U.Y.U.U.U.U.Y.U.",
"Y.Y.Y.U.P.P.U.Y.Y.U.P.P.U.Y.Y.U.U.P.U.Y.U.U.U.P.U.Y.Y.U.I.I.U.G.5 % 2 $ ^ D.P.I.L.z.R @ 3 : = R g.C.Z.h.R O x r.N.N.N.N.M.N.M.M.N.N.N.N.B.B.B.B.B.B.N.N.N.N.N.N.N.N.N.N.N.N.N.N.N.N.N.N.N.N.N.| X B K.Y.Y.U.P.P.U.Y.Y.U.P.P.U.Y.Y.U.U.P.U.Y.Y.U.U.P.U.Y.Y.Y.U.P.",
"Y.Y.Y.P.P.U.Y.Y.Y.U.P.P.Y.Y.Y.U.P.P.Y.Y.Y.U.P.P.U.Y.Y.U.P.P.U.^ . T 9.z X 4 A F m $ @ b 0.5.b @ X $ & X @ b q.B.N.N.N.N.N.N.B.M.N.N.N.N.N.N.N.N.N.N.N.N.N.N.N.N.N.N.N.N.N.N.N.N.N.N.N.N.N.N.N.v.v X s.Y.Y.U.P.U.U.Y.Y.U.P.U.U.Y.Y.U.P.P.U.Y.Y.U.P.P.U.Y.Y.Y.U.P.",
"U.U.U.U.U.U.U.U.U.U.U.U.U.U.U.U.U.U.U.U.U.U.U.U.U.U.U.U.U.U.G.6 : 0.B.y.[ c 3 > w L 1.n.N.N.n.7.{ T I ` 4.v.B.N.N.N.N.N.B.M.M.B.N.N.N.N.N.N.N.N.N.N.N.N.N.N.N.N.N.N.N.N.N.N.N.N.N.N.N.N.N.N.N.B.4.@ M K.Y.U.U.U.U.U.U.U.U.U.U.U.Y.U.U.U.U.U.U.U.U.U.U.Y.U.U.U.U.",
"U.P.U.Y.Y.Y.U.P.U.Y.Y.Y.P.P.U.U.Y.Y.U.U.U.U.Y.Y.U.U.U.U.Y.Y.s.X L m.N.N.N.n.r.r.y.N.N.M.M.B.B.B.B.B.N.B.B.N.N.N.N.N.N.N.M.B.B.M.N.N.N.N.N.N.N.N.N.N.N.N.N.N.N.N.N.N.N.N.N.N.N.N.N.N.N.N.N.N.N.N.n.v o f.I.U.Y.Y.U.P.U.U.Y.Y.U.P.P.U.Y.Y.U.P.U.U.Y.Y.U.P.U.P.Y.Y.",
"P.P.P.Y.Y.Y.U.P.U.Y.Y.Y.U.P.P.Y.Y.Y.U.P.U.U.Y.Y.U.P.P.U.Y.U.G o 1.N.N.N.N.N.N.B.N.N.N.N.B.M.M.B.N.N.N.N.N.N.N.N.N.N.N.N.B.M.B.B.N.N.N.N.N.N.N.B.N.N.N.N.N.N.N.N.N.N.N.N.N.N.N.N.N.N.N.N.N.N.N.N.N.| X Y P.Y.Y.Y.U.P.U.U.Y.Y.U.U.P.U.Y.Y.U.U.U.U.Y.Y.Y.P.P.U.U.Y.",
"U.U.U.U.U.U.U.U.U.Y.U.U.U.U.U.U.U.U.U.U.U.U.U.U.U.U.U.U.U.G.5 3 r.N.N.N.N.N.N.N.N.N.N.N.M.M.B.M.N.N.N.N.N.N.N.N.N.N.N.N.M.M.B.B.N.N.N.N.N.N.N.N.N.N.N.N.N.N.N.N.N.N.N.N.N.N.N.N.N.N.N.N.N.N.N.N.N.r.2 5 F.Y.U.U.U.U.U.U.U.U.U.U.U.U.U.U.U.U.U.U.U.U.U.U.U.U.Y.U.",
"Y.Y.Y.U.P.P.Y.Y.U.U.P.U.U.Y.Y.U.P.P.U.Y.Y.U.P.P.U.Y.Y.U.U.h.X J m.N.N.M.N.N.N.N.N.N.N.N.N.N.M.B.N.N.N.N.N.N.N.N.B.B.B.B.B.B.B.B.B.N.N.B.V.B.B.N.N.N.N.N.N.N.N.N.N.N.N.N.N.N.N.N.N.N.N.N.N.N.N.N.M.m.K X k.U.P.P.U.Y.Y.U.P.P.U.Y.Y.U.U.P.U.Y.Y.U.P.P.U.Y.Y.Y.U.P.",
"Y.Y.Y.P.P.P.Y.Y.U.U.P.P.Y.Y.Y.U.P.P.Y.Y.Y.U.P.P.U.Y.Y.U.U.u.. ` N.N.N.N.N.N.N.N.N.N.N.N.N.N.B.B.N.N.B.N.N.M.v.t.e.0.7.5.4.4.4.7.9.w.r.t.y.B.B.B.B.B.N.B.N.N.N.N.N.N.N.N.N.N.N.N.N.N.N.N.N.N.N.N.M.B.[ . u.U.P.P.U.Y.Y.U.P.U.U.Y.Y.U.P.P.U.Y.Y.U.P.P.U.Y.Y.Y.U.P.",
"U.U.U.U.U.U.U.U.U.U.U.U.U.U.U.U.U.U.U.U.U.U.U.U.U.U.U.U.U.! X >.V.N.N.N.N.N.M.N.N.N.N.N.N.M.M.B.B.b.q.>.` H t 3 : @ @ o o o o @ @ @ : w x b _ :.9.y.B.B.N.N.N.N.N.N.N.N.N.N.N.N.N.N.N.N.N.N.N.N.B.B.3.o R U.U.U.U.U.U.U.U.U.U.U.U.U.U.U.U.U.U.U.U.U.U.U.U.U.U.U.",
"U.P.U.Y.Y.Y.U.P.U.Y.Y.Y.U.P.U.U.Y.Y.U.P.U.U.Y.Y.U.U.U.U.U.G @ 5.N.N.N.N.M.N.M.N.N.N.N.N.N.V.n.7._ x = X X $ 5 y B G E ! ! ! ! E R D N 7 1 @ X X @ z b :.e.N.B.N.N.N.N.N.N.N.N.N.N.N.N.N.N.N.N.N.N.B.0.= m P.Y.Y.U.P.U.U.Y.Y.U.P.U.U.Y.Y.U.P.U.U.Y.Y.U.P.U.P.Y.U.",
"P.P.P.Y.Y.Y.U.P.U.Y.Y.Y.U.P.P.Y.Y.Y.U.P.P.Y.Y.Y.U.P.P.U.U.S @ 0.B.N.N.N.N.N.N.N.N.N.N.N.c.>.v % X ; C ~ d.z.F.K.P.U.U.U.U.U.U.U.U.P.L.J.D.z.d.^ D 5 # o : b >.y.B.N.N.N.N.N.N.N.N.N.N.N.N.N.N.N.N.B.r.3 7 J.Y.Y.U.U.P.U.Y.Y.U.U.P.U.Y.Y.U.U.P.U.Y.Y.U.U.P.P.U.Y.",
"U.U.U.U.U.U.U.U.U.U.U.U.U.U.U.U.U.U.U.U.U.U.U.U.U.U.U.Y.P.B = 0.B.N.N.N.N.N.N.N.N.N.N.4.v o O B i.Z.L.U.U.Y.U.Y.U.U.U.Y.U.Y.U.U.U.Y.Y.U.U.Y.Y.U.P.F.j.~ n o o z [ t.B.N.N.N.N.N.N.N.N.N.N.N.N.N.N.N.y.w 4 G.Y.U.U.U.U.U.U.U.U.U.U.U.U.U.U.U.U.U.U.U.U.U.U.U.U.U.",
"Y.Y.Y.U.U.P.Y.Y.Y.U.P.P.U.Y.Y.U.U.P.Y.Y.Y.U.P.P.Y.Y.Y.U.K.B = 0.B.N.N.N.N.N.N.N.N.c.` % X S h.P.Y.Y.Y.U.U.U.U.U.U.U.U.U.U.U.U.U.U.Y.U.U.Y.U.U.Y.U.U.Y.U.J.h.G - X t :.v.B.B.N.N.N.N.N.N.N.N.N.N.N.M.c.r 5 G.U.P.U.Y.Y.U.U.P.U.Y.Y.U.U.P.U.Y.Y.U.U.P.U.Y.Y.Y.U.U.",
"Y.Y.Y.P.P.P.Y.Y.Y.P.P.P.Y.Y.Y.U.P.P.U.Y.Y.U.P.U.Y.Y.Y.U.L.S @ 8.B.m.m.N.N.N.M.B.y.L X 5 a.L.U.F.a.i.F.U.Y.U.U.Y.U.U.U.U.Y.U.U.Y.U.U.U.U.U.U.U.U.Y.U.U.U.U.U.P.z.R $ o L w.B.N.N.N.N.N.N.N.N.N.N.N.M.c.w 5 F.P.P.U.Y.Y.U.P.P.U.Y.Y.U.P.P.U.Y.Y.U.P.P.U.Y.Y.U.U.P.",
"U.U.U.U.U.U.U.U.U.U.U.U.U.U.U.U.U.U.U.U.U.U.U.U.U.U.U.U.U.R o 3.B.B.M.B.N.N.B.c.K X m C.U.Y.z.9 X . B H.Y.U.U.U.U.Y.U.U.U.Y.U.U.U.U.U.U.U.Y.U.U.U.Y.U.U.U.U.Y.U.I.h.m X w 4.N.N.N.N.N.N.N.N.N.N.N.N.y.3 6 H.U.U.U.U.U.U.U.U.U.U.U.U.U.U.U.U.U.U.U.U.U.U.U.U.U.U.",
"U.P.U.Y.Y.Y.U.P.U.U.Y.Y.U.P.P.U.Y.Y.U.U.U.U.Y.Y.U.P.P.Y.Y.u.. } B.B.N.m.M.N.M._ X m A.U.U.G.m . X X X a.U.Y.U.U.U.U.U.U.U.U.U.U.U.Y.U.Y.U.U.U.Y.U.U.U.U.U.U.U.Y.U.Y.G.W X > ,.N.N.N.N.N.N.N.N.N.N.N.w.: u L.Y.Y.U.P.P.U.Y.Y.U.P.U.U.Y.Y.U.U.P.U.Y.Y.U.P.U.P.Y.Y.",
"P.U.P.U.Y.Y.U.P.U.Y.Y.Y.U.P.P.Y.Y.Y.U.P.U.U.Y.Y.U.P.P.U.Y.g.. U M.B.N.M.N.B.6.% 5 C.Y.U.U.u.X X X X X ~ U.U.U.U.U.Y.Y.U.Y.U.U.Y.U.Y.U.U.U.Y.U.U.U.U.U.Y.Y.U.U.Z.a.g.P.P.u.$ : 3.B.B.N.N.N.N.N.N.N.B.8.$ D U.Y.Y.U.P.U.Y.Y.Y.U.U.P.U.Y.Y.U.U.P.U.Y.Y.U.U.P.U.U.Y.",
"U.U.U.U.U.U.U.U.U.U.U.U.U.U.U.U.U.U.U.U.U.U.U.U.U.U.U.U.U.C.- z c.M.B.N.M.m.K X i.U.U.U.K.m X o o O . W U.U.Y.U.U.U.U.U.U.U.U.U.U.U.U.U.U.U.U.U.U.Y.U.U.U.U.l.5 . O E L.U.i.O q 0.B.N.N.N.N.N.N.N.B.:.X ! U.U.U.U.U.U.U.U.U.U.U.U.U.U.U.U.U.U.U.U.U.U.U.U.U.U.U.",
"Y.Y.Y.U.P.P.U.Y.Y.U.P.P.U.Y.Y.U.P.P.U.Y.Y.U.P.P.U.Y.Y.U.U.H.N @ 5.B.N.N.B.w.: 9 H.U.U.Y.A.; X X X X X i.U.U.Y.U.U.U.U.U.U.U.U.U.U.U.U.U.U.U.U.U.U.U.Y.U.U.L.S X X X $ s.U.I.~ . b y.N.N.N.N.N.N.N.B.( X a.U.I.P.U.Y.Y.U.P.P.U.Y.Y.U.P.P.U.Y.Y.U.U.P.U.Y.Y.Y.U.P.",
"Y.Y.Y.U.P.P.Y.Y.Y.U.P.P.Y.Y.Y.U.P.P.Y.Y.Y.U.P.P.U.Y.Y.U.P.P.i.. P m.N.N.B.1.X R U.U.U.Y.Z.* X O X X $ k.U.U.U.U.U.Y.U.Y.Y.U.U.U.U.U.Y.U.U.Y.U.U.Y.U.U.U.Y.Z.; X X O . S P.U.H.m @ 1.N.N.N.N.N.N.B.y.t % Z.U.P.P.U.Y.Y.U.P.U.U.Y.Y.U.P.U.U.Y.Y.U.P.P.U.Y.Y.Y.U.P.",
"U.U.U.U.U.U.U.U.U.U.U.U.U.U.U.U.U.U.U.U.U.U.U.U.U.U.U.U.U.U.G.6 % 4.N.N.N.:.X ~ U.U.U.U.H.9 X X X X S P.Y.U.U.U.U.U.U.U.U.Y.U.U.Y.U.U.U.U.Y.U.Y.U.U.Y.U.Y.j.O X X X X 2 F.U.Y.f.@ b n.N.N.N.N.N.B.7.% M K.U.U.U.U.U.U.U.U.U.U.U.U.U.U.U.U.U.U.U.U.U.U.U.U.U.U.U.",
"U.P.U.U.Y.U.U.U.U.Y.Y.Y.U.P.P.U.Y.Y.U.P.U.U.Y.Y.U.P.U.U.Y.Y.U.a.X x r.B.V.2.X R U.U.Y.U.U.a.$ . X 8 z.U.U.U.U.Y.U.U.Y.U.U.U.U.U.U.U.Y.U.U.U.U.U.U.U.U.U.U.j.# X O X X $ z.U.U.L.m = 0.B.N.N.N.N.M.I X u.U.Y.Y.Y.U.P.P.Y.Y.Y.U.P.U.U.Y.Y.U.U.P.U.Y.Y.Y.P.U.P.Y.Y.",
"P.P.U.U.Y.Y.U.P.P.Y.Y.Y.U.P.P.Y.Y.Y.U.P.P.U.Y.Y.U.U.P.U.Y.Y.U.K.F X L y.N.e.: 9 H.U.U.Y.U.I.j.u.i.S.U.U.U.Y.U.U.U.U.U.U.U.H.u.G D i.J.U.U.U.U.U.U.U.Y.U.Y.z.- o X X X - C.Y.U.U.~ X | N.N.N.N.N.7.= 6 Z.I.U.Y.Y.U.P.U.U.Y.Y.U.U.P.U.Y.Y.Y.P.P.U.Y.Y.U.U.P.P.U.Y.",
"U.U.U.U.U.U.U.U.U.U.U.U.U.U.U.U.U.U.U.U.U.U.U.U.U.U.U.U.U.U.U.U.F.m X T y.M.v X f.U.U.U.U.U.Y.Y.U.Y.U.U.U.U.U.U.Y.U.U.Y.I.R 0 / / , E I.U.Y.U.Y.Y.U.U.U.U.K.n X X o X y J.U.U.Y.s.. ( V.N.N.N.v.b X i.U.U.U.U.U.U.U.U.U.U.U.U.U.U.U.U.U.U.U.U.U.U.U.U.U.U.U.U.U.",
"Y.Y.Y.U.P.P.Y.Y.Y.U.P.P.U.Y.Y.U.P.U.Y.Y.Y.U.U.P.U.Y.Y.U.U.P.U.Y.Y.Z.9 X J r.1.@ m H.Y.U.U.U.U.U.U.U.U.Y.Y.U.Y.U.U.U.U.U.H.7 o.*.*.+.5 F.U.U.U.U.U.U.U.U.U.U.s.@ X . $ a.U.U.U.Y.f.X ( N.M.N.M.` X B K.Y.Y.U.P.P.U.Y.Y.U.P.P.U.Y.Y.U.U.P.U.Y.Y.U.U.P.U.Y.Y.Y.U.P.",
"Y.Y.Y.P.P.U.Y.Y.Y.P.P.U.Y.Y.U.U.P.P.U.Y.Y.U.P.P.U.Y.Y.U.P.P.U.Y.Y.Y.z.N X z 1.b . ! P.Y.U.U.U.Y.U.U.U.U.U.U.U.U.U.Y.U.U.I.R 0 / X.a B J.Y.U.U.Y.U.U.U.Y.U.U.I.f.R Y s.I.U.U.U.U.p.. ` N.N.M.} @ > l.Y.Y.Y.U.P.P.Y.Y.Y.U.U.P.U.Y.Y.U.P.P.U.Y.Y.U.P.P.U.Y.Y.Y.U.P.",
"U.U.U.U.U.U.U.U.U.U.U.U.U.U.U.U.U.U.U.U.U.U.U.U.U.U.U.U.U.U.U.U.U.U.Y.G.E X = v = @ ^ P.U.U.U.U.U.Y.U.U.Y.U.U.U.U.U.U.L.D.H.i.S B W A.Y.U.U.U.U.Y.U.U.Y.U.U.U.U.U.U.Y.U.U.U.Y.U.R X >.B.m.{ $ ; h.U.U.U.U.U.U.U.U.U.U.U.U.U.U.U.U.U.U.U.U.U.U.U.U.U.U.U.U.U.U.U.",
"U.P.P.Y.Y.Y.U.P.U.Y.Y.Y.U.P.P.Y.Y.Y.U.U.P.U.Y.Y.U.U.U.U.Y.Y.U.U.P.U.Y.Y.P.a.6 . X X $ W G.U.Y.U.G.g.^ ! a.L.Y.U.U.Y.U.i.5 f.P.P.P.I.z.s.P.U.U.Y.U.U.U.U.U.U.U.U.U.U.U.U.U.U.U.Z.4 3 r.c.( @ ; g.Y.Y.U.P.U.Y.Y.Y.U.P.U.U.Y.Y.U.P.P.U.Y.Y.U.P.P.U.Y.Y.U.P.P.U.Y.Y.",
"P.U.U.U.Y.Y.P.U.P.U.Y.Y.U.U.P.U.Y.Y.U.U.P.U.Y.Y.U.U.P.U.Y.Y.U.U.P.U.Y.Y.Y.U.Z.W ; X X X B h.F.u.8 O - 1 @ ^ U.U.U.U.U.A.R 1 A ^ u.Y ; m J.U.U.U.U.U.U.U.Y.U.U.U.U.U.Y.U.U.U.L.E . T 5.c . 7 g.U.Y.Y.U.P.P.U.Y.Y.U.P.U.U.Y.Y.U.U.U.U.Y.Y.U.U.U.U.Y.Y.U.U.P.U.U.Y.",
"U.U.U.U.U.U.U.U.U.U.U.U.U.Y.U.U.U.U.U.U.U.U.U.U.U.U.U.U.U.U.U.U.U.U.U.Y.U.U.U.U.z.E ; X . $ 5 O A a.A.A.m n J.U.U.U.U.Y.I.z.i.E R ~ s.F.U.U.Y.U.U.Y.U.U.U.U.Y.U.U.U.U.U.U.P.^ @ = v = X G A.Y.U.U.U.U.U.U.U.U.U.U.U.U.U.U.U.U.U.U.U.U.U.U.U.U.U.U.U.U.Y.U.U.U.U.",
"Y.Y.Y.U.P.P.Y.Y.Y.P.P.P.U.Y.Y.U.P.P.U.Y.Y.U.P.P.U.Y.Y.U.P.P.U.Y.Y.U.P.P.U.U.Y.Y.I.L.C.u.5 X ; s.L.U.Y.F.6 5 S.U.Y.U.U.U.U.Y.U.U.U.Y.U.Y.U.U.Y.U.Y.U.U.Y.U.U.U.Y.U.U.U.U.A.R @ X X . 8 a.U.Y.Y.U.P.P.U.Y.Y.U.P.P.U.Y.Y.U.P.P.U.Y.Y.U.P.P.U.Y.Y.U.P.P.U.Y.Y.Y.U.P.",
"Y.Y.Y.U.P.P.Y.Y.Y.U.P.U.U.Y.Y.U.P.U.U.Y.Y.U.P.U.U.Y.Y.U.P.P.U.Y.Y.U.P.U.U.Y.Y.U.P.P.U.L.m ; j.U.Y.U.U.A.9 + M k.I.U.Y.U.Y.U.Y.U.U.U.U.U.U.U.U.U.U.U.U.U.U.U.Y.U.U.P.Z.u.8 X . X 8 ^ A.U.Y.Y.Y.U.P.P.Y.Y.Y.U.P.P.U.Y.Y.U.P.U.U.Y.Y.U.P.U.U.Y.Y.U.P.P.U.Y.Y.Y.U.P.",
"U.U.U.U.U.U.U.U.U.U.U.U.U.U.U.U.U.U.U.U.U.U.U.U.U.U.U.U.U.U.U.U.Y.U.U.U.U.U.U.U.Y.U.Y.a.X i.U.Y.U.U.U.U.G.p.4 ; S W u.d.l.A.H.L.I.U.U.Y.U.Y.Y.Y.U.Y.Y.U.U.I.H.z.p.F ; X . ; B i.G.Y.Y.U.U.U.U.U.U.U.U.U.U.U.U.U.U.U.U.U.U.U.U.U.U.U.U.U.U.U.U.U.U.U.U.U.U.U.U.U.",
"U.P.P.U.Y.Y.U.P.P.Y.Y.Y.U.P.P.Y.Y.Y.U.P.U.U.Y.Y.U.U.P.U.Y.Y.U.U.P.U.Y.Y.U.U.P.U.Y.Y.U.G ; D.Y.U.Y.U.U.U.Y.U.h.; X X X X # ; 9 N G W  .p.d.g.j.k.k.h.f.a.~ G 9 $ . . . X B h.H.U.U.Y.Y.U.P.P.U.U.Y.Y.U.P.P.Y.Y.Y.U.P.U.U.Y.Y.U.P.P.U.Y.Y.U.U.P.U.Y.Y.U.P.P.P.Y.Y.",
"P.P.U.U.Y.U.U.U.P.Y.Y.Y.U.P.P.U.Y.Y.U.U.P.U.Y.Y.U.U.U.U.Y.Y.U.U.P.U.Y.Y.U.I.P.U.Y.Y.L.m m L.U.U.U.Y.U.U.Y.U.U.E @ ( ` L z X X . X X X   . X O # # X X X X X o t L v 3 o $ m ^ l.L.Y.Y.Y.P.P.P.Y.Y.Y.U.U.P.U.Y.Y.U.U.P.U.Y.Y.U.U.U.U.Y.U.U.U.U.U.Y.Y.Y.P.P.U.U.Y.",
"U.U.U.U.U.U.U.U.U.U.U.U.U.U.U.U.U.U.U.U.U.U.U.U.U.U.U.U.U.U.U.U.U.U.U.U.U.U.U.U.U.H.! $ y K.U.U.U.U.U.U.U.U.U.p.o 3.V.y.P O 3 t X w ` ' ) T I P I ) ` } | q : q.B.m.r.3._ t @ $ F j.P.U.Y.U.U.U.U.U.U.U.U.U.U.U.U.U.U.U.U.U.U.U.U.U.U.U.U.U.U.U.U.U.U.U.U.U.U.U.",
"Y.Y.Y.U.P.U.Y.Y.Y.U.P.P.Y.Y.Y.U.P.P.U.Y.Y.U.P.P.U.Y.Y.U.P.P.U.Y.Y.U.P.P.U.Y.Y.Y.z.B . @ ; C.Y.U.Y.U.U.U.U.U.Y.u.o | 3.v $ X r 2.z @ b 4.8.{ 1.c.1.( } 3.b @ P q.` U >.M.N.y.3.P = $ D k.U.Y.Y.U.P.P.U.Y.Y.U.P.P.U.Y.Y.U.P.P.U.Y.Y.U.P.P.U.Y.Y.U.P.P.U.Y.Y.Y.U.P.",
"Y.Y.Y.P.P.P.Y.Y.Y.U.P.P.Y.Y.Y.U.P.P.Y.Y.Y.U.P.P.U.Y.Y.U.P.P.U.Y.Y.Y.P.P.U.Y.U.a.5 X J ` o ~ U.U.U.U.U.U.U.Y.P.D X > $ ; ^ ~ X :.r.P = @ 3 V y r 9 R m $ @ P 5.x s h < [ M.B.V.N.0.I % $ ^ K.Y.U.P.P.Y.Y.Y.U.P.P.U.Y.Y.U.P.P.U.Y.Y.U.P.U.U.Y.Y.U.P.P.U.Y.Y.Y.U.P.",
"U.U.U.U.U.U.U.U.U.U.U.U.U.U.U.U.U.U.U.U.U.U.U.U.U.U.U.U.U.U.U.U.U.U.U.Y.U.Z.R O = ' r.P . % k.U.U.U.U.U.U.U.a.$ 7 D  .C.U.Z.; v n.m.2.> i.P.Z.R k.U.Z.5 { N.[ 0 -.;.=.c y.V.N.N.N.M.7.v o m k.U.U.U.U.U.U.U.U.Y.U.U.U.U.U.U.U.U.U.U.U.Y.U.U.U.U.U.U.U.U.U.U.U.U.",
"U.P.U.U.Y.Y.U.P.U.Y.Y.Y.U.P.P.U.Y.Y.U.U.P.Y.Y.Y.U.U.P.U.Y.Y.U.U.P.U.Y.P.a.5 . x 4.m.T O S m f.U.U.U.U.P.A. .% y Z.I.U.U.U.P.R $ 5.N.y.t s.U.s.Z Q K.z.7 7.V.[ p -.;./ r y.N.N.N.N.M.B.c.[ = ; a.U.Y.U.P.P.U.Y.Y.U.P.P.U.Y.Y.U.P.P.U.Y.Y.U.P.P.U.Y.Y.U.P.P.U.Y.Y.",
"P.U.P.Y.Y.Y.I.U.P.Y.Y.Y.U.U.P.U.Y.Y.U.U.P.U.Y.Y.U.P.P.U.Y.Y.U.U.I.P.C.D X % ) t.V.4.% S J.L.I.U.U.U.i.N 4 $ S Z.U.U.U.Y.U.Y.k.$ b m.N.( 9 C.Z O.g h.! q y.V.>.% f l < ] N.N.N.N.N.N.N.B.N.3.r + i.U.U.P.U.U.Y.Y.U.U.U.U.Y.Y.U.U.U.U.Y.Y.U.U.U.U.Y.Y.Y.U.P.U.U.Y.",
"U.U.U.U.U.U.U.U.U.U.U.U.U.U.Y.U.U.U.U.U.Y.U.U.U.U.Y.U.U.U.U.U.U.Z.~ $ X v 4.M.B.N.P $ l.U.U.U.U.U.U.u.8 X ~ P.Y.U.U.U.U.Y.U.P.R @ 2.N.K Y K.^ f Z D.C.7 3.B.T s < b :.n.N.N.N.N.B.B.B.B.B.B.w.v $ ^ U.U.U.U.U.U.U.U.U.U.U.U.U.U.U.U.U.U.U.U.U.U.U.U.U.U.U.U.U.U.",
"Y.Y.Y.U.P.P.U.Y.Y.U.P.P.U.Y.Y.U.P.P.U.Y.Y.U.P.P.U.Y.Y.U.U.P.A.u.5 X 3 { b.N.N.N.y.w m L.U.U.Y.U.U.U.U.f.O s.U.U.U.U.U.U.U.U.Y.z.; z e.c a.Y.K. .h.Y.J.9 [ :.d 0 _ M.B.N.B.B.N.c.0.1.[ ) U U ( T = X u.Y.Y.U.P.P.U.Y.Y.U.U.P.U.Y.Y.U.U.P.U.Y.Y.U.U.P.U.Y.Y.Y.U.P.",
"Y.Y.Y.U.P.P.Y.Y.U.U.P.P.Y.Y.Y.U.P.P.Y.Y.Y.U.P.P.U.Y.Y.P.z.~ 5 . > ) r.N.N.N.N.B.r.= Y I.U.Y.U.U.U.Y.U.a.o h.Y.U.U.Y.Y.U.U.Y.U.I.u.X ) _ n a.~ 2 9 ^ Y < e d s d 0.B.B.N.t.1.U t = o X X % = % @ X . $ s.Y.U.P.P.U.U.Y.U.P.P.U.Y.Y.U.P.P.U.Y.Y.U.P.P.U.Y.Y.Y.U.P.",
"U.U.U.U.Y.U.U.U.U.U.Y.U.U.U.U.U.U.U.U.U.U.U.Y.U.U.U.P.^ - X 2 T w.M.N.N.M.N.N.B.r.> D U.U.U.U.U.U.U.U.Y ; D.U.U.U.U.U.U.U.Y.U.Y.H.A @ | ' c b 3.| z > s < h c 4.M.m.9.( q o & m ! a.D o ' 0.9.1.' c o 2 l.Y.U.Y.U.U.U.U.U.U.U.U.U.U.U.U.U.U.U.U.U.U.U.U.U.U.U.U.",
"P.P.P.Y.Y.U.U.P.U.Y.Y.Y.U.P.P.U.Y.Y.U.P.U.U.Y.Y.U.U.P.W . = 2.B.N.N.N.N.N.M.M.N.y.z 6 G.Y.U.U.U.U.Y.k.& Y I.Y.U.U.U.Y.U.U.U.U.U.U.z.5 3 9.n.m.B.N.y.e.:.1.:.e.m.4.K % $ M u.C.L.U.Y.z.$ L N.N.V.B.c.P . u.Y.Y.Y.U.P.U.Y.Y.Y.U.U.P.U.Y.Y.U.P.P.U.Y.Y.Y.U.P.P.Y.Y.",
"P.P.U.U.Y.Y.U.P.P.U.Y.Y.U.U.U.U.Y.Y.U.U.P.U.Y.Y.U.P.P.K.R . v e.N.N.N.N.N.N.N.N.N.' o ~ L.U.U.Y.Y.z.n ; z.Y.U.U.U.U.U.U.U.U.U.U.U.Y.d.$ z e.B.N.N.N.V.N.B.B.0.K @ + X B K.U.U.U.U.U.L.M w y.B.N.B.m.P X s.Y.Y.Y.U.P.P.U.Y.Y.U.U.U.U.U.Y.U.U.U.U.Y.Y.U.U.P.U.U.Y.",
"U.U.U.U.U.U.U.U.U.U.U.U.U.U.U.U.U.U.U.U.U.U.U.U.U.Y.U.U.G.G . x w.B.N.N.N.N.N.N.N.t.v O S d.z.k. .1 ; d.U.U.U.U.U.Y.Y.U.U.Y.U.U.Y.U.U.i.@ x e.B.N.N.N.N.r.) = $ R d.2 Y U.U.U.Y.U.U.P.S 3 t.N.N.B.r.3 4 D.U.U.U.U.Y.U.U.U.U.U.U.U.U.U.U.U.U.U.Y.U.U.U.U.U.U.U.U.",
"Y.Y.Y.U.P.P.Y.Y.Y.U.P.P.U.Y.Y.U.P.P.U.Y.Y.U.P.P.U.Y.Y.U.I.G.Y X w 8.N.N.N.N.N.N.N.B.t.T = O $ @ $ B k.U.Y.U.U.Y.U.U.U.U.U.U.U.Y.U.Y.U.P.u.O c w.B.N.N.2.r # B h.I.F.; ! U.U.U.Y.U.U.H.9 x v.B.B.B.' X E U.U.P.P.U.Y.Y.U.P.P.U.Y.Y.U.U.P.U.Y.Y.U.P.P.U.Y.Y.Y.U.P.",
"Y.Y.Y.P.P.U.Y.Y.Y.P.P.U.Y.Y.Y.U.P.P.Y.Y.Y.U.P.P.U.Y.Y.U.P.I.J.W X 3 1.N.B.N.N.N.N.N.N.N.e.' @ A z.K.Y.U.U.U.U.U.U.U.Y.U.U.Y.U.U.U.U.U.U.P.u.@ w 7.r.( @ 4 i.K.Y.Y.l.O u.Y.U.U.U.U.U.s.X ( B.M.B.9.> - C.Y.U.P.P.U.Y.Y.U.P.P.U.Y.Y.U.P.P.U.Y.Y.U.P.P.U.Y.Y.U.U.P.",
"U.U.U.U.U.Y.U.U.U.U.U.Y.U.U.U.U.U.U.U.U.U.Y.U.Y.U.Y.U.U.U.Y.U.L.^ # - ` y.B.N.N.N.N.N.N.N.r.: G I.U.U.U.Y.U.U.Y.U.U.U.Y.U.U.U.U.U.U.U.U.Y.I.a.; ; r O S C.U.U.U.U.a.X m z.I.U.U.L.f.4 3 e.B.B.r.c X ^ P.U.U.U.Y.U.U.U.U.Y.U.U.U.U.U.U.Y.U.U.U.U.U.Y.U.U.U.U.U.U.",
"P.P.U.Y.Y.Y.U.P.P.U.Y.Y.U.P.P.U.Y.Y.U.P.P.U.Y.Y.U.P.U.Y.Y.Y.U.P.K.s.5 X v 0.B.N.N.N.N.N.N.v.c 6 G.Y.U.U.U.U.U.U.U.U.U.U.Y.U.U.Y.U.Y.U.Y.U.U.U.k.z ; u.K.Y.U.Y.U.U.W X @ ; F ~ ~ B @ 2 2.B.B.r.b . G H.P.U.U.Y.Y.U.P.P.U.Y.Y.U.U.P.U.Y.Y.U.P.P.U.Y.Y.U.P.U.P.Y.Y.",
"P.U.P.U.Y.Y.U.U.U.U.Y.Y.U.P.U.U.Y.Y.U.U.P.U.U.Y.U.P.P.U.Y.Y.U.P.P.I.C.A X > [ y.N.N.N.N.N.N.` o g.Y.Y.U.U.U.U.U.U.U.U.U.U.U.U.U.U.Y.U.U.U.U.U.U.F.z.I.U.U.U.U.U.H.9 t >.b 3 = = w T 0.N.B.9.c X S K.U.P.U.U.Y.Y.U.U.P.U.Y.Y.U.P.U.U.Y.Y.U.P.U.U.Y.Y.U.P.P.U.Y.Y.",
"U.Y.U.U.U.U.U.U.U.U.U.U.U.U.U.U.U.U.U.U.Y.U.U.U.U.U.U.U.U.U.U.U.Y.Y.U.H. .; X c 2.n.V.N.N.N.7.= G I.U.U.Y.U.U.Y.Y.U.U.Y.U.Y.U.U.U.U.U.U.Y.U.U.U.U.Y.Y.U.U.Y.U.Y.g.O ) N.m.r.0.e.y.N.N.b.} 2 . G F.U.U.U.U.U.U.U.U.Y.U.U.U.U.U.Y.U.U.U.U.U.U.Y.U.U.U.U.Y.U.U.U.U.",
"Y.Y.Y.U.P.P.Y.Y.Y.U.P.P.U.Y.Y.U.P.P.U.Y.Y.U.P.P.U.Y.Y.U.P.P.U.Y.Y.Y.P.P.I.C.D + @ b 4.n.B.B.m.K # h.Y.U.Y.U.U.U.U.U.U.Y.U.U.Y.U.Y.U.U.Y.U.U.U.U.U.U.U.U.U.U.U.P.Y @ 7.N.N.N.N.B.B.n.3.v X & u.J.P.P.U.Y.Y.U.P.P.U.Y.Y.U.P.P.U.Y.Y.U.U.P.U.Y.Y.U.P.P.U.Y.Y.Y.U.P.",
"Y.Y.U.U.P.P.Y.U.U.U.P.P.Y.Y.Y.U.P.P.Y.Y.Y.U.P.P.U.Y.Y.U.P.P.U.Y.Y.Y.P.P.U.Y.I.g.N o @ v :.t.N.7.% N G.U.U.U.U.U.U.U.U.U.U.U.U.U.U.U.U.U.Y.U.U.Y.Y.U.U.Y.Y.U.Y.j.$ z n.N.B.V.N.r.:.v @ O S l.Y.I.P.P.U.Y.Y.U.P.P.U.Y.Y.U.P.P.U.Y.Y.U.P.P.Y.Y.Y.U.P.P.U.U.Y.Y.U.P.",
"U.U.U.U.U.Y.U.U.U.U.Y.Y.U.U.U.U.U.U.U.U.U.U.Y.U.U.U.U.U.U.Y.U.U.I.U.U.Y.U.U.U.U.L.g.B o X w ( :.2 . ! U.U.U.U.Y.Y.U.U.U.Y.U.U.U.U.U.U.Y.U.U.U.U.U.U.U.U.U.U.L.V X > r.m.r.1.T w X # A d.K.U.I.Y.U.Y.U.U.U.U.Y.Y.U.U.U.U.U.Y.U.U.U.U.U.U.U.U.U.U.U.U.Y.U.I.U.U.U.",
"P.P.P.Y.Y.Y.U.P.P.Y.Y.Y.U.P.P.U.Y.Y.U.P.U.U.Y.Y.U.U.U.U.Y.Y.U.P.P.U.Y.Y.Y.P.L.U.Y.Y.L.g.R 4 . o X 2 u.I.Y.U.U.U.U.U.U.Y.U.U.Y.U.U.U.U.U.U.U.Y.U.U.Y.U.U.U.Y.K.! m @ K b 3 X X 2 R k.P.Y.P.P.L.Y.Y.Y.U.P.P.U.Y.Y.U.U.P.U.Y.Y.U.P.P.U.Y.Y.U.P.P.U.Y.Y.U.P.P.U.Y.Y.",
"P.U.U.U.Y.Y.U.P.U.U.Y.U.U.U.U.U.Y.Y.U.P.U.U.Y.Y.U.P.P.U.Y.Y.U.P.U.U.Y.Y.U.P.U.U.Y.U.Y.U.P.Z.s.S X  .U.U.U.U.Y.U.U.U.U.U.U.U.U.U.U.A.K.U.U.U.U.U.U.U.U.Y.U.U.Y.U.l.& O # u E s.Z.P.Y.Y.U.I.I.I.Y.Y.Y.U.P.U.U.Y.Y.U.U.U.U.Y.Y.U.P.P.U.Y.Y.U.U.P.U.Y.Y.U.U.P.P.Y.Y.",
"U.U.U.U.U.U.U.Y.U.U.U.U.U.U.U.U.U.U.U.U.U.U.U.U.U.U.Y.U.U.U.U.U.U.Y.U.U.U.U.Y.U.U.U.U.U.U.Y.U.h.O a.Y.U.Y.U.U.U.U.Y.Y.U.U.Y.U.U.G.9 u.U.U.Y.Y.U.Y.U.U.U.U.U.U.U.J.z 4 g.H.I.Y.Y.Y.I.U.Y.U.Y.Y.U.U.U.U.Y.U.U.U.U.U.U.U.U.U.U.U.Y.U.U.U.U.U.Y.U.U.U.U.U.U.U.Y.U.U.",
"Y.Y.Y.U.P.P.Y.Y.Y.U.P.P.U.Y.Y.U.P.P.Y.Y.Y.U.P.P.U.Y.Y.U.P.P.U.Y.Y.U.P.P.U.Y.Y.U.P.P.U.Y.Y.Y.U.f.X s.U.U.U.U.U.U.H.D.F.J.U.Y.U.Y.h.X 9 H.U.U.U.P.H.H.L.U.U.U.U.U.U.E $ Z.I.U.Y.Y.Y.P.P.I.Y.Y.Y.U.P.P.Y.Y.Y.U.P.P.U.Y.Y.U.P.P.U.Y.Y.U.P.P.U.Y.Y.U.P.P.U.Y.Y.Y.U.P.",
"Y.Y.U.U.P.P.U.Y.U.U.P.U.Y.Y.Y.U.P.P.Y.Y.Y.U.P.U.Y.Y.Y.U.P.U.U.Y.Y.U.P.P.U.Y.Y.Y.P.P.U.Y.Y.U.U.f.O s.Y.Y.U.U.U.Z.m 6 6 u E j.P.Y.^ $ $ s.I.U.s.A 9 6 N h.Y.U.Y.U.Y.s.X s.I.U.Y.Y.U.I.P.I.Y.Y.Y.U.P.P.U.Y.Y.U.P.P.U.Y.Y.U.P.P.U.Y.Y.U.P.P.U.Y.Y.U.P.P.U.Y.Y.Y.P.P.",
"U.U.U.U.Y.U.U.U.U.U.Y.U.U.U.U.U.U.Y.U.P.U.U.Y.U.U.U.U.U.U.Y.U.U.U.U.U.Y.U.P.U.U.U.U.U.U.U.U.Y.h.X a.Y.U.U.U.Y.K.h.k.j.p.S 7 h.p.9 R G 2 E J.p.~ d.g.u.k.U.U.Y.U.U.Z.; E U.U.U.U.U.Y.Y.U.U.I.I.U.U.Y.U.U.U.U.U.Y.U.U.U.U.Y.Y.U.U.U.U.Y.U.U.U.U.U.Y.Y.U.U.U.U.U.Y.",
"P.P.P.Y.Y.Y.U.P.P.Y.Y.Y.U.P.P.U.Y.Y.U.P.P.U.Y.Y.U.P.P.U.Y.Y.U.P.P.U.Y.Y.U.P.P.U.Y.Y.U.P.P.P.Y.^ $ k.Y.U.U.Y.U.U.Y.U.Y.Y.L.Z.j.; X a.W . G L.U.U.U.U.Y.U.U.U.U.U.U.P.B y P.U.P.P.I.Y.Y.Y.P.P.P.Y.Y.Y.U.P.U.U.Y.Y.U.U.P.U.Y.Y.U.P.P.U.Y.Y.U.U.U.U.Y.Y.U.P.P.P.Y.Y.",
"P.U.U.U.U.Y.U.U.U.U.Y.Y.U.P.U.U.Y.Y.U.U.U.U.Y.Y.U.P.U.U.Y.Y.U.P.P.U.Y.Y.U.U.P.U.Y.Y.U.U.P.U.U.B u K.U.U.U.U.Y.U.U.Y.U.U.U.Y.U.a.$ n $ Y K.U.U.U.Y.U.U.Y.Y.U.U.Y.U.U.~ ; F.U.P.P.U.Y.Y.Y.P.P.P.U.Y.Y.U.P.U.U.Y.Y.U.P.P.U.Y.Y.U.P.P.U.Y.Y.U.P.P.U.Y.Y.U.U.P.U.U.Y.",
"U.Y.U.U.U.U.U.U.U.U.U.U.U.Y.U.U.U.U.U.U.U.U.U.U.U.U.U.U.U.U.U.U.Y.U.U.U.U.U.Y.U.U.U.U.Y.U.Y.G.6 G I.U.U.U.U.U.U.U.U.U.U.U.U.U.P.R   ; z.Y.U.U.Y.U.U.U.U.U.U.U.U.U.U.~ ; A.U.Y.Y.U.U.I.U.Y.Y.Y.U.U.U.U.U.U.U.U.U.U.Y.U.U.U.U.U.Y.Y.U.U.U.U.Y.U.U.U.U.U.Y.U.U.U.U.",
"Y.Y.Y.U.P.P.U.Y.Y.U.P.P.U.Y.Y.U.P.P.Y.Y.Y.U.P.P.U.Y.Y.U.P.P.U.Y.Y.U.U.P.U.Y.Y.Y.P.P.U.Y.Y.Y.F.6 Y U.Y.U.U.Y.U.U.U.Y.U.Y.U.U.U.Y.s.X m K.Y.U.U.Y.Y.U.U.U.Y.U.U.Y.U.U.S 6 F.U.Y.Y.U.P.P.U.Y.Y.Y.U.P.P.U.Y.Y.U.P.P.U.Y.Y.U.P.P.U.Y.Y.U.P.P.U.Y.Y.U.P.P.U.Y.Y.Y.U.P.",
"Y.Y.Y.U.P.P.Y.Y.U.U.P.P.Y.Y.Y.U.P.U.U.U.Y.U.P.P.U.Y.Y.U.U.P.U.Y.Y.U.P.P.U.Y.Y.U.P.P.U.Y.Y.Y.H.m N L.Y.U.U.U.U.U.U.U.U.U.U.U.U.Y.h.X B L.U.U.U.U.U.U.U.U.U.U.U.U.U.Z.; G L.U.Y.Y.U.P.P.U.Y.Y.Y.U.P.P.U.Y.Y.U.P.P.U.Y.Y.U.P.U.U.Y.Y.U.P.P.U.Y.Y.U.P.P.U.Y.Y.Y.U.P.",
"U.U.U.U.Y.U.U.U.U.U.U.Y.U.U.P.U.U.Y.U.U.U.U.Y.Y.U.U.P.U.U.Y.U.U.U.U.Y.Y.U.U.P.U.U.U.Y.I.U.U.U.~ $ k.Y.U.U.Y.Y.U.U.U.U.U.Y.U.U.U.^   6 F.Y.U.U.U.U.U.U.Y.U.U.U.Y.P.R $ k.Y.U.U.U.U.Y.Y.U.U.U.U.U.U.Y.U.U.U.Y.U.Y.U.U.U.U.U.Y.U.U.U.U.Y.Y.U.U.U.U.U.Y.U.U.P.U.U.U.",
"P.P.P.U.Y.Y.P.P.U.Y.Y.Y.U.P.P.U.Y.Y.U.P.P.U.Y.Y.U.U.P.U.Y.Y.U.P.P.U.Y.Y.U.U.P.U.Y.Y.U.P.P.U.Y.Z.; m Z.U.U.U.U.U.Y.U.U.U.U.U.Y.z.1 $ X ^ U.U.U.U.U.Y.U.U.U.U.Y.K.^ X E U.Y.U.I.P.U.Y.Y.U.P.P.P.Y.Y.Y.U.P.P.U.Y.Y.U.P.P.Y.Y.Y.U.P.P.U.Y.Y.U.P.U.U.Y.Y.U.U.P.U.Y.Y.",
"P.U.U.U.Y.Y.U.P.U.U.Y.U.U.U.U.U.Y.Y.U.P.U.U.Y.U.U.U.U.U.Y.Y.U.P.P.U.Y.U.U.P.U.U.Y.Y.U.U.U.U.U.U.a.$ 9 s.J.U.U.Y.U.Y.U.Y.U.P.g.6 ; d.D $ ^ F.I.Y.Y.Y.Y.U.U.J.h.A X G G.Y.Y.U.P.U.U.Y.Y.U.P.P.U.U.Y.U.U.U.P.U.Y.Y.U.U.P.U.Y.U.U.U.P.U.Y.Y.U.U.P.U.Y.Y.U.P.P.U.U.Y.",
"U.U.U.U.U.U.U.U.U.U.U.U.U.U.U.U.U.U.U.U.U.U.U.U.U.Y.U.U.U.U.U.U.Y.Y.U.U.U.Y.U.U.U.U.U.U.Y.U.U.U.P.g.9 X n ~ s.z.A.D.A.l.a.S o 6 f.U.Z.G # 5 R i.s.f.s.u.G 8 $ 4 u.P.U.U.U.U.U.Y.U.U.U.U.Y.Y.U.U.U.U.U.Y.U.U.U.U.U.Y.U.U.U.U.U.Y.Y.U.U.U.U.Y.U.U.U.U.U.Y.U.Y.U.U.",
"Y.Y.Y.U.P.P.Y.Y.Y.U.P.P.U.Y.Y.U.P.P.Y.Y.Y.U.P.P.U.Y.Y.U.P.P.U.Y.Y.U.P.P.U.Y.Y.Y.P.P.U.Y.Y.Y.P.P.U.Y.H.a.B ; $ $ ; ; ; $ $ 7 ^ F.U.P.I.P.h.G 5 $ $ $ $ - 8 S u.A.Y.Y.U.P.P.U.Y.Y.U.P.P.U.Y.Y.U.U.P.P.U.Y.U.U.P.P.U.Y.Y.U.P.P.U.Y.Y.U.P.P.U.Y.Y.U.P.P.U.Y.Y.Y.U.P.",
"Y.Y.Y.P.P.U.Y.Y.Y.P.P.U.Y.Y.Y.U.P.P.Y.Y.Y.U.P.U.U.Y.Y.U.P.U.U.Y.Y.U.P.P.U.Y.Y.U.P.P.U.Y.Y.U.P.P.U.Y.Y.Y.K.z.s.i.~ ! !  .g.G.Y.Y.U.P.P.U.Y.U.F.k.s.f.j.C.G.L.U.U.Y.Y.U.P.P.U.Y.Y.U.P.P.U.Y.Y.Y.U.P.P.Y.Y.Y.U.P.P.U.Y.Y.U.P.P.U.Y.Y.U.P.P.U.Y.Y.U.P.P.U.Y.Y.Y.P.P."
};
