/* XPM */
static char *park1754264454[] = {
/* columns rows colors chars-per-pixel */
"128 128 217 2 ",
"   c #000000",
".  c #090606",
"X  c #070905",
"o  c #0A0A07",
"O  c #0C0D0A",
"+  c #070808",
"@  c #130D0B",
"#  c #190E0D",
"$  c #0E120A",
"%  c #13140D",
"&  c #15190F",
"*  c #1B1511",
"=  c #161B11",
"-  c #1B1B13",
";  c #151718",
":  c #0F1112",
">  c #221B15",
",  c #281A17",
"<  c #331F1C",
"1  c #1C2315",
"2  c #1F2818",
"3  c #2B231C",
"4  c #232C1B",
"5  c #27261A",
"6  c #332E1E",
"7  c #35221E",
"8  c #29351D",
"9  c #27341C",
"0  c #1C2123",
"q  c #292A24",
"w  c #352A23",
"e  c #3C2923",
"r  c #2B3522",
"t  c #2E3B22",
"y  c #343224",
"u  c #3D3B2B",
"i  c #373A27",
"p  c #343939",
"a  c #282F30",
"s  c #482A27",
"d  c #45382B",
"f  c #4C3D32",
"g  c #55312D",
"h  c #673935",
"j  c #41201F",
"k  c #37472A",
"l  c #3E4E31",
"z  c #3D512C",
"x  c #43412E",
"c  c #4E472E",
"v  c #474632",
"b  c #564736",
"n  c #465837",
"m  c #58553C",
"M  c #40552D",
"N  c #6A4A3B",
"B  c #4D6439",
"V  c #516A3B",
"C  c #56723D",
"Z  c #3A3F40",
"A  c #3A4142",
"S  c #54594E",
"D  c #685644",
"F  c #735847",
"G  c #7E4C45",
"H  c #556944",
"J  c #5D734A",
"K  c #5C7B42",
"L  c #686549",
"P  c #766251",
"I  c #766951",
"U  c #6D7750",
"Y  c #586669",
"T  c #687476",
"R  c #505E62",
"E  c #88524A",
"W  c #914F4A",
"Q  c #896A55",
"!  c #87795A",
"~  c #95715A",
"^  c #9A755D",
"/  c #8C6A55",
"(  c #A6645B",
")  c #987B66",
"_  c #9B7E68",
"`  c #927762",
"'  c #966E72",
"]  c #B37164",
"[  c #AB5652",
"{  c #C2615D",
"}  c #C3766B",
"|  c #D2776E",
" . c #EA7670",
".. c #EA7A74",
"X. c #E4726E",
"o. c #668849",
"O. c #6A8454",
"+. c #759758",
"@. c #718E57",
"#. c #7DA559",
"$. c #7C9962",
"%. c #91885D",
"&. c #A1925F",
"*. c #82AC5C",
"=. c #85B15E",
"-. c #8B8862",
";. c #9A976D",
":. c #8B9366",
">. c #A8836A",
",. c #B3896C",
"<. c #B9957A",
"1. c #AE8E6F",
"2. c #85A569",
"3. c #8AAB6D",
"4. c #82A167",
"5. c #8DBC64",
"6. c #88B562",
"7. c #8FB172",
"8. c #95B976",
"9. c #8DAF70",
"0. c #A8A476",
"q. c #BFAE71",
"w. c #DA8378",
"e. c #CA9A7A",
"r. c #C39475",
"t. c #D09E7E",
"y. c #E7897D",
"u. c #D3A07F",
"i. c #C8B678",
"p. c #94C569",
"a. c #9BCE6E",
"s. c #95C66A",
"d. c #9DD06F",
"f. c #9DC37D",
"g. c #9DCF71",
"h. c #9ED171",
"j. c #A4D37B",
"k. c #A1D176",
"l. c #A0C77F",
"z. c #AD7F83",
"x. c #768A90",
"c. c #7C8E93",
"v. c #77888C",
"b. c #869092",
"n. c #8B9697",
"m. c #879293",
"M. c #BA8E87",
"N. c #BCB784",
"B. c #97AEB4",
"V. c #C39E82",
"C. c #EB8E81",
"Z. c #EE9083",
"A. c #F09184",
"S. c #D9A583",
"D. c #DDA885",
"F. c #D3AB8D",
"G. c #DDAD8C",
"H. c #C2BD88",
"J. c #D6AE93",
"K. c #DDB292",
"L. c #CCA386",
"P. c #E2B797",
"I. c #E4B999",
"U. c #E3B897",
"Y. c #F4BBB7",
"T. c #F3B2B8",
"R. c #F2B3B7",
"E. c #A4CB82",
"W. c #AAD485",
"Q. c #ADD689",
"!. c #AFD98B",
"~. c #AAD486",
"^. c #B1DB8C",
"/. c #C6C18B",
"(. c #CAC58E",
"). c #D9D499",
"_. c #D3C98C",
"`. c #EAD48B",
"'. c #E1DC9E",
"]. c #E9DC98",
"[. c #F4DE91",
"{. c #EAD58B",
"}. c #FAE394",
"|. c #FAE79B",
" X c #E4DFA0",
".X c #F5C5B5",
"XX c #F5CAB5",
"oX c #F7DCB2",
"OX c #F6D3B4",
"+X c #E9E3A4",
"@X c #EEE8A7",
"#X c #EBE5A5",
"$X c #F9ECA3",
"%X c #F2ECAA",
"&X c #F9EFA8",
"*X c #F7F1AD",
"=X c #F9F3AF",
"-X c #F8E5B1",
";X c #F9ECB0",
":X c #FBF5B0",
">X c #B0BEC1",
",X c #B1C9CF",
"<X c #BBDCE4",
"1X c #C6D5D7",
"2X c #C0E2EA",
"3X c #D5E6E9",
"4X c #C9ECF5",
"5X c #CBEEF7",
"6X c #D8EEF3",
"7X c #CCF0F9",
"8X c #DCF4F8",
"9X c #D7F1F7",
"0X c #E4F6F9",
"qX c #E6F8FC",
"wX c #E8FAFD",
"eX c #E1F3F6",
"rX c None",
/* pixels */
"rXrXrXrXrXrXrXrXrXrXrXrXrXrXrXrXrXrXrXrXrXrXrXrXrXrXrXrXrXrXrXrXrXrXrXrXrXrXrXrXrXrXrXrXrXrXrXrXrXrXrXrXrXrXrXrXrXrXrXrXrXrXrXrXrXrXrXrXrXrXrXrXrXrXrXrXrXrXrXrXrXrXrXrXrXrXrXrXrXrXrXrXrXrXrXrXrXrXrXrXrXrXrXrXrX                rXrXrXrXrXrXrXrXrXrXrXrXrXrXrX",
"rXrXrXrXrXrXrXrXrXrXrXrXrXrXrXrXrXrXrXrXrXrXrXrXrXrXrXrXrXrXrXrXrXrXrXrXrXrXrXrXrXrXrXrXrXrXrXrXrXrXrXrXrXrXrXrXrXrXrXrXrXrXrXrXrXrXrXrXrXrXrXrXrXrXrXrXrXrXrXrXrXrXrXrXrXrXrXrXrXrXrXrXrXrXrXrXrXrXrXrXrXrXrX                        rXrXrXrXrXrXrXrXrXrXrXrXrX",
"rXrXrXrXrXrXrXrXrXrXrXrXrXrXrXrXrXrXrXrXrXrXrXrXrXrXrXrXrXrXrXrXrXrXrXrXrXrXrXrXrXrXrXrXrXrXrXrXrXrXrXrXrXrXrXrXrXrXrXrXrXrXrXrXrXrXrXrXrXrXrXrXrXrXrXrXrXrXrXrXrXrXrXrXrXrXrXrXrXrXrXrXrXrXrXrXrXrXrXrXrX                                rXrXrXrXrXrXrXrXrXrXrX",
"rXrXrXrXrXrXrXrXrXrXrXrXrXrXrXrXrXrXrXrXrXrXrXrXrXrXrXrXrXrXrXrXrXrXrXrXrXrXrXrXrXrXrXrXrXrXrXrXrXrXrXrXrXrXrXrXrXrXrXrXrXrXrXrXrXrXrXrXrXrXrXrXrXrXrXrXrXrXrXrXrXrXrXrXrXrXrXrXrXrXrXrXrXrXrXrXrXrXrXrX            : q Z A p ;             rXrXrXrXrXrXrXrXrXrX",
"rXrXrXrXrXrXrXrXrXrXrXrXrXrXrXrXrXrXrXrXrXrXrXrXrXrXrXrXrXrXrXrXrXrXrXrXrXrXrXrXrXrXrXrXrXrXrXrXrXrXrXrXrXrXrXrXrXrXrXrXrXrXrXrXrXrXrXrXrXrXrXrXrXrXrXrXrXrXrXrXrXrXrXrXrXrXrXrXrXrXrXrXrXrXrXrXrXrXrX          0 T >X3X6X6X3X1Xn.A           rXrXrXrXrXrXrXrXrX",
"rXrXrXrXrXrXrXrXrXrXrXrXrXrXrXrXrXrXrXrXrXrXrXrXrXrXrXrXrXrXrXrXrXrXrXrXrXrXrXrXrXrXrXrXrXrXrXrXrXrXrXrXrXrXrXrXrXrXrXrXrXrXrXrXrXrXrXrXrXrXrXrXrXrXrXrXrXrXrXrXrXrXrXrXrXrXrXrXrXrXrXrXrXrXrXrXrXrX          R ,X8XqX0X0X0XeXqXwX3Xb.*         rXrXrXrXrXrXrXrX",
"rXrXrXrXrXrXrXrXrXrXrXrXrXrXrXrXrXrXrXrXrXrXrXrXrXrXrXrXrXrXrXrXrXrXrXrXrXrXrXrXrXrXrXrXrXrXrXrXrXrXrXrXrXrXrXrXrXrXrXrXrXrXrXrXrXrXrXrXrXrXrXrXrXrXrXrXrXrXrXrXrXrXrXrXrXrXrXrXrXrXrXrXrXrXrXrXrXrX        Y 2X9X0X0X0X0X0X0X0X0X0XqXB.;         rXrXrXrXrXrXrX",
"rXrXrXrXrXrXrXrXrXrXrXrXrXrXrXrXrXrXrXrXrXrXrXrXrXrXrXrXrXrXrXrXrXrXrXrXrXrXrXrXrXrXrXrXrXrXrXrXrXrXrXrXrXrXrXrXrXrXrXrXrXrXrXrXrXrXrXrXrXrXrXrXrXrXrXrXrXrXrXrXrXrXrXrXrXrXrXrXrXrXrXrXrXrXrXrXrX        R 2X7XeX0X0X0X0X0X0X0X0X0X0XqXn.:       rXrXrXrXrXrXrX",
"rXrXrXrXrXrXrXrXrXrXrXrXrXrXrXrXrXrXrXrXrXrXrXrXrXrXrXrXrXrXrXrXrXrXrXrXrXrXrXrXrXrXrXrXrXrXrXrXrXrXrXrXrXrXrXrXrXrXrXrXrXrXrXrXrXrXrXrXrXrXrXrXrXrXrXrXrXrXrXrXrXrXrXrXrXrXrXrXrXrXrXrXrXrXrXrX        0 ,X4X7X0X0X0X0X0X0X0X0X0XqXeXqXeXR         rXrXrXrXrXrX",
"rXrXrXrXrXrXrXrXrXrXrXrXrXrXrXrXrXrXrXrXrXrXrXrXrXrXrXrXrXrXrXrXrXrXrXrXrXrXrXrXrXrXrXrXrXrXrXrXrXrXrXrXrXrXrXrXrXrXrXrXrXrXrXrXrXrXrXrXrXrXrXrXrXrXrXrXrXrXrXrXrXrXrXrXrXrXrXrXrXrX                    v.5X4X8X0X0X0X0X0X0X0X0X0XeXqX0XqX>X*       rXrXrXrXrXrX",
"rXrXrXrXrXrXrXrXrXrXrXrXrXrXrXrXrXrXrXrXrXrXrXrXrXrXrXrXrXrXrXrXrXrXrXrXrXrXrXrXrXrXrXrXrXrXrXrXrXrXrXrXrXrXrXrXrXrXrXrXrXrXrXrXrXrXrXrXrXrXrXrXrXrXrXrXrXrXrXrXrXrXrXrXrXrXrX                        Y 2X4X7X0X0X0X0X0X0X0X0X0X0X0X0X0XeXeXY           rXrXrXrX",
"rXrXrXrXrXrXrXrXrXrXrXrXrXrXrXrXrXrXrXrXrXrXrXrXrXrXrXrXrXrXrXrXrXrX              rXrXrXrXrXrXrXrXrXrXrXrXrXrXrXrXrXrXrXrXrXrXrXrXrXrXrXrXrXrXrXrXrXrXrXrXrXrXrXrXrXrXrXrXrX                      : T <X4X4X8X0X0X0X0X0X0X0X0X0X0X0X0X0X0XqX1Xi           rXrXrX",
"rXrXrXrXrXrXrXrXrXrXrXrXrXrXrXrXrXrXrXrXrXrXrXrXrXrXrXrXrX                                  rXrXrXrXrXrXrXrXrXrXrXrXrXrXrXrXrXrXrXrXrXrXrXrXrXrXrXrXrXrXrXrXrXrXrXrXrXrXrX          + + ; : ; 0 R B.4X4X4X5X8X0X0X0X0X0X0X0X0X0X0X0X0X0X0X0XqX,Xp           rXrX",
"rXrXrXrXrXrXrXrXrXrXrXrXrXrXrXrXrXrXrXrXrXrXrXrXrXrX                                              rXrXrXrXrXrXrXrXrXrXrXrXrXrXrXrXrXrXrXrXrXrXrXrXrXrXrXrXrXrXrXrXrXrXrX        ; T B.B.B.B.>X<X5X7X4X4X4X5X0X0X0X0X0X0X0X0X0X0X0X0X0X0X0X0X0XqX1XY :         rX",
"rXrXrXrXrXrXrXrXrXrXrXrXrXrXrXrXrXrXrXrXrXrXrXrX                    X $ $ $ $ O                       rXrXrXrXrXrXrXrXrXrXrXrXrXrXrXrXrXrXrXrXrXrXrXrXrXrXrXrXrXrXrXrXrX      0 B.4X7X7X7X4X4X4X4X4X4X4X4X9X0X0X0X0X0X0X0X0X0X0XeX0X0X0X0X0X0X0XwX0XB.%       rX",
"rXrXrXrXrXrXrXrXrXrXrXrXrXrXrXrXrXrXrXrXrXrX              X 1 k C o.+.#.*.=.*.*.+.O.H k = +               rXrXrXrXrXrXrXrXrXrXrXrXrXrXrXrXrXrXrXrXrXrXrXrXrXrXrXrXrXrX      + B.7X4X4X4X4X4X4X4X4X4X4X4X4X9X0X0X0X0X0X0X0X0X0X0XqX0X0X0X0X0X0X0X0XqX0Xb.        ",
"rXrXrXrXrXrXrXrXrXrXrXrXrXrXrXrXrXrXrXrX            X 2 B +.=.d.d.h.d.d.d.k.j.!.^.^.^.Q.f.+.n 1               rXrXrXrXrXrXrXrXrXrXrXrXrXrXrXrXrXrXrXrXrXrXrXrXrXrXrXrX      p 2X4X4X4X4X4X4X4X4X4X4X4X4X4X8X0X0X0X0X0X0X0X0X0X0X0X0X0X0X0X0X0X0X0X0XqX1Xq       ",
"rXrXrXrXrXrXrXrXrXrXrXrXrXrXrXrXrXrXrX          X t o.5.d.d.d.d.a.a.a.a.k.Q.!.!.!.!.!.!.^.^.!.8.U 9                   rXrX          rXrXrXrXrXrXrXrXrXrXrXrXrXrXrXrXrX      R 5X4X4X4X4X4X4X4X4X4X4X4X4X4X8X0X0X0X0X0X0X0X0X0X0X0X0X0X0X0X0X0X0X0X0X0X6XZ       ",
"rXrXrXrXrXrXrXrXrXrXrXrXrXrXrXrXrXrX          9 o.s.d.d.a.a.d.d.a.a.h.W.!.!.!.!.!.!.!.!.!.!.!.!.^.E.U 1                                 rXrXrXrXrXrXrXrXrXrXrXrXrXrXrX      R 4X4X4X4X4X4X4X4X4X4X4X4X4X4X8X0X0X0X0X0X0X0X0X0X0X0X0X0X0X0X0X0X0X0X0X0X3Xp       ",
"rXrXrXrXrXrXrXrXrXrXrXrXrXrXrXrXrX        $ V 5.d.d.d.a.a.a.a.a.a.k.W.!.!.!.!.!.!.!.!.!.!.!.!.!.!.!.E.r                                   rXrXrXrXrXrXrXrXrXrXrXrXrXrX      a <X4X4X4X4X4X4X4X4X4X4X4X4X4X8X0X0X0X0X0X0X0X0X0X0X0X0X0X0X0X0X0X0X0X0XqX1X;       ",
"rXrXrXrXrXrXrXrXrXrXrXrXrXrXrX          2 +.a.d.a.a.a.a.a.a.a.a.k.!.!.!.!.!.!.!.!.!.!.!.!.!.!.!.!.^.$.      @ e s , +     O < s 7         rXrXrXrXrXrXrXrXrXrXrXrXrXrX      + v.7X4X4X4X4X4X4X4X4X4X4X4X4X8X0X0X0X0X0X0X0X0X0X0X0X0X0X0X0X0X0X0XqXqXeXT         ",
"rXrXrXrXrXrXrXrXrXrXrXrXrXrXrX        t =.d.a.a.a.a.a.a.a.a.d.h.Q.!.!.!.!.!.!.!.!.!.!.!.!.!.!.!.!.!.H       E y.C.w.( h G ] w.C.w.g       rXrXrXrXrXrXrXrXrXrXrXrXrXrXrX      : c.2X7X7X7X7X7X7X5X5X7X5X7X8XwXwXwXwXwXwXwXwXwXwXwXqXwXwXwXwXwXwXqX3XT +       rX",
"rXrXrXrXrXrXrXrXrXrXrXrXrXrX        k 5.d.a.a.a.a.a.a.a.a.d.k.!.!.!.!.!.^.!.!.!.!.!.!.!.!.!.!.!.!.Q.l     @ ] Z.C.C.C.C.C.C.C.C.A.E       rXrXrXrXrXrXrXrXrXrXrXrXrXrXrX        + A T x.x.x.x.x.x.x.x.x.x.c.b.b.b.b.b.b.b.b.b.b.b.m.b.m.b.m.b.b.T p +         rX",
"rXrXrXrXrXrXrXrXrXrXrXrXrX        k 5.d.d.d.a.a.a.a.a.a.a.k.Q.!.!.!.!.!.!.!.!.!.!.!.!.!.!.!.!.!.!.Q.n     O ] Z.C.C.C.C.C.C.C.C.C.E       rXrXrXrXrXrXrXrXrXrXrXrXrXrXrXrX                                                                                  rXrX",
"rXrXrXrXrXrXrXrXrXrXrXrX        8 6.d.a.a.a.a.a.a.a.a.a.h.Q.!.!.!.!.!.!.!.!.!.!.!.!.!.!.!.!.!.!.!.^.J       E Z.C.C.C.C.C.C.C.C.y.g       rXrXrXrXrXrXrXrXrXrXrXrXrXrXrXrXrX                                                                              rXrXrX",
"rXrXrXrXrXrXrXrXrXrXrX        = #.d.a.a.a.a.a.a.a.a.d.d.W.!.!.!.!.!.!.!.!.!.!.!.!.!.!.!.!.!.!.!.!.^.4.X     e w.C.C.C.C.C.C.C.C.] #       rXrXrXrXrXrXrXrXrXrXrXrXrXrXrXrXrXrXrX                                                                      rXrXrXrXrX",
"rXrXrXrXrXrXrXrXrXrXrX      X o.d.d.a.a.a.a.a.a.a.a.a.k.!.!.!.!.!.!.!.!.!.!.!.!.!.!.!.!.!.!.!.!.!.^.f.1     # | C.C.C.C.C.C.C.C.(         rXrXrXrXrXrXrXrXrXrXrXrXrXrXrXrXrXrXrXrXrXrXrXrXrXrXrXrXrXrXrXrXrXrXrXrXrXrXrXrXrXrXrXrXrXrXrXrXrXrXrXrXrXrXrXrXrXrXrX",
"rXrXrXrXrXrXrXrXrXrX        z s.d.d.a.a.a.a.a.a.a.a.d.Q.!.!.!.!.!.!.!.!.!.!.!.!.!.!.!.!.!.!.!.!.!.^.$.O     s w.C.C.C.C.C.C.C.C.] #       rXrXrXrXrXrXrXrXrXrXrXrXrXrXrXrXrXrXrXrXrXrXrXrXrXrXrXrXrXrXrXrXrXrXrXrXrXrXrXrXrXrXrXrXrXrXrXrXrXrXrXrXrXrXrXrXrXrXrX",
"rXrXrXrXrXrXrXrXrXrX      & #.d.a.a.a.a.a.a.a.a.a.a.j.!.!.!.!.!.!.!.!.!.!.!.!.!.!.!.^.!.!.!.!.!.!.!.J       E Z.C.C.C.C.C.C.C.C.C.g       rXrXrXrXrXrXrXrXrXrXrXrXrXrXrXrXrXrXrXrXrXrXrXrXrXrXrXrXrXrXrXrXrXrXrXrXrXrXrXrXrXrXrXrXrXrXrXrXrXrXrXrXrXrXrXrXrXrXrX",
"rXrXrXrXrXrXrXrXrX        V d.a.a.a.a.a.a.a.a.a.a.h.!.!.!.!.!.!.!.!.!.!.!.!.!.!.!.!.!.!.!.!.!.!.!.Q.n     O ] Z.C.C.C.C.C.C.C.C.C.E       rXrXrXrXrXrXrXrXrXrXrXrXrXrXrXrXrXrXrXrXrXrXrXrXrXrXrXrXrXrXrXrXrXrXrXrXrXrXrXrXrXrXrXrXrXrXrXrXrXrXrXrXrXrXrXrXrXrXrX",
"rXrXrXrXrXrXrXrXrX      = =.d.a.a.a.a.a.a.a.a.a.a.j.!.!.!.!.!.!.!.!.!.!.!.!.!.!.!.!.!.!.!.!.!.!.!.Q.l     . } A.C.C.C.C.C.C.C.C.Z.E       rXrXrXrXrXrXrXrXrXrXrXrXrXrXrXrXrXrXrXrXrXrXrXrXrXrXrXrXrXrXrXrXrXrXrXrXrXrXrXrXrXrXrXrXrXrXrXrXrXrXrXrXrXrXrXrXrXrXrX",
"rXrXrXrXrXrXrXrXrX      n d.a.a.a.a.a.a.a.a.a.a.h.Q.!.!.!.!.!.!.!.!.!.!.!.!.!.!.!.!.!.!.!.!.!.!.!.!.H       G y.C.| / g N ( | C.w.s       rXrXrXrXrXrXrXrXrXrXrXrXrXrXrXrXrXrXrXrXrXrXrXrXrXrXrXrXrXrXrXrXrXrXrXrXrXrXrXrXrXrXrXrXrXrXrXrXrXrXrXrXrXrXrXrXrXrXrX",
"rXrXrXrXrXrXrXrX      o #.d.a.a.a.a.a.a.a.a.a.a.k.^.!.!.!.!.!.!.!.!.!.!.!.!.!.!.!.!.!.!.!.!.!.!.!.^.$.      + 7 e >       O , s ,         rXrXrXrXrXrXrXrXrXrXrXrXrXrXrXrXrXrXrXrXrXrXrXrXrXrXrXrXrXrXrXrXrXrXrXrXrXrXrXrXrXrXrXrXrXrXrXrXrXrXrXrXrXrXrXrXrXrXrX",
"rXrXrXrXrXrXrXrX      9 p.a.a.a.a.a.a.a.a.d.d.d.j.^.!.!.!.!.!.!.!.!.!.!.!.!.!.!.!.!.!.!.!.!.!.!.!.^.E.i                                 rXrXrXrXrXrXrXrXrXrXrXrXrXrXrXrXrXrXrXrXrXrXrXrXrXrXrXrXrXrXrXrXrXrXrXrXrXrXrXrXrXrXrXrXrXrXrXrXrXrXrXrXrXrXrXrXrXrXrXrX",
"rXrXrXrXrXrXrXrX      B d.a.a.a.d.a.d.d.p.p.s.d.^.^.^.W.E.~.!.^.!.!.!.!.!.!.!.!.!.!.!.!.!.!.!.!.!.!.^.7.r                               rXrXrXrXrXrXrXrXrXrXrXrXrXrXrXrXrXrXrXrXrXrXrXrXrXrXrXrXrXrXrXrXrXrXrXrXrXrXrXrXrXrXrXrXrXrXrXrXrXrXrXrXrXrXrXrXrXrXrXrX",
"rXrXrXrXrXrXrX      X +.d.a.a.a.d.s.+.M 9 4 8 B $.4.H k q r n +.~.!.!.!.!.!.!.!.!.!.!.!.!.!.!.!.!.!.!.^.8.J t - - 5 n @.U k 2 %         rXrXrXrXrXrXrXrXrXrXrXrXrXrXrXrXrXrXrXrXrXrXrXrXrXrXrXrXrXrXrXrXrXrXrXrXrXrXrXrXrXrXrXrXrXrXrXrXrXrXrXrXrXrXrXrXrXrXrXrX",
"rXrXrXrXrXrXrX      & =.d.a.a.a.p.n X           X o           X l E.!.!.!.!.!.!.!.!.!.!.!.!.!.!.!.!.!.!.!.!.E.E.f.E.!.^.^.Q.E.3.=       rXrXrXrXrXrXrXrXrXrXrXrXrXrXrXrXrXrXrXrXrXrXrXrXrXrXrXrXrXrXrXrXrXrXrXrXrXrXrXrXrXrXrXrXrXrXrXrXrXrXrXrXrXrXrXrXrXrXrXrX",
"rXrXrXrXrXrXrX      9 p.a.a.a.a.V                                 n Q.!.!.!.!.!.!.!.^.!.!.!.!.!.!.!.!.!.!.!.!.^.!.!.!.!.!.!.^.~.t       rXrXrXrXrXrXrXrXrXrXrXrXrXrXrXrXrXrXrXrXrXrXrXrXrXrXrXrXrXrXrXrXrXrXrXrXrXrXrXrXrXrXrXrXrXrXrXrXrXrXrXrXrXrXrXrXrXrXrXrX",
"rXrXrXrXrXrXrX      z a.a.a.d.=.&     . # , @         # , *       O 3.^.!.!.!.!.!.!.!.!.!.!.!.!.!.!.!.!.!.!.!.!.!.!.!.!.!.!.!.!.n       rXrXrXrXrXrXrXrXrXrXrXrXrXrXrXrXrXrXrXrXrXrXrXrXrXrXrXrXrXrXrXrXrXrXrXrXrXrXrXrXrXrXrXrXrXrXrXrXrXrXrXrXrXrXrXrXrXrXrXrX",
"rXrXrXrXrXrXrX      B d.a.a.d.o.      j { | { W j 7 E ] | | h       J ^.!.!.!.!.!.!.!.!.!.!.!.!.!.!.!.!.!.!.!.!.!.!.!.!.!.!.!.^.@.        rXrXrXrXrXrXrXrXrXrXrXrXrXrXrXrXrXrXrXrXrXrXrXrXrXrXrXrXrXrXrXrXrXrXrXrXrXrXrXrXrXrXrXrXrXrXrXrXrXrXrXrXrXrXrXrXrXrXrX",
"rXrXrXrXrXrXrX      C d.d.d.d.C       W  . . . .X.X.C.C.C.A.( .     H ^.!.!.!.!.!.!.!.!.!.!.!.!.!.!.!.!.!.!.!.!.!.!.!.!.!.!.!.^.8.=       rXrXrXrXrXrXrXrXrXrXrXrXrXrXrXrXrXrXrXrXrXrXrXrXrXrXrXrXrXrXrXrXrXrXrXrXrXrXrXrXrXrXrXrXrXrXrXrXrXrXrXrXrXrXrXrXrXrXrX",
"rXrXrXrXrXrXrX      K d.d.d.d.C       W  . .X. . .y.C.C.C.C.] .     n ^.!.!.!.!.!.!.!.!.!.!.!.!.!.!.!.!.!.!.!.!.!.!.!.!.!.!.!.!.!.n         rXrXrXrXrXrXrXrXrXrXrXrXrXrXrXrXrXrXrXrXrXrXrXrXrXrXrXrXrXrXrXrXrXrXrXrXrXrXrXrXrXrXrXrXrXrXrXrXrXrXrXrXrXrXrXrXrXrX",
"rXrXrXrXrXrXrX      o.d.d.d.d.o.X     h  .X. . . .y.C.C.C.C.E       J ^.!.!.!.!.!.!.!.!.!.!.!.!.!.!.!.!.!.!.!.!.!.!.!.!.!.!.!.!.^.2.:       rXrXrXrXrXrXrXrXrXrXrXrXrXrXrXrXrXrXrXrXrXrXrXrXrXrXrXrXrXrXrXrXrXrXrXrXrXrXrXrXrXrXrXrXrXrXrXrXrXrXrXrXrXrXrXrXrXrX",
"rXrXrXrXrXrX      X +.d.d.d.h.#.%     , X.X. . . .y.C.C.C.y.s     O 2.^.!.!.!.!.!.!.!.!.!.!.!.!.!.!.!.!.!.!.!.!.!.!.!.!.!.!.!.!.!.!.H         rXrXrXrXrXrXrXrXrXrXrXrXrXrXrXrXrXrXrXrXrXrXrXrXrXrXrXrXrXrXrXrXrXrXrXrXrXrXrXrXrXrXrXrXrXrXrXrXrXrXrXrXrXrXrXrXrX",
"rXrXrXrXrXrX      $ =.d.a.a.a.s.8       [  . . . .C.C.C.A.} @     2 E.!.!.!.!.^.!.!.!.!.!.!.!.!.!.!.!.!.!.!.!.!.!.!.!.!.!.!.!.!.^.^.f.r         rXrXrXrXrXrXrXrXrXrXrXrXrXrXrXrXrXrXrXrXrXrXrXrXrXrXrXrXrXrXrXrXrXrXrXrXrXrXrXrXrXrXrXrXrXrXrXrXrXrXrXrXrXrXrXrX",
"rXrXrXrXrXrX      9 p.a.a.a.d.5.1     # {  .X. ...C.C.C.C.| ,     % 7.!.!.!.!.!.!.!.!.!.!.!.!.!.!.!.!.!.!.!.!.!.!.!.!.!.!.!.!.!.!.Q.^.9.1         rXrXrXrXrXrXrXrXrXrXrXrXrXrXrXrXrXrXrXrXrXrXrXrXrXrXrXrXrXrXrXrXrXrXrXrXrXrXrXrXrXrXrXrXrXrXrXrXrXrXrXrXrXrXrX",
"rXrXrXrXrX        C d.a.a.a.d.+..     s X. . . .y.C.C.C.C.C.N       @.^.!.!.!.!.!.!.!.!.!.!.!.!.!.!.!.!.!.!.!.^.!.!.!.!.!.!.!.!.!.!.!.^.2.1         rXrXrXrXrXrXrXrXrXrXrXrXrXrXrXrXrXrXrXrXrXrXrXrXrXrXrXrXrXrXrXrXrXrXrXrXrXrXrXrXrXrXrXrXrXrXrXrXrXrXrXrXrXrX",
"rXrXrXrXrX      & #.d.a.a.d.d.C       W  . . . .y.C.C.C.C.C.( .     H ^.!.!.!.!.!.!.!.!.!.!.!.!.!.!.!.!.!.!.!.!.!.!.!.!.!.!.^.!.!.!.^.^.^.2.=         rXrXrXrXrXrXrXrXrXrXrXrXrXrXrXrXrXrXrXrXrXrXrXrXrXrXrXrXrXrXrXrXrXrXrXrXrXrXrXrXrXrXrXrXrXrXrXrXrXrXrXrXrX",
"rXrXrXrX        M d.d.a.a.a.h.C     . W  . . .y.Z.Z.C.C.C.C.] .     n ^.^.!.!.!.!.!.!.!.!.!.!.!.!.!.!.!.!.!.!.!.!.!.!.!.!.!.!.!.!.!.!.!.!.^.+.+       rXrXrXrXrXrXrXrXrXrXrXrXrXrXrXrXrXrXrXrXrXrXrXrXrXrXrXrXrXrXrXrXrXrXrXrXrXrXrXrXrXrXrXrXrXrXrXrXrXrXrXrXrX",
"rXrXrX        1 *.a.d.a.a.a.d.C       h  . ...| E E } C.C.C.E       H ^.!.!.!.!.!.!.!.!.!.!.!.!.!.!.!.!.!.!.!.!.!.!.!.!.!.!.!.!.!.!.!.!.!.!.Q.H         rXrXrXrXrXrXrXrXrXrXrXrXrXrXrXrXrXrXrXrXrXrXrXrXrXrXrXrXrXrXrXrXrXrXrXrXrXrXrXrXrXrXrXrXrXrXrXrXrXrXrXrX",
"rXrXrX      X o.d.a.a.a.a.a.d.#.$     . s h s >     # s h h O     + +.^.!.!.!.!.!.!.!.!.^.!.!.!.!.!.!.!.!.!.!.!.!.!.!.!.!.!.!.!.!.!.!.!.!.!.^.f.4       rXrXrXrXrXrXrXrXrXrXrXrXrXrXrXrXrXrXrXrXrXrXrXrXrXrXrXrXrXrXrXrXrXrXrXrXrXrXrXrXrXrXrXrXrXrXrXrXrXrXrXrX",
"rXrX        z a.a.a.a.a.a.a.a.s.k                                 r E.!.!.!.!.!.!.!.!.!.!.!.!.!.!.!.!.!.!.!.!.!.!.!.!.!.!.!.!.!.!.!.!.!.!.!.!.^.O.        rXrXrXrXrXrXrXrXrXrXrXrXrXrXrXrXrXrXrXrXrXrXrXrXrXrXrXrXrXrXrXrXrXrXrXrXrXrXrXrXrXrXrXrXrXrXrXrXrXrXrX",
"rXrX      & *.d.a.a.a.a.a.a.a.d.*.4                             - 2.^.!.!.!.!.!.!.!.!.!.!.!.!.!.!.!.!.!.!.!.^.^.^.^.!.!.!.!.!.!.!.!.!.!.!.!.!.^.f.4       rXrXrXrXrXrXrXrXrXrXrXrXrXrXrXrXrXrXrXrXrXrXrXrXrXrXrXrXrXrXrXrXrXrXrXrXrXrXrXrXrXrXrXrXrXrXrXrXrXrXrX",
"rX        V d.d.a.a.a.a.a.a.a.a.h.6.n 1 O . $ 5 n B 4 $ + o = v 7.^.!.!.!.!.!.!.!.!.!.!.!.!.!.!.!.!.!.!.!.f.$.O.@.9.~.^.!.!.!.!.!.!.!.!.!.!.!.!.^.H       rXrXrXrXrXrXrXrXrXrXrXrXrXrXrXrXrXrXrXrXrXrXrXrXrXrXrXrXrXrXrXrXrXrXrXrXrXrXrXrXrXrXrXrXrXrXrXrXrXrXrX",
"rX      $ *.d.a.a.a.a.a.a.a.a.a.g.j.!.8.3.4.3.l.!.!.E.7.2.2.8.Q.^.^.!.!.!.!.!.!.!.!.!.!.!.!.!.!.!.!.^.E.J 1 +     O k 3.^.!.!.!.!.!.!.!.!.!.!.!.^.4.+       rXrXrXrXrXrXrXrXrXrXrXrXrXrXrXrXrXrXrXrXrXrXrXrXrXrXrXrXrXrXrXrXrXrXrXrXrXrXrXrXrXrXrXrXrXrXrXrXrXrX",
"rX      k s.a.a.a.a.a.a.a.a.a.a.d.W.!.!.^.^.^.^.!.!.!.^.^.^.^.!.!.!.!.!.!.!.!.!.!.!.!.!.!.!.!.!.!.!.f.k               = $.^.!.!.!.!.!.!.!.!.!.!.^.f.2       rXrXrXrXrXrXrXrXrXrXrXrXrXrXrXrXrXrXrXrXrXrXrXrXrXrXrXrXrXrXrXrXrXrXrXrXrXrXrXrXrXrXrXrXrXrXrXrXrXrX",
"        C d.d.d.a.a.a.a.a.a.a.a.h.Q.!.!.!.!.!.!.!.!.!.!.!.!.!.!.!.!.!.!.!.!.!.!.!.!.!.!.!.!.!.!.!.~.n                   1 8.^.!.!.!.!.!.!.!.!.!.^.Q.k       rXrXrXrXrXrXrXrXrXrXrXrXrXrXrXrXrXrXrXrXrXrXrXrXrXrXrXrXrXrXrXrXrXrXrXrXrXrXrXrXrXrXrXrXrXrXrXrXrXrX",
"      o #.d.d.d.a.a.a.a.a.a.a.a.k.!.!.!.!.!.!.!.!.!.!.!.!.!.!.!.!.!.!.!.!.!.!.!.!.!.!.!.!.!.!.!.^.@.+     + f Q F ;       J !.!.!.!.!.!.!.!.!.!.!.^.n       rXrXrXrXrXrXrXrXrXrXrXrXrXrXrXrXrXrXrXrXrXrXrXrXrXrXrXrXrXrXrXrXrXrXrXrXrXrXrXrXrXrXrXrXrXrXrXrXrXrX",
"      = =.d.a.a.a.a.a.a.a.a.a.a.j.!.!.!.!.!.!.!.!.^.^.!.^.^.^.!.!.!.!.!.!.!.!.!.!.!.!.!.!.!.!.^.7.1       D K.I.I._ O     r E.!.!.!.!.!.!.!.!.!.!.^.J       rXrXrXrXrXrXrXrXrXrXrXrXrXrXrXrXrXrXrXrXrXrXrXrXrXrXrXrXrXrXrXrXrXrXrXrXrXrXrXrXrXrXrXrXrXrXrXrXrXrX",
"      4 p.a.a.a.a.a.a.a.a.a.a.a.j.!.!.!.!.!.!.^.E.@.H n H +.E.^.!.!.!.!.!.!.!.!.!.!.!.!.!.!.!.E.l       w L.I.P.I.J.w     = E.!.!.!.!.!.!.!.!.!.!.^.J       rXrXrXrXrXrXrXrXrXrXrXrXrXrXrXrXrXrXrXrXrXrXrXrXrXrXrXrXrXrXrXrXrXrXrXrXrXrXrXrXrXrXrXrXrXrXrXrXrXrX",
"      8 a.a.a.a.a.a.a.a.a.a.a.a.W.!.!.!.!.!.!.$.q         . r $.!.!.!.!.!.!.!.!.!.!.!.!.!.!.!.O.      : 1.P.P.P.I.F.3     1 E.!.!.!.!.!.!.!.!.!.!.^.J       rXrXrXrXrXrXrXrXrXrXrXrXrXrXrXrXrXrXrXrXrXrXrXrXrXrXrXrXrXrXrXrXrXrXrXrXrXrXrXrXrXrXrXrXrXrXrXrXrXrX",
"      8 s.a.a.a.a.a.a.a.a.a.a.a.j.!.!.!.!.^.$.%               % $.^.!.!.!.!.!.!.!.!.!.!.!.^.3.;       P P.P.P.P.I.Q +     i ~.!.!.!.!.!.!.!.!.!.!.!.B       rXrXrXrXrXrXrXrXrXrXrXrXrXrXrXrXrXrXrXrXrXrXrXrXrXrXrXrXrXrXrXrXrXrXrXrXrXrXrXrXrXrXrXrXrXrXrXrXrXrX",
"      9 s.a.a.a.a.a.a.a.a.a.a.a.j.!.!.!.^.f.4         o         - 8.!.^.!.!.!.!.!.!.!.!.^.E.i       d F.I.P.P.P.M.>       O.!.!.!.!.!.!.!.!.!.!.!.!.l       rXrXrXrXrXrXrXrXrXrXrXrXrXrXrXrXrXrXrXrXrXrXrXrXrXrXrXrXrXrXrXrXrXrXrXrXrXrXrXrXrXrXrXrXrXrXrXrXrXrX",
"      2 p.a.a.a.a.a.a.a.a.a.a.a.j.^.!.!.^.O.      > Q >.Q >       n E.^.!.!.!.!.!.!.!.^.!.J       * <.I.P.P.I.J.v       t E.!.!.!.!.!.!.!.!.!.!.!.E.4       rXrXrXrXrXrXrXrXrXrXrXrXrXrXrXrXrXrXrXrXrXrXrXrXrXrXrXrXrXrXrXrXrXrXrXrXrXrXrXrXrXrXrXrXrXrXrXrXrXrX",
"      & #.d.a.a.a.a.a.a.a.a.a.a.h.!.!.!.!.v     . ~ D.S.D.^ @       H ~.^.^.^.^.^.^.^.W.O.O     + Q I.I.P.P.I.P +     % 2.^.!.!.!.!.!.!.!.!.!.!.^.9.$       rXrXrXrXrXrXrXrXrXrXrXrXrXrXrXrXrXrXrXrXrXrXrXrXrXrXrXrXrXrXrXrXrXrXrXrXrXrXrXrXrXrXrXrXrXrXrXrXrXrX",
"        o.d.a.a.a.a.a.a.a.a.a.a.h.!.!.!.Q.t     # <.S.S.D.D.N         i @.7.8.8.8.7.$.l X       v J.K.I.P.P.<.*       J ^.!.!.!.!.!.!.!.!.!.!.!.^.J       rXrXrXrXrXrXrXrXrXrXrXrXrXrXrXrXrXrXrXrXrXrXrXrXrXrXrXrXrXrXrXrXrXrXrXrXrXrXrXrXrXrXrXrXrXrXrXrXrXrXrX",
"rX      B d.a.a.a.a.a.a.a.a.a.a.h.!.!.!.Q.k     o _ D.S.S.S.e.d         + $ % ; = % +         w V.I.I.K.P.F.u       k E.^.Q.!.!.!.!.!.!.!.!.^.^.~.r       rXrXrXrXrXrXrXrXrXrXrXrXrXrXrXrXrXrXrXrXrXrXrXrXrXrXrXrXrXrXrXrXrXrXrXrXrXrXrXrXrXrXrXrXrXrXrXrXrXrXrX",
"rX      1 5.d.a.a.a.a.a.a.a.a.a.a.W.!.!.^.J     . d u.S.S.S.D.<.f                           y M.I.P.I.I.K.F       = 9.^.!.!.!.!.!.!.!.!.!.!.!.^.$.+       rXrXrXrXrXrXrXrXrXrXrXrXrXrXrXrXrXrXrXrXrXrXrXrXrXrXrXrXrXrXrXrXrXrXrXrXrXrXrXrXrXrXrXrXrXrXrXrXrXrXrX",
"rX      X o.d.a.a.a.a.a.a.a.a.a.a.h.!.!.^.7.=     . Q u.S.S.S.S.e.P , .                 - F L.I.I.P.P.I.1.O     + O.!.Q.!.!.!.!.!.!.!.!.!.!.!.E.i       rXrXrXrXrXrXrXrXrXrXrXrXrXrXrXrXrXrXrXrXrXrXrXrXrXrXrXrXrXrXrXrXrXrXrXrXrXrXrXrXrXrXrXrXrXrXrXrXrXrXrXrX",
"rXrX      8 p.d.a.a.a.a.a.a.a.a.a.a.~.!.^.Q.J       * ,.S.S.S.S.D.D.r.~ D b f d d f D ` V.P.I.I.P.P.I.F.e       l ~.^.!.!.!.!.!.!.!.!.!.!.!.!.O.        rXrXrXrXrXrXrXrXrXrXrXrXrXrXrXrXrXrXrXrXrXrXrXrXrXrXrXrXrXrXrXrXrXrXrXrXrXrXrXrXrXrXrXrXrXrXrXrXrXrXrXrX",
"rXrX        K d.a.a.a.a.a.a.a.a.a.a.h.!.!.^.E.t       f t.S.S.S.S.S.S.D.P.K.P.K.K.P.P.P.I.P.P.P.P.P.I.Q       1 8.^.!.!.!.!.!.!.!.!.!.!.!.^.3.=       rXrXrXrXrXrXrXrXrXrXrXrXrXrXrXrXrXrXrXrXrXrXrXrXrXrXrXrXrXrXrXrXrXrXrXrXrXrXrXrXrXrXrXrXrXrXrXrXrXrXrXrXrX",
"rXrXrX      = #.d.a.a.a.a.a.a.a.a.a.h.~.!.^.^.3.%     . ^ S.S.S.S.S.S.D.P.P.P.P.P.P.P.P.P.P.I.P.P.P.J.a     + O.^.!.!.!.!.!.!.!.!.!.!.!.^.8.q         rXrXrXrXrXrXrXrXrXrXrXrXrXrXrXrXrXrXrXrXrXrXrXrXrXrXrXrXrXrXrXrXrXrXrXrXrXrXrXrXrXrXrXrXrXrXrXrXrXrXrXrXrX",
"rXrXrX        t p.a.a.a.a.a.a.a.a.a.a.h.Q.!.!.!.H       d u.S.S.S.S.S.D.K.I.I.K.P.P.P.P.P.P.P.P.P.I.>.      r E.^.Q.^.!.!.!.Q.^.!.!.!.!.8.t         rXrXrXrXrXrXrXrXrXrXrXrXrXrXrXrXrXrXrXrXrXrXrXrXrXrXrXrXrXrXrXrXrXrXrXrXrXrXrXrXrXrXrXrXrXrXrXrXrXrXrXrXrXrX",
"rXrXrXrX        z p.a.a.a.a.a.a.a.a.a.a.h.!.!.^.f.2     @ >.D.S.S.S.S.G.I.K.I.I.P.P.I.P.P.P.P.P.P.P.D       O.^.^.Q.!.!.!.!.^.^.!.!.!.3.r         rXrXrXrXrXrXrXrXrXrXrXrXrX          rXrXrXrXrXrXrXrXrXrX          rXrXrXrXrXrXrXrXrXrXrXrXrXrXrXrXrXrXrXrXrXrX",
"rXrXrXrXrX        z p.d.a.a.a.a.a.a.a.a.a.j.!.!.!.H       F S.S.S.S.S.G.K.I.K.I.P.P.I.P.P.P.I.P.I.J.e     : 8.!.Q.^.^.Q.!.Q.^.^.^.~.U =         rXrXrXrXrXrXrXrXrXrXrXrX                  rXrXrXrXrXrX                  rXrXrXrXrXrXrXrXrXrXrXrXrXrXrXrXrXrXrXrX",
"rXrXrXrXrX          8 #.d.a.a.a.a.a.a.a.a.g.j.!.^.3.O     s u.S.S.S.S.G.I.I.K.I.P.P.P.P.P.P.P.P.I.V.*     t ~.!.^.^.Q.^.^.^.^.E.$.k +         rXrXrXrXrXrXrXrXrXrXrXrX                      rXrXrXrX                      rXrXrXrXrXrXrXrXrXrXrXrXrXrXrXrXrXrXrX",
"rXrXrXrXrXrX          = C p.d.a.a.d.a.a.a.a.a.h.!.l.9     , r.D.S.S.C.K.I.I.K.).P.P.P.P.P.P.P.P.I.1.O     n ^.^.^.^.^.Q.E.7.U t             rXrXrXrXrXrXrXrXrXrXrX          O e b e .                     + i D d +           rXrXrXrXrXrXrXrXrXrXrXrXrXrXrXrXrX",
"rXrXrXrXrXrXrX            4 o.p.a.d.d.d.a.a.g.h.k.W.l     O ,.D.S.S.F.K.K.I.I.I.P.P.P.P.P.P.P.P.I._ X     2 H J J J H n r $               rXrXrXrXrXrXrXrXrXrXrX          , ~ t.S.t./ >                 , ` K.K.J._ 3           rXrXrXrXrXrXrXrXrXrXrXrXrXrXrXrX",
"rXrXrXrXrXrXrXrXrX          X 1 z o.#.p.s.s.s.p.6.#.t     . _ D.S.S.S.K.P.P.P.P.P.I.P.P.P.P.P.P.I._                                   rXrXrXrXrXrXrXrXrXrXrXrXrX        d ,.S.S.S.S.S.,.s             d <.I.I.I.U.I.e.f         rXrXrXrXrXrXrXrXrXrXrXrXrXrXrXrX",
"rXrXrXrXrXrXrXrXrXrX                $ 1 4 r 9 2 = o         ^ D.S.S.S.K.P.P.P.P.P.P.P.P.P.P.P.P.I.)                               rXrXrXrXrXrXrXrXrXrXrXrXrXrX        b e.D.S.S.S.S.S.D.e.f         f F.I.I.K.I.I.P.K.J.b         rXrXrXrXrXrXrXrXrXrXrXrXrXrXrX",
"rXrXrXrXrXrXrXrXrXrXrXrX                                    ^ D.S.S.S.K.P.P.P.P.P.P.P.P.P.P.P.P.I._                         rXrXrXrXrXrXrXrXrXrXrXrXrXrXrXrXrX      & ,.D.S.S.S.S.S.S.S.D.>.@     @ <.I.P.U.P.P.P.I.P.I.<.*       rXrXrXrXrXrXrXrXrXrXrXrXrXrXrX",
"rXrXrXrXrXrXrXrXrXrXrXrXrXrX                              . ^ D.S.S.S.K.P.P.P.P.P.U.P.P.P.U.P.P.I.)         rXrXrXrXrXrXrXrXrXrXrXrXrXrXrXrXrXrXrXrXrXrXrXrXrX      7 e.D.S.S.S.S.S.S.S.S.e.,     3 F.I.P.P.P.P.P.P.P.U.K.w       rXrXrXrXrXrXrXrXrXrXrXrXrXrXrX",
"rXrXrXrXrXrXrXrXrXrXrXrXrXrXrXrXrX                          ^ D.S.S.D.P.P.P.P.P.P.P.P.P.P.P.P.P.I.)       rXrXrXrXrXrXrXrXrXrXrXrXrXrXrXrXrXrXrXrXrXrXrXrXrXrX      7 e.S.S.S.S.S.S.S.S.S.e.,     3 F.U.P.P.I.I.P.P.I.I.J.w       rXrXrXrXrXrXrXrXrXrXrXrXrXrXrX",
"rXrXrXrXrXrXrXrXrXrXrXrXrXrXrXrXrXrXrXrXrXrXrXrXrXrXrX      ^ D.S.S.S.K.P.P.P.P.P.P.P.U.P.P.P.U.I.) .     rXrXrXrXrXrXrXrXrXrXrXrXrXrXrXrXrXrXrXrXrXrXrXrXrXrX      w u.D.D.D.D.D.D.D.D.D.t.7     3 J.I.I.I.I.I.I.I.I.I.K.y       rXrXrXrXrXrXrXrXrXrXrXrXrXrXrX",
"rXrXrXrXrXrXrXrXrXrXrXrXrXrXrXrXrXrXrXrXrXrXrXrXrXrXrX      ^ D.S.S.S.P.P.P.P.P.P.P.P.P.P.P.P.P.I._       rXrXrXrXrXrXrXrXrXrXrXrXrXrXrXrXrXrXrXrXrXrXrXrXrXrX      , / ~ ~ ~ ~ ^ ~ ~ ^ ~ / >     > ` _ _ _ _ _ _ _ _ _ ) ,       rXrXrXrXrXrXrXrXrXrXrXrXrXrXrX",
"rXrXrXrXrXrXrXrXrXrXrXrXrXrXrXrXrXrXrXrXrXrXrXrXrXrXrX    X ^ D.S.S.S.P.P.P.P.P.P.P.P.P.P.I.P.P.I.)       rXrXrXrXrXrXrXrXrXrXrXrXrXrXrXrXrXrXrXrXrXrXrXrXrXrX              X                       +   X       X   X             rXrXrXrXrXrXrXrXrXrXrXrXrXrXrX",
"rXrXrXrXrXrXrXrXrXrXrXrXrXrXrXrXrXrXrXrXrXrXrXrXrXrXrX    X ^ D.S.S.S.K.P.P.P.P.P.P.I.P.P.P.P.P.I._       rXrXrXrXrXrXrXrXrXrXrXrXrXrXrXrXrXrXrXrXrXrXrXrXrXrX                                                                    rXrXrXrXrXrXrXrXrXrXrXrXrXrXrX",
"rXrXrXrXrXrXrXrXrXrXrXrXrXrXrXrXrXrXrXrXrXrXrXrXrXrXrX      ^ D.S.S.S.K.P.P.P.P.P.P.P.P.P.P.P.P.I._       rXrXrXrXrXrXrXrXrXrXrXrXrXrXrXrXrXrXrXrXrXrXrXrXrXrX                                                                    rXrXrXrXrXrXrXrXrXrXrXrXrXrXrX",
"rXrXrXrXrXrXrXrXrXrXrXrXrXrXrXrXrXrXrXrXrXrXrXrXrXrXrX      ^ D.S.S.S.K.I.K.P.P.P.I.K.I.I.I.K.I.I.)       rXrXrXrXrXrXrXrXrXrXrXrXrXrXrXrXrXrXrXrXrXrXrXrXrXrX      - F P P P P P P P P P F *     % D F F F F N F F F F D *       rXrXrXrXrXrXrXrXrXrXrXrXrXrXrX",
"rXrXrXrXrXrXrXrXrXrXrXrXrXrXrXrXrXrXrXrXrXrXrXrXrXrXrX      ^ D.S.S.S.P.I.I.P.P.I.K.I.I.K.I.K.I.I.) .     rXrXrXrXrXrXrXrXrXrXrXrXrXrXrXrXrXrXrXrXrXrXrXrXrXrX      w K.I.I.I.I.I.I.I.I.I.F.q     3 e.S.D.D.D.D.D.S.S.D.u.7       rXrXrXrXrXrXrXrXrXrXrXrXrXrXrX",
"rXrXrXrXrXrXrXrXrXrXrXrXrXrXrXrXrXrXrXrXrXrXrXrXrXrXrX    . ^ D.S.S.S.K.K.I.P.P.I.I.K.K.I.K.I.I.I._       rXrXrXrXrXrXrXrXrXrXrXrXrXrXrXrXrXrXrXrXrXrXrXrXrXrX      w K.P.P.P.P.P.P.I.I.P.J.w     < e.S.u.S.D.D.S.S.S.S.t.7       rXrXrXrXrXrXrXrXrXrXrXrXrXrXrX",
"rXrXrXrXrXrXrXrXrXrXrXrXrXrXrXrXrXrXrXrXrXrXrXrXrXrXrX      ^ D.S.S.S.K.K.I.P.P.K.I.I.I.I.I.I.K.I._       rXrXrXrXrXrXrXrXrXrXrXrXrXrXrXrXrXrXrXrXrXrXrXrXrXrX      w J.I.P.P.P.P.P.P.I.P.F.3     3 e.S.D.S.S.S.S.S.S.S.t.6       rXrXrXrXrXrXrXrXrXrXrXrXrXrXrX",
"rXrXrXrXrXrXrXrXrXrXrXrXrXrXrXrXrXrXrXrXrXrXrXrXrXrXrX    X ^ D.S.S.S.G.I.I.I.P.I.I.I.I.I.K.I.K.I.)       rXrXrXrXrXrXrXrXrXrXrXrXrXrXrXrXrXrXrXrXrXrXrXrXrXrX      w J.I.I.I.I.I.P.I.P.I.F.3     3 e.D.S.S.S.S.S.D.S.S.e.w       rXrXrXrXrXrXrXrXrXrXrXrXrXrXrX",
"rXrXrXrXrXrXrXrXrXrXrXrXrXrXrXrXrXrXrXrXrXrXrXrXrXrX        / t.r.e.e.L.F.F.F.F.F.F.F.F.J.F.J.J.J.~ .     rXrXrXrXrXrXrXrXrXrXrXrXrXrXrXrXrXrXrXrXrXrXrXrXrXrX      w L.F.F.F.F.F.F.F.F.F.V.3     3 ,.e.e.e.e.e.e.e.e.e.r.w       rXrXrXrXrXrXrXrXrXrXrXrXrXrXrX",
"rXrXrXrXrXrXrXrXrXrXrXrXrX                                  > 3 3 3 , 3 3 3 3 3 3 3 3 3 3 3 q 3 3 -                                                                 + 3 3 3 3 3 3 3 3 3 q 3 .     . 3 , , 3 3 , 3 , , 3 , o           rXrXrXrXrXrXrXrXrXrXrXrXrX",
"rXrXrXrXrXrXrXrXrXrX                                                                                                                                                                                                                        rXrXrXrXrXrXrXrXrXrX",
"rXrXrXrXrXrXrXrX                                                                                                                                                                                                                                rXrXrXrXrXrXrXrX",
"rXrXrXrXrXrXrX              @ > 6 6 6 6 6 6 6 6 6 y y y y y y y y y y y y y y y y y y y y w y y y y y y y y y y y y y y y y y y y y y y y y y w y y y y y y y y y y y y y y y w y y y y y y y y y y y y y y y y y w y y y y w r 5 % +             rXrXrXrXrXrXrX",
"rXrXrXrXrXrX          @ m &.i.`.`.{.{.{.{.{.`.`.].+X+X+X+X+X+X+X#X+X+X+X+X+X+X+X+X+X+X+X X+X+X+X+X+X+X+X+X+X+X+X+X+X+X+X+X+X+X+X+X+X+X+X+X+X+X+X+X+X+X+X+X+X+X+X+X+X+X+X+X+X+X+X+X+X+X+X+X+X+X+X+X+X+X+X+X+X+X+X+X+X+X+X+X+X+X+X'.(.0.D -           rXrXrXrXrXrX",
"rXrXrXrXrX        o m i.[.}.}.}.}.}.}.}.}.}.}.=X=X:X=X=X:X=X:X:X=X:X=X=X:X:X:X:X:X:X:X:X:X:X:X:X:X:X:X:X:X:X:X:X=X:X:X:X:X:X=X:X:X:X:X:X:X:X:X:X:X:X:X:X:X:X:X:X:X:X:X:X:X:X:X:X:X:X:X:X:X:X=X:X:X:X=X:X:X=X:X:X:X=X:X:X:X:X:X:X:X:X=X*X_.L %         rXrXrXrXrX",
"rXrXrXrX        > &.[.}.}.}.}.}.}.}.}.}.}.}.$X:X=X=X=X=X=X=X=X=X=X=X=X=X=X=X=X=X=X=X=X=X=X=X:X:X:X:X=X=X*X:X*X:X=X=X=X=X=X:X=X=X=X=X=X=X=X=X=X=X:X=X=X=X=X=X:X:X:X=X=X=X=X=X=X=X:X*X:X*X=X=X=X=X=X=X=X=X=X=X=X=X=X=X=X=X=X=X=X=X:X=X=X=X:X*X0.4         rXrXrXrX",
"rXrXrX        5 i.}.}.}.}.}.}.}.}.}.}.}.}.%X=X=X=X=X=X=X=X=X=X=X=X=X=X=X=X=X=X=X=X=X=X=X=X=X:XH.0.).:X*X:X*X=X=X=X=X=X=X=X=X=X=X=X=X=X=X=X=X=X=X=X=X=X=X:X:X).0./.*X=X=X=X=X=X=X*X:X=X:X=X=X=X=X=X=X=X=X=X=X=X=X=X=X=X=X:X=X=X=X=X=X=X=X=X=X:X(.y         rXrXrX",
"rXrXrX      > q.}.}.[.}.}.}.}.}.}.}.}.}.$X=X=X=X=X=X=X=X=X=X=X=X=X=X=X=X=X=X=X=X=X=X=X=X=X:XN.-   v +X:X=X=X=X=X=X=X=X:X=X=X=X=X=X=X=X=X=X=X=X=X=X=X=X=X:X Xv   * N.:X:X=X=X=X=X=X=X=X=X=X=X=X=X=X=X=X=X=X=X=X=X=X=X*X:X*X:X=X=X=X=X=X=X=X=X=X:XH.3         rXrX",
"rXrX      o &.}.}.}.}.}.}.}.}.}.}.}.}.|.=X=X=X=X=X=X=X=X=X=X=X=X=X=X=X=X=X=X=X=X=X=X=X=X=X:XU     O N.:X=X=X=X=X=X=X:X:X:X=X=X=X=X=X=X:X:X:X=X=X=X=X=X=X:XH.+     U :X=X=X=X=X=X=X=X=X=X=X=X=X=X:X*X=X=X=X=X=X=X=X=X:X*X:X*X=X=X=X=X=X=X=X=X=X=X=X0.O       rXrX",
"rX        m [.}.}.}.}.}.}.}.}.[.}.}.}.&X=X=X=X=X=X=X=X=X=X=X=X=X=X=X=X=X=X=X=X=X=X=X=X:X:X:XI     o N.:X=X=X=X=X=X:X X;.0.%X:X=X=X:X%X0.0.].=X=X=X=X=X=X:XN.O     I :X:X=X=X=X=X=X=X=X=X=X=X=X=X=X=X=X=X=X=X=X=X=X=X=X=X=X=X=X=X=X=X=X=X=X=X=X=X=X%XL         rX",
"rX      @ i.}.}.}.}.}.}.}.}.}.}.}.}.|.*X=X=X=X=X=X=X=X=X=X=X=X=X=X=X=X=X=X=X=X=X=X=X=X:X:X:XU     + N.:X=X=X=X=X:X@XS   . U '.:X:X'.L o   S %X=X=X=X=X=X:XN.O     U :X:X=X=X=X=X=X=X=X=X=X=X=X=X=X=X=X=X=X=X=X=X=X=X*X:X=X=X=X=X=X=X=X=X=X=X=X=X=X:X/.=       rX",
"rX      c }.}.}.}.}.}.}.}.}.}.}.}.}.$X:X=X=X=X=X=X=X=X=X=X=X=X=X=X=X=X=X=X=X=X=X;XoXXXXX.XOXP     o H.:X=X=X=X=X:X).5       w L L y       5 '.=X=X=X=X=X:XN.+     P OXXXXXOXoX;X=X=X=X&X=X=X=X=X=X=X=X=X=X=X=X=X:X*X:X*X=X=X=X=X=X=X=X=X=X=X=X=X=X=X*Xm       rX",
"        &.}.}.}.}.}.}.}.}.}.}.}.}.}.&X=X=X=X:X=X=X=X=X=X=X=X=X=X=X=X=X=X=X=X;XOXY.T.T.T.T.T.z.@   u '.=X=X=X=X=X=X%XL                     L %X=X=X=X=X=X:X'.u   # z.T.T.T.T.T.Y.OX;X=X:X=X=X=X=X=X=X=X=X=X=X=X=X=X:X*X:X=X=X=X=X=X=X=X=X=X=X=X=X=X=X:X;.        ",
"      % i.|.}.}.}.}.}.}.}.}.}.}.}.|.=X=X=X=X=X=X=X=X=X=X=X=X=X=X=X=X=X=X=X=XXXT.T.T.T.T.T.T.R.M.' J.;X:X:X:X=X=X=X:X+XL X               D '.:X:X=X=X=X=X:X;XJ.' M.R.T.T.T.T.T.T.T.XX;X:X=X=X=X=X=X=X=X=X=X=X:X=X=X=X=X=X=X=X*X:X=X=X=X=X=X=X=X=X=X=X:X_.&       ",
"      9 {.}.}.}.}.}.}.}.}.}.}.[.}.|.=X=X=X=X=X=X=X=X=X=X=X=X=X=X=X=X=X=X=XOXT.T.T.T.T.T.T.T.R.T.T.T.OX:X:X;X=X=X=X=X=X%X0.v - o O - n 0.%X:X=X=X=X=X=X=X:XXXT.T.T.T.T.T.T.T.T.T.T.T.OX:X=X=X=X=X=X=X=X=X=X=X*X=X=X=X=X=X=X=X=X=X=X=X=X=X=X=X=X=X=X=X:X Xw       ",
"      d [.}.}.}.}.}.[.}.}.}.}.}.}.$X=X=X=X=X=X=X=X=X=X=X=X=X=X=X=X=X=X=X-XY.T.T.T.T.T.T.T.T.T.T.T.T.Y.-X:X=X=X=X=X=X=X:X=X%X).H.H.).@X:X:X=X=X=X=X=X=X:X-XT.T.T.T.T.T.T.T.T.T.T.T.T.Y.%X=X=X=X=X=X=X=X=X=X=X=X=X=X=X=X=X=X=X=X=X=X=X=X=X=X=X=X=X=X=X=X%Xu       ",
"      d [.}.}.}.}.}.}.}.}.}.}.}.}.$X=X=X=X=X=X=X=X=X=X=X=X=X=X=X=X=X=X=X-XR.T.T.T.T.T.T.T.T.T.T.T.T.T.oX=X=X=X=X=X=X=X=X=X=X=X=X=X=X=X=X=X=X=X=X=X=X=X:XoXT.T.T.T.T.T.T.T.T.T.T.T.T.T.-X=X=X=X=X=X=X=X=X=X=X=X=X=X=X=X=X=X=X=X=X=X=X=X=X=X=X=X=X=X=X:X%Xv       ",
"      i [.}.}.}.}.}.}.}.}.}.}.}.}.|.=X=X=X=X=X=X=X=X=X=X=X=X=X=X=X=X=X=X-XT.T.T.T.T.T.T.T.T.T.T.T.T.T.oX=X=X=X=X=X=X=X=X=X=X=X=X=X=X=X=X=X=X=X=X=X=X=X=XoXT.T.T.T.T.T.T.T.T.T.T.T.T.T.oX=X=X=X=X=X=X=X=X=X=X=X=X=X=X=X=X=X=X=X=X=X=X=X=X=X=X=X=X=X=X:X@Xu       ",
"      5 `.}.}.}.}.}.}.}.}.}.}.}.}.|.=X=X=X=X=X=X=X=X=X=X=X=X*X:X=X=X=X=X-XT.T.T.T.T.T.T.T.T.T.T.T.T.T.-X=X=X=X=X=X=X=X=X=X=X=X=X=X=X=X=X=X=X=X=X=X=X=X=X-XT.T.T.T.T.T.T.T.T.T.T.T.T.R.-X=X=X=X=X=X=X=X=X=X=X=X=X=X=X=X=X=X=X=X=X=X=X=X=X=X=X=X=X=X=X:X'.5       ",
"      % i.}.}.}.}.}.}.}.}.}.}.}.}.|.*X=X=X=X=X=X=X=X=X=X=X=X:X*X=X=X=X=X=XXXT.T.T.T.T.T.T.T.T.T.T.T..X=X=X=X=X=X=X=X=X=X=X=X=X=X=X=X=X=X=X=X=X=X=X=X=X=X;X.XT.T.T.T.T.T.T.T.T.T.T.T.XX=X=X=X=X=X=X=X=X=X=X=X=X=X=X=X=X=X=X=X=X=X=X=X=X=X=X=X=X=X=X=X:XH.O       ",
"        ! }.}.}.}.}.}.}.[.}.}.}.}.}.%X=X=X=X=X=X=X=X=X=X=X=X=X:X=X=X=X=X=X-XY.T.T.T.T.T.T.T.T.T.T.Y.-X=X=X=X=X=X=X=X=X=X=X=X=X=X=X=X=X=X=X=X=X=X=X=X=X=X=X-XY.T.T.T.T.T.T.T.T.T.T.Y.-X=X=X=X=X=X=X=X=X=X=X=X=X=X=X=X=X=X=X=X=X=X=X=X=X=X=X=X=X=X=X=X:X-.        ",
"rX      d {.}.}.}.}.}.}.}.}.}.}.}.}.$X=X=X=X=X=X*X=X=X=X=X=X=X=X=X=X=X=X=X=X-X.XT.T.T.T.T.T.T.T.Y.-X=X=X=X=X=X=X=X=X=X=X=X=X=X=X=X=X=X=X=X=X=X=X=X=X=X=X=X=X-X.XT.T.T.T.T.T.T.R..X-X=X=X=X=X=X=X=X=X=X=X=X=X=X=X=X=X=X=X=X=X=X=X=X=X=X=X=X=X=X=X:X:X+Xu       rX",
"rX      . &.}.}.[.}.}.}.}.}.[.}.}.}.|.=X=X=X=X=X:X=X=X=X=X=X=X=X=X=X=X=X=X=X=X;XoXXX.XY.R.Y.XXoX;X=X=X=X=X=X=X=X=X=X=X=X=X=X=X=X=X=X=X=X=X=X=X=X=X=X=X=X=X=X=X;XoX.XY.Y.Y.Y.XXoX=X=X=X=X=X=X=X=X=X=X=X=X=X=X=X=X*X=X=X=X=X=X=X=X=X=X=X=X=X=X=X=X:X:X;..       rX",
"rXrX      6 `.}.}.}.}.}.}.}.}.}.}.}.}.$X=X=X=X=X=X=X=X=X=X=X=X=X=X=X=X=X=X=X=X=X*X=X;X-X;X;X=X=X=X=X=X=X=X=X=X=X=X=X=X=X=X=X=X=X=X=X=X=X=X=X=X=X=X=X=X=X=X=X=X=X=X=X;X;X;X;X=X=X=X=X=X=X=X=X=X=X=X=X=X=X=X=X=X=X=X=X=X=X=X=X=X=X=X=X=X=X=X=X=X=X:X).r       rXrX",
"rXrX        m {.}.}.}.}.}.}.}.}.}.}.}.}.&X=X=X=X=X=X=X=X=X=X=X=X=X=X=X=X=X=X=X=X*X:X=X=X=X=X=X=X=X=X=X=X=X=X=X=X=X=X=X=X=X=X=X=X=X=X=X=X=X=X=X=X=X=X=X=X=X=X=X=X=X=X=X=X=X=X=X=X=X=X=X=X=X=X=X=X=X=X=X=X=X=X=X=X=X=X=X=X=X=X=X=X=X=X=X=X=X=X=X:X#XS         rXrX",
"rXrXrX        L {.}.}.}.}.}.}.}.}.}.}.}.|.=X=X=X=X=X=X=X=X:X=X=X=X=X=X=X=X=X=X=X=X=X=X=X:X:X:X:X=X=X=X=X=X=X=X=X=X=X=X=X=X=X=X=X=X:X:X:X=X=X=X=X=X=X=X=X=X=X=X=X=X=X=X=X=X=X=X=X=X=X=X=X=X=X=X=X=X=X:X:X:X:X:X:X:X:X=X=X=X=X=X=X=X=X=X=X=X:X:X#XL         rXrXrX",
"rXrXrX        . m _.}.}.}.}.}.}.}.}.}.}.}.|.=X=X&X%X@X&X:X:X:X=X:X:X=X=X=X=X=X*X:X:X:X*X%X%X:X:X:X:X=X:X=X=X:X=X;X:X=X=X:X:X*X%X%X=X:X:X:X=X=X:X=X=X=X=X=X=X:X:X=X*X%X%X*X:X=X=X=X=X=X=X=X=X=X:X=X=X:X:X;X%X%X*X:X:X:X=X=X=X=X=X=X=X=X:X:X:X).m .         rXrXrX",
"rXrXrXrX          6 &.{.}.}.}.[.}.}.}.}.}.[.H.-.S x x m U N.#X:X:X:X:X=X=X:X:X:X@XH.-.m d x m U N.@X:X:X:X:X=X=X:X:X:X@XH.-.m x x m ! N.@X:X:X:X=X=X:X:X:X:X@XN.! m x x S -.N.%X:X:X:X:X=X:X:X:X:X@XN.U m x v D -./.%X:X:X:X=X=X=X:X:X:X+X;.r           rXrXrXrX",
"rXrXrXrXrX          . i %.i.`.{.[.[.`.i.&.c %           . O u -.H.'.#X%X@X X(.;.v %             $ x -./.'.@X%X@X'.(.:.v @             @ v :./. X#X%X@X'./.-.v @             % v ;.(. X@X%X#X'.H.-.k O             % b ;.(.+X%X*X%X'.N.-.u             rXrXrXrXrX",
"rXrXrXrXrXrX              @ 5 u d d 6 %                         O 5 u x u q %                         % 5 u x u 5 %                         % 5 u x u 3 %                         % 5 u x u 5 O                         % r x v u 3 O               rXrXrXrXrXrX",
"rXrXrXrXrXrXrXrX                                                                                                                                                                                                                                rXrXrXrXrXrXrXrX",
"rXrXrXrXrXrXrXrXrXrX                            rXrXrXrXrX                          rXrXrXrXrXrX                          rXrXrXrXrXrX                          rXrXrXrXrXrX                          rXrXrXrXrX                            rXrXrXrXrXrXrXrXrXrX",
"rXrXrXrXrXrXrXrXrXrXrXrX                  rXrXrXrXrXrXrXrXrXrX                  rXrXrXrXrXrXrXrXrXrX                  rXrXrXrXrXrXrXrXrXrX                  rXrXrXrXrXrXrXrXrXrX                  rXrXrXrXrXrXrXrXrXrX                  rXrXrXrXrXrXrXrXrXrXrXrX"
};
