/* XPM */
static char *c[] = {
/* columns rows colors chars-per-pixel */
"64 64 92 1 ",
"  c #010000",
". c #110300",
"X c #1D0500",
"o c #270700",
"O c #2B0500",
"+ c #2C0800",
"@ c #370700",
"# c #3B0700",
"$ c #370B01",
"% c #3B0B00",
"& c #470B00",
"* c #4C0D00",
"= c #5D0C00",
"- c #5D1100",
"; c #600C00",
": c #601200",
"> c #621D0D",
", c #771000",
"< c #791600",
"1 c #7D1801",
"2 c #841300",
"3 c #891300",
"4 c #851900",
"5 c #891900",
"6 c #911B00",
"7 c #A41E00",
"8 c #A91F00",
"9 c #BD1E00",
"0 c #952E16",
"q c #942F18",
"w c #BC2300",
"e c #863623",
"r c #873826",
"t c #C12300",
"y c #CC2500",
"u c #D62400",
"i c #D92600",
"p c #D62800",
"a c #D92800",
"s c #DB2D0D",
"d c #DC340E",
"f c #C23C1E",
"g c #DB3616",
"h c #DC3B17",
"j c #E12A00",
"k c #E2350E",
"l c #E13C17",
"z c #E13D18",
"x c #AE523D",
"c c #B1533E",
"v c #DC411E",
"b c #DD4623",
"n c #DD4927",
"m c #E14524",
"M c #E84627",
"N c #E94A26",
"B c #E25B3E",
"V c #EB5E3E",
"C c #B25641",
"Z c #EB5E42",
"A c #D1674F",
"S c #D76D55",
"D c #D86D55",
"F c #E16042",
"G c #EC6242",
"H c #E46A4F",
"J c #E66F55",
"K c #E57055",
"L c #EB7155",
"P c #CC7C6A",
"I c #E67C63",
"U c #EE7D63",
"Y c #F37F64",
"T c #CF8170",
"R c #E7826B",
"E c #EC826B",
"W c #E88771",
"Q c #F08671",
"! c #F18971",
"~ c #E19989",
"^ c #EC9B89",
"/ c #E6A191",
"( c #EEA291",
") c #F2A391",
"_ c #F2B6A8",
"` c #F4B8AA",
"' c #F9B9AB",
"] c #F2C5BB",
"[ c #F7DED9",
"{ c #F8DED9",
"} c #F9E1DB",
"| c #63B4FF",
/* pixels */
"||||||||||||||||||||                    ||||||||||||||||||||||||",
"||||||||||||||||||||                    ||||||||||||||||||||||||",
"||||||||||||||||||||XXXXXXXXXXXXoXXXXXXX||||||||||||||||||||||||",
"|||||||||||||||||||+%*****************&%O|||||||||||||||||||||||",
"||||||||||||||||| X&:<4554444444444432,=%X |||||||||||||||||||||",
"||||||||||||||||  X&<7wtwwwwwwwwwwwttw71*X  ||||||||||||||||||||",
"||||||||||||||||.X$:6wpaaaaaaaaappadhvfq>$X.||||||||||||||||||||",
"|||||||||||||||o%&:48yjjjjjjaajaijlNGLSCr>&@o|||||||||||||||||||",
"||||||||||||| X%-<68wpjjjjajijjjjjlZQ)/PCq1=#X |||||||||||||||||",
"||||||||||||  X&<7wyppaaaaaaiiuuupvJ(]]/Sf7,&X  ||||||||||||||||",
"||||||||||||  X*4wpjaaapaapipipiuavJ(]])Lvw2*X  ||||||||||||||||",
"||||||||||||  X*5tjjaaaaaaaiippiiahFW((QZl92*X  ||||||||||||||||",
"||||||||||||  o*5wajjaapapapaappupdmFJJZMs92&X  ||||||||||||||||",
"||||||||||||  X*5wpjaapapapapappppaghbvlksw2&o  ||||||||||||||||",
"||||||||||||.X$-6waajaaaaapapaaapaapppaklhfq>$X.||||||||||||||||",
"|||||||||||+%*:47ypjaaaaaiapaapaiapiuusmZHACe>*#O|||||||||||||||",
"||||||||| X%-168tyaaaaaaapaaaaapiiiuuugZU^~PCq1=#X |||||||||||||",
"||||||||  X*17wypppaaaaaapapapapiiiuuuvJ(]]/Sf7,&X  ||||||||||||",
"||||||||  o*4wpjaaaaaapaaaapaapaiiiuuubI_[{`Ubw2*X  ||||||||||||",
"||||||||  X*5wajjaaappaaapaapaaaaaiuuubI_}}'Ymt3*X  ||||||||||||",
"||||||||  X*5wjjjaapaaappaaaappaaapuuibI`}}`Unw3*o  ||||||||||||",
"||||||||  X*4wajaaaaapaaaapaaaaaiaiuupbI`[}`Ubw2&X  ||||||||||||",
"||||||||  X*4waajaapaaapapaaapapaiiuuinI`}[`Ubw2&X  ||||||||||||",
"||||||||  X*4wajaaaappaaaappaaaaaiiuupbI_}}`Ubw2&o  ||||||||||||",
"||||||||  X*4wpajaaaapapaaaaaappapiuuinI`}}'Ubw2*X  ||||||||||||",
"||||||||  X*4wpjaaaaapaaapapapaaaaiuuibI_{[_Ubw2*X  ||||||||||||",
"||||||||  X*4wajaaaaaapaaaappaapaipuupvJ(]])Lvw2*X  ||||||||||||",
"||||||||  o*5tjjjaaapaaaapaapapapaipupgZE^^EVht3*X  ||||||||||||",
"||||||||  X*5tajjaaapaaapaaapaapaaipuagbZDHZMdt5*X  ||||||||||||",
"||||||||  X*4waajaaaaaaapapaaapapaipiapdhzhldsw4*o  ||||||||||||",
"||||||||  X*17wyppaaaaaaaaaappapapapipaappppyw71&X  ||||||||||||",
"||||||||| X%-168wypaaaaaapapaaaapaaaapppuuy9861-%X |||||||||||||",
"|||||||||||+%*:48taaaapapaaapaapaipaappiapt72;*%o|||||||||||||||",
"||||||||||||.X$:6tajaaaaaapaappaaaapapijjat6-%X.||||||||||||||||",
"||||||||||||  X*4wajjaapapappapaaaaapaajjaw4*X  ||||||||||||||||",
"||||||||||||  o*5tajjaapaaapapaaaaapippjjaw5*o  ||||||||||||||||",
"||||||||||||  X*5wajjaaappaaapappappaaajjjt5*X  ||||||||||||||||",
"||||||||||||  X*4wajapaaaapaapaaapaaaaaaaaw4*X  ||||||||||||||||",
"||||||||||||  X*<7typpaaaaaaaaaaiaaaapapyw71*X  ||||||||||||||||",
"||||||||||||| X%-168tpajaaapaaaaaaaajapt85<-%X |||||||||||||||||",
"|||||||||||||||o$&-48yajaaaaaaaaaaaajjy84:*$o|||||||||||||||||||",
"||||||||||||||||.X%-6wajaaaaaaaaaaajaaw6:$X.||||||||||||||||||||",
"||||||||||||||||  X&<7wypaaaaaaaapppyw7<*X  ||||||||||||||||||||",
"||||||||||||||||| X%-168wajjjajjjapw85<-%X |||||||||||||||||||||",
"|||||||||||||||||||o$&-48yajjjjjjjy84-&$o|||||||||||||||||||||||",
"||||||||||||||||||||.X$-6waaaaaaapw6:$o.||||||||||||||||||||||||",
"||||||||||||||||||||  X*17wttwwwtw7<&X  ||||||||||||||||||||||||",
"||||||||||||||||||||| X%-145555555<:%X |||||||||||||||||||||||||",
"|||||||||||||||||||||||+%**********%+|||||||||||||||||||||||||||",
"||||||||||||||||||||||||XXXXXXoXXXXX||||||||||||||||||||||||||||",
"||||||||||||||||||||||||            ||||||||||||||||||||||||||||",
"|||||||||||||||||||||||||          |||||||||||||||||||||||||||||",
"|||||||||||||||||||||||||||      |||||||||||||||||||||||||||||||",
"||||||||||||||||||||||||||||    ||||||||||||||||||||||||||||||||",
"||||||||||||||||||||||||||||    ||||||||||||||||||||||||||||||||",
"||||||||||||||||||||||||||||    ||||||||||||||||||||||||||||||||",
"||||||||||||||||||||||||||||    ||||||||||||||||||||||||||||||||",
"||||||||||||||||||||||||||||    ||||||||||||||||||||||||||||||||",
"||||||||||||||||||||||||||||    ||||||||||||||||||||||||||||||||",
"||||||||||||||||||||||||||||    ||||||||||||||||||||||||||||||||",
"||||||||||||||||||||||||||||    ||||||||||||||||||||||||||||||||",
"||||||||||||||||||||||||||||    ||||||||||||||||||||||||||||||||",
"||||||||||||||||||||||||||||    ||||||||||||||||||||||||||||||||",
"||||||||||||||||||||||||||||    ||||||||||||||||||||||||||||||||"
};
