/* XPM */
static char *e[] = {
/* columns rows colors chars-per-pixel */
"64 64 165 2 ",
"   c #000000",
".  c #0A0A0A",
"X  c #0B050A",
"o  c #140006",
"O  c #14020A",
"+  c #19010B",
"@  c #0C131A",
"#  c #091017",
"$  c #141414",
"%  c #1A1517",
"&  c #10171E",
"*  c #12181E",
"=  c #1D1C1D",
"-  c #24000F",
";  c #260211",
":  c #280213",
">  c #300317",
",  c #3C0017",
"<  c #39031B",
"1  c #36031A",
"2  c #201F1F",
"3  c #101520",
"4  c #0C1D2A",
"5  c #3F0F2B",
"6  c #3C0A24",
"7  c #2D2E2D",
"8  c #2E302F",
"9  c #222338",
"0  c #363636",
"q  c #393937",
"w  c #40041E",
"e  c #4C0121",
"r  c #460421",
"t  c #510022",
"y  c #5A0025",
"u  c #540528",
"i  c #5C052B",
"p  c #65032C",
"a  c #6E0634",
"s  c #750234",
"d  c #790034",
"f  c #770738",
"g  c #780738",
"h  c #152E45",
"j  c #18384A",
"k  c #1A364C",
"l  c #2F2D48",
"z  c #253645",
"x  c #323C45",
"c  c #790E41",
"v  c #4E2349",
"b  c #492D53",
"n  c #1F425B",
"m  c #224564",
"M  c #244D6B",
"N  c #2A4E6D",
"B  c #24506E",
"V  c #454545",
"C  c #494745",
"Z  c #4A4845",
"A  c #4A4949",
"S  c #565656",
"D  c #575858",
"F  c #5C5C5C",
"G  c #535956",
"H  c #656565",
"J  c #676E6B",
"K  c #6A6B6B",
"L  c #6B726F",
"P  c #7A7A7A",
"I  c #88063F",
"U  c #84083E",
"Y  c #87053C",
"T  c #8F0742",
"R  c #8B0842",
"E  c #950946",
"W  c #9A0949",
"Q  c #A5074D",
"!  c #A7084D",
"~  c #A90A4F",
"^  c #AA0A50",
"/  c #B40B55",
"(  c #B90B57",
")  c #BB0B58",
"_  c #C20B5B",
"`  c #C90C5E",
"'  c #CD0C60",
"]  c #D20C63",
"[  c #D90D66",
"{  c #DC0D68",
"}  c #E00D6A",
"|  c #335F89",
" . c #2B5C89",
".. c #3C608B",
"X. c #3B6B95",
"o. c #3D77A7",
"O. c #3C75AA",
"+. c #425783",
"@. c #667889",
"#. c #427AAD",
"$. c #437EB2",
"%. c #4D6C89",
"&. c #4682B1",
"*. c #6188AD",
"=. c #7E96AD",
"-. c #4D86C0",
";. c #4E92CE",
":. c #559EE0",
">. c #52A0E7",
",. c #5DA5E7",
"<. c #5BA5EA",
"1. c #5DA9E8",
"2. c #5DAAF1",
"3. c #5DB3FF",
"4. c #60AFF8",
"5. c #63B4FF",
"6. c #69B7FF",
"7. c #65B8FF",
"8. c #69BBFF",
"9. c #72BCFF",
"0. c #7CC2FF",
"q. c #8A8785",
"w. c #8B8A89",
"e. c #868789",
"r. c #908D8A",
"t. c #93908E",
"y. c #9A9A9A",
"u. c #ADADAD",
"i. c #A3A8AD",
"p. c #B0AFAE",
"a. c #AEB2B0",
"s. c #B1B1B1",
"d. c #BABABA",
"f. c #83B7E7",
"g. c #84B8E7",
"h. c #82C3FF",
"j. c #88C6FF",
"k. c #89CAFF",
"l. c #93CDFF",
"z. c #99CFFF",
"x. c #9CD1FF",
"c. c #A9C9E7",
"v. c #A9D6FF",
"b. c #A5D8FF",
"n. c #ABD8FF",
"m. c #B7DDFF",
"M. c #BCE2FF",
"N. c #CCCCCB",
"B. c #C1C1C1",
"V. c #CED0CF",
"C. c #D5D5D5",
"Z. c #D7DFE7",
"A. c #DBE1E7",
"S. c #D3EDFF",
"D. c #D9EEFF",
"F. c #E7E7E7",
"G. c #E8E7E7",
"H. c #E8E8E7",
"J. c #EAEAEA",
"K. c #EBF7FF",
"L. c #E5F9FF",
"P. c #E7F7FF",
"I. c #F2F2F1",
"U. c #F2FAFF",
"Y. c #FEFEFE",
/* pixels */
"5.5.5.5.5.5.5.5.5.5.5.7.&.#                       N 4.5.5.5.5.5.5.5.5.5.5.5.5.5.5.5.5.5.5.5.5.5.5.5.5.5.5.5.5.5.5.5.5.5.5.5.5.5.",
"5.5.5.5.5.5.5.5.5.5.5.7.#.@ q K K K K K K K K S $ N 4.5.5.5.5.5.5.5.5.5.5.5.5.5.5.5.5.5.5.5.5.5.5.5.5.5.5.5.5.5.5.5.5.5.5.5.5.5.",
"5.5.5.5.5.5.5.5.5.5.5.7.#.* q.Y.U.Y.Y.I.U.I.Y.N.7 m 4.6.5.5.5.5.5.5.5.5.5.5.5.5.5.5.5.5.5.5.5.5.5.5.5.5.5.5.5.5.5.5.5.5.5.5.5.5.",
"5.5.5.5.5.5.5.5.5.5.5.7.O.* w.Y.Y.Y.Y.Y.Y.Y.Y.V.7 m 4.7.5.5.5.5.5.5.5.5.5.5.5.5.5.5.5.5.5.5.5.5.5.5.5.5.5.5.5.5.5.5.5.5.5.5.5.5.",
"5.5.5.5.5.5.5.6.7.7.7.8.#.* w.Y.Y.Y.Y.Y.Y.Y.Y.N.7 m 5.6.7.7.7.7.6.6.7.5.7.7.7.7.7.7.7.7.7.7.7.7.5.7.7.5.6.7.8.7.7.6.5.5.5.5.5.5.",
"5.5.5.5.5.5.5.4.5.2.3.5.o.* q.Y.Y.U.I.Y.I.U.Y.N.7 n 1.5.4.4.4.4.2.4.5.4.5.2.4.4.4.4.4.4.4.4.4.4.4.5.4.4.4.4.4.2.2.5.5.5.5.5.5.5.",
"5.5.5.5.5.5.#.N M M M M j . q J J J J J L J L G $ 4 M N M M M M M M M M M M M M M M M M M M M M M M M M M M M M N #.4.5.5.5.5.5.",
"5.5.5.5.7.5.N   + - - - ; ; - - - - - - - - ; ; : - - - - - - - - - - ; - - - - - - - - - - - - - - - - - - - -   N 3.7.5.5.5.5.",
"5.5.5.5.7.4.M - Y ~ ! ! ! ! ! ! ! ! ! ! Q Q Q Q ~ ! ! ~ ! ! ! ~ ! ~ ! ! ! ! ! ! ! ! ! ! ! ! ! ! ! ! ! ! ! ~ ^ U - M 4.7.5.5.5.5.",
"5.5.5.7.:.X.b f ` } { { { { { { { { { { { { { { { { { { { { { { [ { { { [ [ { { { { { { { [ { { { { { { { } } _ f b X.:.7.5.5.5.",
"5.5.5.7.&.* p ) ) ) ) ( ) ) ) ) ( ) ) ( ( ( ( ( ( ( ( ( ( ) ( ( ) ) ) ) ( ) ) ( ) ) ) ) ) ) ) ) ) ) ) ) ) ) ) ) ) p & &.7.5.5.5.",
"5.5.5.8.&.# + , , < < < < 1 1 1 < < < < < < < < < < < < < < < < < < < < < < < < < < < < 1 < 1 < < < < < 1 1 < < < - # &.8.5.5.5.",
"5.5.4.;.+.5 < < < < < < 1 < 1 < < < < < < < < < < < < < < < < < < < < < < < < < < 1 1 < < 1 1 < < < < 1 < < < < < < r +.;.3.6.5.",
"5.7.<.n 6 ~ _ ) ( ) ( ( ) ) ) ) ( ( ( ( ( ( ( ( ( ) ( ( ( ( ( ( ) ) ) ) ) ) ) ) ) ) ) ) ) ) ) ) ) ) ) ) ) ) ) ) ) ) ^ 6 n <.7.5.",
"5.8.1.j , _ [ [ [ ] [ ] ] [ [ [ [ ] ] [ [ ] ] [ ] [ [ ] [ ] ] [ ] ] [ ] ] [ ] [ ] [ ] [ ] [ ] [ ] ] ] ] ] ] [ ] [ { _ , j <.8.5.",
"5.4.&.l y ) [ ] ' ] ] ] ` ] ] ` ] ' ] ' ] ' ] ] ' ] ' ] ] ' ] ' ' ] ' ] ] ' ' ] ' ] ' ] ' ] ' ] ] ] ' ] ' ] ] ] ] ] ) y l -.1.5.",
"7.o.9 c ) ' ] ] ' ] ] ' ] ] ' ] ' ] ' ] ] ' ] ] ' ] ] ' ] ] ' ] ' ] ] ' ] ' ] ] ] ' ] ' ] ] ' ] ] ] ] ] ' ' [ ' ' [ ' ) c 9 o.7.",
"8.X.. t g a a a a a a a a a a a a a a a a a a a a a a a a a a a a a a a a a a a a a a a a a a a a a a a a a a a a a a f t . X.8.",
"<...O + + + + + + + + + + + + + + + + + + + + + + + + + + + + + + + + + + + + + + + + + + + + + + + + + + + + + O + + + + + ..<.",
"k v R R R R R R R R R R R R R R R R R R R R R R R R R R R R R R R R R R R R R R R R R R R R R R R R R R E I I I I I T T T R v j ",
"  i ] } [ [ [ [ [ [ [ [ [ [ [ [ [ [ [ [ [ [ [ [ [ [ [ [ [ [ [ [ [ [ [ [ [ [ [ [ [ [ [ [ [ [ [ [ [ [ [ [ [ [ { { [ [ [ [ { ] i   ",
"  u _ ' ` ` ` ` ` ` ` ` ` ` ` ` ` ` ` ` ` ` ` ` ` ` ` ` ` ` ` ` ` ` ` ` ` ` ` ` ` ` ` ` ` ` ` ` ` ` ` ` ` ` ` ' ` ` ` ` ' _ u   ",
"  - w y t e e t e t t t e t e t t t t e t e e t t t e t e t t t t t t e t e t t e t e t t t e t w t t t t t t w t t t t t w -   ",
"  $ 7 8 7 8 7 8 8 7 8 7 7 7 7 8 7 7 8 7 7 7 8 7 7 7 7 8 7 7 7 8 7 8 7 7 7 8 7 7 7 7 8 7 7 7 7 8 8 8 8 7 8 8 7 7 8 7 8 8 8 8 $   ",
"  S N.V.V.V.V.V.V.V.V.V.V.V.V.V.V.V.V.V.V.V.V.V.V.V.V.V.V.V.V.V.V.V.V.V.V.V.V.V.V.V.V.V.V.V.V.V.V.V.V.V.V.V.V.V.V.V.V.V.C.N.S   ",
"  K U.Y.Y.Y.Y.Y.Y.Y.Y.Y.Y.Y.Y.Y.Y.Y.Y.Y.Y.Y.Y.Y.Y.Y.Y.Y.Y.Y.Y.Y.Y.Y.Y.Y.Y.Y.Y.Y.Y.Y.Y.Y.Y.Y.Y.Y.Y.Y.Y.Y.Y.Y.Y.Y.Y.Y.Y.Y.Y.U.K   ",
"  K Y.Y.Y.Y.Y.Y.Y.Y.Y.Y.I.J.J.J.F.J.H.H.H.H.H.H.J.I.Y.Y.Y.Y.Y.Y.Y.Y.Y.Y.Y.Y.I.H.F.F.F.F.H.H.H.G.H.H.H.U.Y.Y.Y.Y.Y.Y.Y.Y.Y.Y.K   ",
"  K I.Y.Y.Y.Y.Y.Y.Y.Y.Y.N.F V V V C Z Z C V V V A y.U.Y.Y.Y.Y.Y.Y.Y.Y.Y.Y.Y.y.A V V V C Z Z C V V V F N.Y.Y.Y.Y.Y.Y.Y.Y.Y.U.K   ",
"  K Y.Y.Y.Y.Y.Y.Y.Y.Y.Y.s.% 2 V V x h h z V A q . K Y.Y.Y.Y.Y.Y.Y.Y.Y.Y.Y.I.L . 0 A V z h h x C V 2 % s.Y.Y.Y.Y.Y.Y.Y.Y.Y.Y.K   ",
"  K I.Y.Y.Y.Y.Y.Y.Y.Y.Y.u.2 P J.H.c.,.>.f.A.I.d.7 H I.Y.Y.Y.Y.Y.Y.Y.Y.Y.Y.U.H 7 d.I.A.g.>.,.c.H.J.P = p.Y.Y.Y.Y.Y.Y.Y.Y.Y.I.K   ",
"  K U.Y.Y.Y.Y.Y.Y.Y.Y.Y.u.= w.Y.Y.M.8.3.l.U.Y.N.7 H I.Y.Y.Y.Y.Y.Y.Y.Y.Y.Y.Y.H 7 V.Y.U.l.3.8.M.Y.Y.w.2 u.Y.Y.Y.Y.Y.Y.Y.Y.Y.I.K   ",
"  K Y.Y.Y.Y.Y.Y.Y.Y.Y.Y.u.2 w.Y.K.v.6.3.j.S.Y.N.7 H Y.Y.Y.Y.Y.Y.Y.Y.Y.Y.Y.I.H 7 N.Y.S.j.3.7.v.P.Y.w.2 u.Y.Y.Y.Y.Y.Y.Y.Y.Y.U.K   ",
"  K I.Y.Y.Y.Y.Y.Y.Y.Y.Y.u.2 w.U.x.6.5.5.6.h.S.V.7 H I.Y.Y.Y.Y.Y.Y.Y.Y.Y.Y.Y.H 7 N.S.h.7.5.5.6.x.P.w.2 p.Y.Y.Y.Y.Y.Y.Y.Y.Y.Y.H   ",
"  K Y.Y.Y.Y.Y.Y.Y.Y.Y.Y.u.2 w.U.M.k.8.3.0.b.L.N.7 H Y.Y.Y.Y.Y.Y.Y.Y.Y.Y.Y.U.H 7 N.L.b.0.7.7.k.M.U.w.2 u.Y.Y.Y.Y.Y.Y.Y.Y.Y.U.K   ",
"  K Y.Y.Y.Y.Y.Y.Y.Y.Y.Y.u.= P J.J.c.<.:.f.A.I.d.7 F Y.Y.Y.Y.Y.Y.Y.Y.Y.Y.Y.I.H 7 d.I.A.f.>.,.c.J.J.P = u.Y.Y.Y.Y.Y.Y.Y.Y.Y.Y.K   ",
"  K U.Y.Y.Y.Y.Y.Y.Y.Y.Y.a.% 2 V C x h h z V A 0 X K U.Y.Y.Y.Y.Y.Y.Y.Y.Y.Y.Y.K   0 A V z h h x C C 2 = p.Y.Y.Y.Y.Y.Y.Y.Y.Y.U.K   ",
"  K U.Y.Y.Y.Y.Y.Y.Y.Y.Y.N.F V V V V C C C V V V A y.Y.Y.Y.Y.Y.Y.Y.Y.Y.Y.Y.U.y.A V V V C C C C V V V F N.Y.Y.Y.Y.Y.Y.Y.Y.Y.Y.K   ",
"  K I.Y.Y.Y.Y.Y.Y.Y.Y.Y.U.H.H.H.J.F.F.F.H.H.H.H.H.I.Y.Y.Y.Y.Y.Y.Y.Y.Y.Y.Y.Y.I.H.H.H.H.H.F.F.J.H.F.F.J.U.Y.Y.Y.Y.Y.Y.Y.Y.Y.I.K   ",
"  K Y.Y.Y.Y.Y.Y.Y.Y.Y.Y.Y.Y.Y.Y.Y.Y.Y.Y.Y.Y.Y.Y.Y.Y.Y.Y.Y.Y.Y.Y.Y.Y.Y.Y.Y.Y.Y.Y.Y.Y.Y.Y.Y.Y.Y.Y.Y.Y.Y.Y.Y.Y.Y.Y.Y.Y.Y.Y.Y.Y.K   ",
"  K I.Y.Y.Y.Y.Y.Y.Y.Y.Y.Y.Y.Y.Y.Y.Y.Y.Y.Y.Y.Y.Y.Y.Y.Y.Y.Y.Y.Y.Y.Y.Y.Y.Y.Y.Y.Y.Y.Y.Y.Y.Y.Y.Y.Y.Y.Y.Y.Y.Y.Y.Y.Y.Y.Y.Y.Y.Y.Y.U.K   ",
"  K Y.Y.Y.Y.Y.Y.Y.Y.Y.Y.Y.Y.Y.Y.Y.Y.Y.Y.Y.Y.Y.Y.Y.Y.Y.Y.Y.Y.Y.Y.Y.Y.Y.Y.Y.Y.Y.Y.Y.Y.Y.Y.Y.Y.Y.Y.Y.Y.Y.Y.Y.Y.Y.Y.Y.Y.Y.Y.Y.Y.H   ",
"  K I.Y.Y.Y.Y.Y.Y.Y.Y.Y.Y.Y.Y.Y.Y.Y.Y.Y.Y.Y.Y.Y.Y.Y.Y.Y.Y.Y.Y.Y.Y.Y.Y.Y.Y.Y.Y.Y.Y.Y.Y.Y.Y.Y.Y.Y.Y.Y.Y.Y.Y.Y.Y.Y.Y.Y.Y.Y.Y.U.K   ",
"  K U.Y.Y.Y.Y.Y.Y.Y.Y.Y.Y.Y.Y.Y.Y.Y.Y.Y.Y.Y.Y.Y.Y.Y.Y.Y.Y.Y.Y.Y.Y.Y.Y.Y.Y.Y.Y.Y.Y.Y.Y.Y.Y.Y.Y.Y.Y.Y.Y.Y.Y.Y.Y.Y.Y.Y.Y.Y.Y.Y.K   ",
"  K Y.Y.Y.Y.Y.Y.Y.Y.Y.Y.Y.Y.Y.Y.Y.Y.Y.Y.Y.Y.Y.Y.Y.Y.Y.Y.Y.Y.Y.Y.Y.Y.Y.Y.Y.Y.Y.Y.Y.Y.Y.Y.Y.Y.Y.Y.Y.Y.Y.Y.Y.Y.Y.Y.Y.Y.Y.Y.Y.U.K   ",
"  K I.Y.Y.Y.Y.Y.Y.Y.Y.Y.Y.Y.Y.Y.Y.Y.Y.Y.Y.Y.Y.Y.Y.Y.Y.Y.Y.Y.Y.Y.Y.Y.Y.Y.Y.Y.C.a.a.a.s.a.a.a.p.p.a.s.a.a.u.p.p.p.s.C.Y.Y.Y.Y.K   ",
"  K Y.Y.Y.Y.Y.Y.Y.Y.Y.Y.Y.Y.Y.Y.Y.Y.Y.Y.Y.Y.Y.Y.Y.Y.Y.Y.Y.Y.Y.Y.Y.Y.Y.Y.Y.U.P $ % = % % % = 2 % = % % = 2 % = % % P I.Y.Y.I.K   ",
"  K Y.Y.Y.Y.Y.Y.Y.Y.Y.Y.Y.Y.Y.Y.Y.Y.Y.Y.Y.Y.Y.Y.Y.Y.Y.Y.Y.Y.Y.Y.Y.Y.Y.Y.Y.Y.J o y d s s s s s d s d s s d s d p o J Y.Y.Y.Y.K   ",
"  K U.Y.Y.Y.Y.Y.Y.Y.Y.Y.Y.Y.Y.Y.Y.Y.Y.Y.Y.Y.Y.Y.Y.Y.Y.Y.Y.Y.Y.Y.Y.Y.Y.Y.Y.I.J - I / ~ ~ ~ ^ ~ ~ ~ ^ ~ ~ ~ ~ ~ I + J I.Y.Y.U.K   ",
"  K U.Y.Y.Y.Y.Y.Y.Y.Y.Y.Y.Y.Y.Y.Y.Y.Y.Y.Y.Y.Y.Y.Y.Y.Y.Y.Y.Y.Y.Y.Y.Y.Y.Y.Y.U.K   + : : : : : : : : : : : : : : +   L I.Y.Y.Y.H   ",
"  K I.Y.Y.Y.Y.Y.Y.Y.Y.Y.C.i.w.q.w.w.w.r.w.w.w.w.w.B.Y.Y.Y.Y.Y.Y.Y.Y.Y.Y.Y.Y.s.D $ - r +                 + e ; $ D s.Y.Y.Y.U.K   ",
"  K Y.Y.Y.Y.Y.Y.Y.Y.Y.Y.s.= . = 3 2 & & * = 7 $ . L U.Y.Y.Y.Y.Y.Y.Y.Y.Y.Y.Y.Y.N.7 t ^ w   o O O o o o   r ^ t 7 N.Y.Y.Y.Y.Y.K   ",
"  K I.Y.Y.Y.Y.Y.Y.Y.Y.Y.p.= F s.p.=.#.O.*.i.p.q.2 K I.Y.Y.Y.Y.Y.Y.Y.Y.Y.Y.Y.Y.V.7 y ( 6 ; R W E E W R ; < / y 7 N.Y.Y.Y.Y.U.K   ",
"  K Y.Y.Y.Y.Y.Y.Y.Y.Y.Y.u.2 w.Y.Y.M.8.3.l.U.Y.N.7 H Y.Y.Y.Y.Y.Y.Y.Y.Y.Y.Y.Y.Y.V.7 y / < : R E R E E R ; 6 / y 7 V.Y.Y.Y.Y.Y.K   ",
"  K I.Y.Y.Y.Y.Y.Y.Y.Y.Y.u.2 w.Y.Y.m.6.3.l.U.Y.N.7 H I.Y.Y.Y.Y.Y.Y.Y.Y.Y.Y.Y.Y.V.8 y ( r   + + + + + O   r / y 7 V.Y.Y.Y.Y.I.K   ",
"  K U.Y.Y.Y.Y.Y.Y.Y.Y.Y.u.2 w.U.m.h.5.5.9.z.L.N.7 H I.Y.Y.Y.Y.Y.Y.Y.Y.Y.Y.Y.Y.V.7 t _ W f f f f f f f f W _ t 8 V.Y.Y.Y.Y.Y.K   ",
"  K Y.Y.Y.Y.Y.Y.Y.Y.Y.Y.u.= w.K.x.9.5.5.6.h.S.V.7 H Y.Y.Y.Y.Y.Y.Y.Y.Y.Y.Y.Y.Y.V.7 e ` ( ^ ^ Q ^ ^ ^ Q ^ ( _ t 7 V.Y.Y.Y.Y.U.K   ",
"  K I.Y.Y.Y.Y.Y.Y.Y.Y.Y.u.2 w.Y.U.n.7.3.k.S.Y.N.7 H I.Y.Y.Y.Y.Y.Y.Y.Y.Y.Y.Y.Y.V.8 t ( i ; ; ; ; ; ; ; - i ( t 8 V.Y.Y.Y.Y.Y.H   ",
"  K Y.Y.Y.Y.Y.Y.Y.Y.Y.Y.s.% V w.w.@... .%.e.t.J $ K Y.Y.Y.Y.Y.Y.Y.Y.Y.Y.Y.Y.Y.V.7 t / r O e i i u i e + w / y 7 V.Y.Y.Y.Y.U.K   ",
"  K Y.Y.Y.Y.Y.Y.Y.Y.Y.Y.d.7 $ 2 = 2 = % = = 2 = $ P U.Y.Y.Y.Y.Y.Y.Y.Y.Y.Y.Y.Y.V.7 y ( < > ! ( ( ( ( ! > < ( y 7 V.Y.Y.Y.Y.Y.K   ",
"  K U.Y.Y.Y.Y.Y.Y.Y.Y.Y.G.d.u.u.u.u.p.p.p.u.u.u.s.C.Y.Y.Y.Y.Y.Y.Y.Y.Y.Y.Y.Y.Y.V.8 y ( < X 1 < < , 6 1 X w / t 8 V.Y.Y.Y.Y.U.K   ",
"  K U.Y.Y.Y.Y.Y.Y.Y.Y.Y.Y.Y.Y.Y.Y.Y.Y.Y.Y.Y.Y.Y.Y.Y.Y.Y.Y.Y.Y.Y.Y.Y.Y.Y.Y.Y.Y.N.7 y ) f < < < < < < < < f ) y 8 V.Y.Y.Y.Y.I.K   ",
"  H I.Y.Y.U.I.Y.I.Y.I.U.U.I.Y.U.I.Y.U.Y.I.Y.I.U.U.Y.Y.I.Y.U.I.Y.I.Y.I.U.U.Y.Y.N.7 e _ ) ( ( ( ( ( ( ( ( ) _ e 7 N.Y.I.U.Y.I.H   ",
"  7 H K K K K K K K K K K K K K K K K K K K K K K K K K K K K K K K K K K K K S $ ; u i i i i i i i i i i u - $ S K K K K K 7   ",
"                                                                                                                                "
};
