/* XPM */
static char *p[] = {
/* columns rows colors chars-per-pixel */
"64 64 221 2 ",
"   c #000001",
".  c #01020C",
"X  c #0C0C0C",
"o  c #1E0600",
"O  c #180502",
"+  c #03051C",
"@  c #030517",
"#  c #161616",
"$  c #1D1D1D",
"%  c #181819",
"&  c #171015",
"*  c #270700",
"=  c #211B19",
"-  c #23221E",
";  c #3B231E",
":  c #040720",
">  c #050821",
",  c #050827",
"<  c #060B36",
"1  c #111430",
"2  c #1C2123",
"3  c #222222",
"4  c #2E2E2E",
"5  c #22253B",
"6  c #272A3F",
"7  c #353535",
"8  c #3B3B3B",
"9  c #383C39",
"0  c #4D0E00",
"q  c #430500",
"w  c #531304",
"e  c #681300",
"r  c #642517",
"t  c #54342D",
"y  c #020A4C",
"u  c #010747",
"i  c #0B134E",
"p  c #091146",
"a  c #050E52",
"s  c #010C5B",
"d  c #0B1354",
"f  c #0C155A",
"g  c #151A57",
"h  c #1B2155",
"j  c #2E324F",
"k  c #0B166A",
"l  c #111D7C",
"z  c #05137B",
"x  c #1A246F",
"c  c #2B3371",
"v  c #3E415E",
"b  c #414242",
"n  c #4C4C4C",
"m  c #545454",
"M  c #5B5A54",
"N  c #5B5B5B",
"B  c #55585A",
"V  c #4C4E53",
"C  c #6B5551",
"Z  c #62615B",
"A  c #585966",
"S  c #44496E",
"D  c #626262",
"F  c #6C6C6C",
"G  c #6A6963",
"H  c #737373",
"J  c #787A78",
"K  c #6B6F7A",
"L  c #861900",
"P  c #861600",
"I  c #9A1D00",
"U  c #B91D00",
"Y  c #91270F",
"T  c #BD2402",
"R  c #B62100",
"E  c #BE3B1D",
"W  c #A93B24",
"Q  c #D71B00",
"!  c #C82602",
"~  c #D62200",
"^  c #DA2500",
"/  c #D72800",
"(  c #DA2900",
")  c #DA330D",
"_  c #D93C18",
"`  c #CA3010",
"'  c #E02900",
"]  c #DC3F22",
"[  c #8A493B",
"{  c #DB411E",
"}  c #DD4422",
"|  c #C14E39",
" . c #E15B3D",
".. c #E44825",
"X. c #B5776A",
"o. c #905D52",
"O. c #C55940",
"+. c #DC6C53",
"@. c #C66650",
"#. c #E5755C",
"$. c #E97258",
"%. c #E66649",
"&. c #EA7C63",
"*. c #F07D63",
"=. c #E88872",
"-. c #F28971",
";. c #0B1A8F",
":. c #07168A",
">. c #111F85",
",. c #0D1D92",
"<. c #0F1F98",
"1. c #19268A",
"2. c #142293",
"3. c #13229A",
"4. c #0F209C",
"5. c #212E93",
"6. c #0B1FB5",
"7. c #1627A9",
"8. c #192CB7",
"9. c #2837A8",
"0. c #374293",
"q. c #3745AA",
"w. c #4A5397",
"e. c #6B6F92",
"r. c #4F5CBE",
"t. c #172CC9",
"y. c #1C31CC",
"u. c #172ED9",
"i. c #1C31D0",
"p. c #1B32DE",
"a. c #0D24CF",
"s. c #253AD7",
"d. c #1931E5",
"f. c #1C34EB",
"g. c #1F38ED",
"h. c #1C35F3",
"j. c #1F38F7",
"k. c #2239EC",
"l. c #2037E6",
"z. c #223AF3",
"x. c #3749CD",
"c. c #2C43ED",
"v. c #3A4FED",
"b. c #3349E9",
"n. c #3C51EE",
"m. c #2D44F4",
"M. c #354BF4",
"N. c #3D53FB",
"B. c #6673D2",
"V. c #4156F2",
"C. c #576AF8",
"Z. c #5466F4",
"A. c #6979F6",
"S. c #6978E8",
"D. c #5462CF",
"F. c #7A84CF",
"G. c #7988FA",
"H. c #7280E3",
"J. c #8D8D8D",
"K. c #868686",
"L. c #939393",
"P. c #9C9C9B",
"I. c #959599",
"U. c #8F8E93",
"Y. c #A3948F",
"T. c #A0A09D",
"R. c #989BA5",
"E. c #A4A4A4",
"W. c #ABABAB",
"Q. c #ABAAA7",
"!. c #AFB3B4",
"~. c #BDBDBD",
"^. c #B2B2B2",
"/. c #9AA0A1",
"(. c #D79A8C",
"). c #E89D8C",
"_. c #EEAA9B",
"`. c #F3A391",
"'. c #D8BFBA",
"]. c #EFAFA1",
"[. c #F4B7A9",
"{. c #F1B0A1",
"}. c #D0C1BD",
"|. c #F2C6BC",
" X c #B4B7CA",
".X c #8794F7",
"XX c #9BA5EB",
"oX c #99A4F8",
"OX c #A0ABFB",
"+X c #AEB7FB",
"@X c #B4BCF6",
"#X c #979ED7",
"$X c #BEC1D8",
"%X c #BEC1C2",
"&X c #BBC2FB",
"*X c #C2C2C2",
"=X c #CACACA",
"-X c #C7CBCB",
";X c #DBDBDB",
":X c #D3D3D3",
">X c #F4CBC2",
",X c #F7DFD9",
"<X c #E0DFDF",
"1X c #F9E3DE",
"2X c #F7E1DC",
"3X c #E0E0DF",
"4X c #C4CAF8",
"5X c #D5DAFC",
"6X c #D9DFE1",
"7X c #DDE1F9",
"8X c #E4E4E4",
"9X c #ECECEC",
"0X c #E6E8E9",
"qX c #FAE9E5",
"wX c #EBEDFD",
"eX c #E3E5F8",
"rX c #F4F4F4",
"tX c #FDFDFD",
"yX c #F8F5F7",
"uX c #EFF1F2",
"iX c #63B4FF",
/* pixels */
"iXiXiXiXiXiXiXiXiXiXiXiXiXiXiXiX                iXiXiXiXiXiXiXiXiXiXiXiX( ( / / ( / ( ( ' ( T L 0 o     iXiXiXiXiXiXiXiXiXiXiXiX",
"iXiXiXiXiXiXiXiXiXiXiXiXiXiXiXiX                iXiXiXiXiXiXiXiXiXiXiXiX( / / ( ( ( ( ( ' / T L 0 o     iXiXiXiXiXiXiXiXiXiXiXiX",
"iXiXiXiXiXiXiXiXiXiXiXiXiXiXiXiX$ 3 3 3 3 3 3 $ iXiXiXiXiXiXiXiXiXiXiXiX! / / ( ( ( ( ' ' ( T Y r ; 3 2 iXiXiXiXiXiXiXiXiXiXiXiX",
"iXiXiXiXiXiXiXiXiXiXiXiXiXiXiX7 n m B N N N m n 9 iXiXiXiXiXiXiXiXiXiXL R ! / ( ^ / / ^ ^ ( ` W [ C B V 9 iXiXiXiXiXiXiXiXiXiXiX",
"iXiXiXiXiXiXiXiXiXiXiXiXiX  3 n H J.P.T.T.P.J.H n $                 * e I ! / / ( ^ ( ^ ~ / _ O.X.P.L.K V 2   iXiXiXiXiXiXiXiXiX",
"iXiXiXiXiXiXiXiXiXiXiXiX    3 m J.*X;X8X8X;X*XL.N 3                 * 0 I T / ^ ^ / / ^ ~ / _ +.).}.~.L.N 2     iXiXiXiXiXiXiXiX",
"iXiXiXiXiXiXiXiXiXiXiXiX# 3 b F W.;XtXtXtXtX<XW.H b 3 $ $ $ 3 2 3 3 ; r Y ! / ' ' ( ( ~ ~ ( } $.`.|.}.Y.Z ; o O iXiXiXiXiXiXiXiX",
"iXiXiXiXiXiXiXiXiXiXiX4 b m H I.*X0XtXtXtXtX0X*XL.F N m m N N B B N C [ W ` ^ Q ~ ~ ~ ~ Q ( _ %.-.`.).X.[ r w q iXiXiXiXiXiXiXiX",
"iXiXiXiXiXiXiXiXiX  $ b F J.W.*X;XrXtXtXtXtXrX:X~.W.P.P.I.P.P./.R.P.Y.X.| ` ~ Q Q Q ^ ~ ^ / ) ..%.$.+.O.W Y I e iXiXiXiXiXiXiXiX",
"iXiXiXiXiXiXiXiX    3 m J.~.;X9XrXtXtXtXtXtXtX9X0X;X;X:X;X;X;X6X6X;X}.=.+.{ / ~ / ( ( / / / ( ) _ } _ _ ` T T R iXiXiXiXiXiXiXiX",
"iXiXiXiXiXiXiXiX    3 N P.;XtXtXtXtXtXtXtXtXtXtXtXtXtXtXtXtXtXtXtXtX2X[.=. .} _ { } { _ ) ( / / / ^ / / / / ~ ! iXiXiXiXiXiXiXiX",
"iXiXiXiXiXiXiXiX    3 N P.;XtXtXtXtXtXtXtXtXtXtXtXtXtXtXtXtXtXtXtXtXuX>X_.=.&.$.#.#.%. .} ) / ~ ^ Q ^ ^ ' ^ / T L iXiXiXiXiXiXiX",
"iXiXiXiXiXiXiXiX    3 N R.;XtXtXtXtXtXtXtXtXtXtXtXtXtXtXtXtXtXtXtXtXyX2X|.[.].].{.].).&. ._ / ~ ^ Q / ^ ' ^ ! I e *   iXiXiXiXiX",
"iXiXiXiXiXiXiXiX    3 N T.;XtXtXtXtXtXtXtXtXyXtXtXtXtXtXtXtXtXtXtXtXyXrXqX1X,XqXqX,X|.).%._ ( ~ ~ / / ' ' / ! P w *     iXiXiXiX",
"iXiXiXiXiXiXiXiX% 3 b F W.<XtXtXtXtXtXtXtXyXtXtXtXtXtXtXtXtXyXtXtXtXtXtXtXtXtXtXtXtX,X].#.} / Q Q / / ' ' / T L 0 o     iXiXiXiX",
"iXiXiXiXiXiXiX7 n Z J P.*X0XtXtXtXtXyXtXtXtXtXtXtXtXtXtXtXtXtXtXtXtXtXtXtXtXtXtXtXtX,X].&.] ^ Q Q ^ Q ^ ^ ~ U P 0 o     iXiXiXiX",
"iXiXiXiXiX  3 n H P.^.=X<XrXtXtXtXtXtXyXtXtXtXtXtXtXtXtXtXtXtXtXtXtXtXtXtXtXtXtXtXtX2X].&.} ~ Q Q Q ^ ^ ^ ~ U P 0 O     iXiXiXiX",
"iXiXiXiX    3 m J.~.;X9XrXyXtXtXtXtXtXtXtXtXtXyXtXtXtXtXtXtXyXtXtXtXtXtXtXtXtXtXtXtX2X].#.} / ~ / / / ' ( / T L 0 O     iXiXiXiX",
"iXiXiXiX    $ n K.~.;X9XrXyXtXtXtXtXtXtXyXtXtXtXtXtXtXtXtXyXtXtXyXtXtXtXtXtXtXtXtXtX,X[.=. .} { _ } ......} E Y w O .   iXiXiXiX",
"iXiXiX      # 7 Z J.W.=X<XrXtXtXtXtXtXtXtXtXtXtXtXtXtXtXtXtXtXtXtXtXyXtXtXtXtXtXtXtXqX>X_.=.#.#.$.&.&.*.&.&.@.[ t *       iXiXiX",
"            X $ 7 V F P.*X0XtXtXtXtXtXtXtXyXtXtXtXtXtXtXtXtXtXtXtXyXtXtXtXtXtXtXtXtXrX,X>X[.{.].[.[.[.[.[.{.(.o.t =             ",
"              . X 3 b J ^.;XtXtXtXtXtXtXtXtXtXtXyXtXtXtXtXtXtXtXtXtXtXtXtXtXtXtXtXtXyXuXqX1X2X,X,X,X,XqXqX,X'.Y.M $             ",
"              X X - b H W.3XtXtXtXtXtXtXtXtXrXuX8X6X;X0X9XyXtXtXtXtXyXtXtXyXtXyXtXtXtXtXtXtXyX9X8X<X<X9XyXyX;XT.Z 3             ",
"            X $ 7 V F P.*X0XtXtXtXtXtXtXtXtXuX:X}.W.W.~.;X9XtXtXtXtXtXtXtXtXtXtXtXtXtXtXtXtXuX;X*X^.^.-X8XuX;XT.A 3             ",
"iXiXiX      # 9 D K.W.=X3XuXtXtXtXtXtXtXtXtX0X~.U.H H L.~.0XtXtXtXtXyXtXtXtXtXtXtXtXtXtXtXtX0X%XI.J J P.-X0X6XE.Z 3       iXiXiX",
"iXiXiXiX    $ n K.~.;X9XrXyXtXtXtXtXtXtXtXtX;XQ.G b b G E.;XyXtXtXtXtXtXtXtXtXyXtXtXtXtXtXtX;XQ.F b b H ^.;X;XE.D 3     iXiXiXiX",
"iXiXiXiX    - n K.~.;XuXrXyXtXtXtXtXtXtXtXtX:XP.m 3 3 m I.;XtXtXtXtXtXtXtXtXtXtXtXtXtXtXtXtX;XP.V 3 3 A E.:X:XE.D 3     iXiXiXiX",
"iXiXiX      # 8 G L.^.=X8XrXtXtXtXtXtXtXtXtX;XP.m 3 3 m P.;XtXtXtXtXtXtXtXtXtXtXtXtXtXtXtXtX;XI.m 3 3 N T.;X;XQ.D 3       iXiXiX",
"            X - 8 m J R.=X0XtXtXtXtXtXtXtXtX;XI.m 3 3 m P.;XyXtXtXtXtXtXtXtXtXtXtXtXtXtXtXyX;XP.m 3 3 N E.:X;XE.D 3             ",
"              . X $ b H W.<XtXtXtXtXtXtXtXtX;XI.m 3 3 m I.;XtXtXtXtXtXtXyXtXyXtXtXtXtXtXtXtX;XI.m 3 3 N T.;X;XE.D 3             ",
"                    3 N T.;XtXtXtXtXtXtXtXtX;XQ.F b b G E.<XtXtXtXtXtXtXtXtXrXuX3X;X3X0XyXyX;XQ.F b b H ^.;X;XE.D 3             ",
"                    3 D T.<XtXtXtXtXtXtXtXtX0X~.U.H H U. X0XtXtXtXtXtXtXtXtXuX:X~.Q.Q.%X;X9X0X%XL.H H P.=X0X;XQ.D 3             ",
"iXiXiXiXiXiXiX      3 N P.;XtXtXtXtXtXtXtXtXrX:X*XW.W.~.:X9XtXtXtXtXtXtXtXtX0X~.J.F G J.~.0XuX;X*XW.W.=X8XuX;XE.Z 2       iXiXiX",
"iXiXiXiXiXiXiXiX    3 N P.;XtXtXtXtXtXtXtXtXyXrX0X<X3X0XrXtXtXtXtXtXtXtXtXtX;XE.F b b F Q.;XyXyX9X8X8X0XyXyX:XT.N 3     iXiXiXiX",
"iXiXiXiXiXiXiXiX    3 m U.*X;X<X;X;X6X8XuXyXtXtXtXtXtXtXtXtXtXtXtXtXtXtXtXtX<XW.F b b F Q.<XtXtXtXtXyXrX9X;X%XJ.m 3     iXiXiXiX",
"iXiXiXiXiXiXiXiX    3 n H L.P.T.T.T.Q.}.;XuXtXtXtXtXtXtXtXtXtXtXtXtXtXtXtXtX0X~.U.H H U.~.0XtXtXtXtXrX;X*XQ.J.F b 3   iXiXiXiXiX",
"iXiXiXiXiX      iXiXiX8 n B N M M M H L.*X9XtXtXtXtXtXtXtXtXtXtXtXtXtXtXtXtXrX;X%X!.W.*X;XrXtXtXtXtX0X*XI.H B b 7 iXiXiXiXiXiXiX",
"iXiXiXiX        iXiXiXiX3 3 3 $ % 3 b H W.;XtXtXtXtXtXtXtXyXtXyXtXtXtXyXtXtXyX9X8X;X;X8X9XyXtXtXtXtX;XW.K t 3 # iXiXiXiXiXiXiXiX",
"iXiXiXiX        iXiXiXiX        . + 5 A U. X;X<X<X;X;X;X;X;X;X;X;X;X;X;X;X:X;X:X:X;X;X;X;X;X;X;X8X;X~.J.B 2     iXiXiXiXiXiXiXiX",
"iXiXiXiX          iXiX      . + , < h c K K.L.T.T.T.P.P.P.T.P.P.P.P.P.P.P.P.P.E.E.E.Q.E.T.P.P.P.P.P.J.H n $     iXiXiXiXiXiXiXiX",
"iXiXiXiX                    @ < s z >.1.S V m M M M M M M M M M M M M M m m m A Z D D D N N N N N N m n 7 iXiXiX      iXiXiXiXiX",
"iXiXiXiX                    > d >.8.9.5.x 5 3 - - 2 3 3 3 3 3 3 - 3 3 3 3 3 3 3 3 3 3 3 3 3 3 3 3 3 3 3 iXiXiXiX        iXiXiXiX",
"iXiXiXiX      . @ + : + + > < x 9.x.x.q.c j - % & > > > > > > > : : > % 2 2 - % &                       iXiXiXiX        iXiXiXiX",
"iXiXiXiX    . > < i f d d d x 0.r.S.S.B.e.A V j h i y y y y y a y a d j b V n 8 - X                   iXiXiXiXiXiX    iXiXiXiXiX",
"iXiXiXiX    @ < k l 3.4.4.3.9.r.H.XX+X X!.R.U.w.0.1.:.:.:.;.;.;.;.,.5.w.e.R.K.Z 8 #       iXiXiXiXiXiXiXiXiXiXiXiXiXiXiXiXiXiXiX",
"iXiXiXiX    + p l 7.y.y.t.i.x.B.XX4XeXeX8X;X-X#XB.x.y.t.t.y.y.t.a.y.x.B.XX X~.K.n -     iXiXiXiXiXiXiXiXiXiXiXiXiXiXiXiXiXiXiXiX",
"iXiXiXiX    + p l 8.y.u.d.k.v.A.oX4X7XyXtXyXeX@XG.Z.n.c.k.g.f.f.d.k.v.A.OX4X$XR.A j + . iXiXiXiXiXiXiXiXiXiXiXiXiXiXiXiXiXiXiXiX",
"iXiXiXiX    @ < s >.4.a.u.k.M.C.G.OX4X5XwXyXwX5X+X.XG.Z.N.m.j.h.h.z.M.C..XOXXXF.w.c d u < iXiXiXiXiXiXiXiXiXiXiXiXiXiXiXiXiXiXiX",
"iXiXiXiX    . + , y k ,.8.d.m.N.C.A..X@X5XwXyXwX5X&XOXG.Z.M.j.h.h.z.m.V.C.A.S.D.x.9.2.k y :   iXiXiXiXiXiXiXiXiXiXiXiXiXiXiXiXiX",
"iXiXiXiX      . . > < l 7.i.k.m.c.n.Z..X@XeXyXtXyX7X4XoXS.v.g.f.f.k.z.c.v.n.n.b.s.y.8.>.i :     iXiXiXiXiXiXiXiXiXiXiXiXiXiXiXiX",
"iXiXiXiX$ 3 3 - 3 3 5 h 1.8.i.p.d.f.M.A.oX4X7XwXwX7X4XoXA.n.g.f.f.h.k.k.z.k.f.f.p.y.7.l p +     iXiXiXiXiXiXiXiXiXiXiXiXiXiXiXiX",
"iXiXiX7 n M N Z Z Z A S c 1.<.6.a.d.m.Z.G.oX+X&X&X&XOXG.Z.M.j.g.h.z.h.j.j.h.d.u.8.7.1.g < @     iXiXiXiXiXiXiXiXiXiXiXiXiXiXiXiX",
"    2 n H U.T.Q.W.E.U.K S g k :.6.u.m.N.C.A.G.G.G.G.A.C.V.m.j.j.h.z.z.j.j.h.p.8.3.l i < : .     iXiXiXiXiXiXiXiXiXiXiXiXiXiXiXiX",
"    3 M J.'.;X0X0X:X%XJ.A 5 < s 7.i.k.m.m.v.n.n.n.n.v.b.c.c.g.f.k.k.k.h.z.f.y.7.k < + .         iXiXiXiXiXiXiXiXiXiXiXiXiXiXiXiX",
"    3 N I.;XyXtXrX6X}.L.D 8 j g 1.8.y.i.i.y.y.y.y.y.y.y.y.y.y.y.y.y.y.y.i.t.8.1.d >             iXiXiXiXiXiXiXiXiXiXiXiXiXiXiXiX",
"    3 N /.6XuX0X:X^.T.J.J G B S c 1.2.,.,.,.,.,.<.,.,.2.,.2.2.2.2.2.2.2.2.1.1.k p +           iXiXiXiXiXiXiXiXiXiXiXiXiXiXiXiXiX",
"    3 Z E.;X0X=XT.J F J J.I.L.e.S h g a a a a a a a a a d d d d d d d d d d i p < iXiXiXiXiXiXiXiXiXiXiXiXiXiXiXiXiXiXiXiXiXiXiX",
"    3 N E.;X;X!.H b b D P.'.~.L.A 5 , + + + : : > > > > > > > > > > > > > > + + iXiXiXiXiXiXiXiXiXiXiXiXiXiXiXiXiXiXiXiXiXiXiXiX",
"    $ m J.~.~.J.V - - n K.~.~.I.A 3                                             iXiXiXiXiXiXiXiXiXiXiXiXiXiXiXiXiXiXiXiXiXiXiXiX",
"    # 9 D K.K.D 9 # # 9 G J.L.K.m 3                                           iXiXiXiXiXiXiXiXiXiXiXiXiXiXiXiXiXiXiXiXiXiXiXiXiX",
"    X 3 8 n n 8 - X X 3 9 m B m b iXiXiXiXiXiXiXiXiXiXiXiXiXiXiXiXiXiXiXiXiXiXiXiXiXiXiXiXiXiXiXiXiXiXiXiXiXiXiXiXiXiXiXiXiXiXiX",
"    . X # - $ # X   . X % 2 3 3 iXiXiXiXiXiXiXiXiXiXiXiXiXiXiXiXiXiXiXiXiXiXiXiXiXiXiXiXiXiXiXiXiXiXiXiXiXiXiXiXiXiXiXiXiXiXiXiX",
"                                iXiXiXiXiXiXiXiXiXiXiXiXiXiXiXiXiXiXiXiXiXiXiXiXiXiXiXiXiXiXiXiXiXiXiXiXiXiXiXiXiXiXiXiXiXiXiXiX",
"                                iXiXiXiXiXiXiXiXiXiXiXiXiXiXiXiXiXiXiXiXiXiXiXiXiXiXiXiXiXiXiXiXiXiXiXiXiXiXiXiXiXiXiXiXiXiXiXiX"
};
