/* XPM */
static char *wall[] = {
/* columns rows colors chars-per-pixel */
"64 64 187 2 ",
"   c #000001",
".  c #0D0E0E",
"X  c #03070B",
"o  c #050E17",
"O  c #0D141B",
"+  c #0B1014",
"@  c #131415",
"#  c #12161A",
"$  c #13181C",
"%  c #1C1C1C",
"&  c #0F1820",
"*  c #071521",
"=  c #111A22",
"-  c #0B1E30",
";  c #1B232B",
":  c #18222B",
">  c #0D2439",
",  c #122639",
"<  c #1D2B37",
"1  c #222222",
"2  c #2B2B2B",
"3  c #33312F",
"4  c #272D33",
"5  c #2C3034",
"6  c #2A343D",
"7  c #353332",
"8  c #323639",
"9  c #413E3B",
"0  c #42403F",
"q  c #162E43",
"w  c #1B3044",
"e  c #16314A",
"r  c #19344D",
"t  c #1F384F",
"y  c #1A3752",
"u  c #1B3853",
"i  c #1F3F5D",
"p  c #22374A",
"a  c #283745",
"s  c #323E4A",
"d  c #233C52",
"f  c #1F405F",
"g  c #37434E",
"h  c #23425D",
"j  c #2A435A",
"k  c #384856",
"l  c #234565",
"z  c #25496A",
"x  c #2E4E6C",
"c  c #294A67",
"v  c #364F66",
"b  c #35536E",
"n  c #274E73",
"m  c #2B5275",
"M  c #2B5479",
"N  c #375A7A",
"B  c #434242",
"V  c #4A4A4A",
"C  c #504F4E",
"Z  c #54514E",
"A  c #444D55",
"S  c #42505C",
"D  c #4E575F",
"F  c #545454",
"G  c #5D5C5C",
"H  c #52565A",
"J  c #605E5C",
"K  c #66625E",
"L  c #495867",
"P  c #515D68",
"I  c #455D73",
"U  c #415F7B",
"Y  c #5D6165",
"T  c #56616C",
"R  c #5C656D",
"E  c #4E6173",
"W  c #44617C",
"Q  c #536271",
"!  c #586775",
"~  c #616161",
"^  c #63686C",
"/  c #6D6E6E",
"(  c #716F6D",
")  c #696D71",
"_  c #6E7275",
"`  c #6C747C",
"'  c #757371",
"]  c #737578",
"[  c #7D7C7A",
"{  c #73787C",
"}  c #84817E",
"|  c #2D5B82",
" . c #335D84",
".. c #3B6184",
"X. c #33628C",
"o. c #3C658B",
"O. c #356691",
"+. c #366994",
"@. c #3D6B96",
"#. c #376998",
"$. c #3C6E9C",
"%. c #3A6790",
"&. c #3C709E",
"*. c #396FA0",
"=. c #3D72A3",
"-. c #3D75A9",
";. c #3F78AB",
":. c #436382",
">. c #42688C",
",. c #406689",
"<. c #426F98",
"1. c #777E83",
"2. c #4077A9",
"3. c #457BAD",
"4. c #4274A2",
"5. c #447FB5",
"6. c #487FB2",
"7. c #7A8085",
"8. c #7C8389",
"9. c #4580B7",
"0. c #4683BA",
"q. c #4A85BB",
"w. c #4984B8",
"e. c #4C8BC4",
"r. c #4D8FCB",
"t. c #4887C0",
"y. c #4E91CD",
"u. c #5092CC",
"i. c #5196D4",
"p. c #5399D3",
"a. c #559CDB",
"s. c #57A1E2",
"d. c #59A3E4",
"f. c #5BA6EB",
"g. c #5DAAEE",
"h. c #5FADF4",
"j. c #60AFF4",
"k. c #60AFF8",
"l. c #62B2F5",
"z. c #63B4FF",
"x. c #66BAFF",
"c. c #68BDFF",
"v. c #6AC1FF",
"b. c #838484",
"n. c #86898D",
"m. c #8F8C89",
"M. c #898887",
"N. c #918E8C",
"B. c #93918F",
"V. c #959493",
"C. c #9C9997",
"Z. c #939799",
"A. c #9D9B9A",
"S. c #979695",
"D. c #868B90",
"F. c #A19F9D",
"G. c #A3A19E",
"H. c #A5A4A3",
"J. c #A9A7A4",
"K. c #ACABAB",
"L. c #A6A8A9",
"P. c #ACAEB0",
"I. c #AFB1B3",
"U. c #B5B4B3",
"Y. c #B8B7B6",
"T. c #BBB9B7",
"R. c #BBBBBC",
"E. c #B6B7B8",
"W. c #C0BEBD",
"Q. c #C3C0BE",
"!. c #C2C2C2",
"~. c #CAC8C6",
"^. c #CBCBCA",
"/. c #C9C6C4",
"(. c #D0CECC",
"). c #D5D4D3",
"_. c #DDDDDC",
"`. c #E1DFDE",
"'. c #E0E0DF",
"]. c #E3E3E3",
"[. c #EBEBEB",
"{. c #E8E7E6",
"}. c #F0EFEF",
"|. c #F0F0EF",
" X c #F2F2F2",
".X c #FFFFFF",
"XX c #F8F8F7",
/* pixels */
"z.z.z.z.z.z.z.z.z.z.z.z.z.z.z.z.z.z.z.z.z.z.z.z.z.z.z.z.z.z.z.z.z.z.z.z.z.z.z.z.z.z.z.z.z.z.z.z.z.z.z.z.z.z.z.z.z.z.z.z.z.z.z.z.",
"z.z.z.z.z.z.z.z.z.z.z.z.z.z.z.z.z.z.z.z.z.z.z.z.z.z.z.z.z.z.z.z.z.z.z.z.z.z.z.z.z.z.z.z.z.z.z.z.z.z.z.z.z.z.z.z.z.z.z.z.z.z.z.z.",
"z.z.z.z.z.z.z.z.z.z.z.z.z.z.z.z.z.z.z.z.z.z.z.z.z.z.z.z.z.z.z.z.z.z.z.z.z.z.z.z.z.z.z.z.z.z.z.z.z.z.z.z.z.z.z.z.z.z.z.z.z.z.z.z.",
"z.z.z.z.z.z.z.z.z.z.z.z.z.z.z.z.z.z.z.z.z.z.z.z.z.z.z.z.z.z.z.z.z.z.z.z.z.z.z.z.z.z.z.z.z.z.z.z.z.z.z.z.z.z.z.z.z.z.z.z.z.z.z.z.",
"z.z.z.z.z.z.z.z.z.z.z.z.z.z.z.z.z.z.z.z.z.z.z.z.z.z.z.z.z.z.z.z.z.z.z.z.z.z.z.z.z.z.z.z.z.x.z.z.z.z.z.z.z.z.z.z.z.z.z.z.z.z.z.z.",
"z.z.z.z.z.z.z.z.z.z.z.z.z.z.z.z.z.z.z.z.z.z.z.z.z.z.z.z.z.z.z.z.z.z.z.z.x.x.x.c.x.x.c.x.x.x.x.x.x.x.z.z.z.z.z.z.z.z.z.z.z.z.z.z.",
"z.z.z.z.z.z.z.z.z.z.z.z.z.z.z.z.z.z.z.z.z.z.z.z.z.z.z.z.z.z.z.z.z.z.z.z.z.z.z.z.z.z.z.z.z.z.z.z.z.z.z.z.z.z.z.z.z.z.z.z.z.z.z.z.",
"z.z.z.z.z.z.z.z.z.z.z.z.z.z.z.z.z.z.z.x.z.z.z.z.z.x.z.z.z.z.z.z.z.x.z.j.a.u.r.r.r.r.y.r.y.y.r.r.y.a.g.z.z.z.z.z.z.z.z.z.z.z.z.z.",
"z.z.z.z.z.z.z.z.z.z.z.z.z.z.x.c.x.x.x.x.c.x.x.x.x.x.x.x.z.z.z.z.z.c.x.a.=.n f l l z l l z l l f z +.u.l.c.z.z.z.z.z.z.z.z.z.z.z.",
"z.z.z.z.z.z.z.z.z.z.z.z.z.z.z.l.z.l.l.k.k.l.z.k.l.l.k.z.z.z.z.z.z.x.j.e.x , O O & O & & O $ O O = j 3.g.x.z.z.z.z.z.z.z.z.z.z.z.",
"z.z.z.z.z.z.z.z.z.z.z.z.z.f.r.9.5.5.9.9.5.5.0.5.5.5.0.p.g.z.c.x.h.a.q.<.L B 9 9 0 9 8 B 9 9 9 9 B v >.9.i.g.x.z.z.z.z.z.z.z.z.z.",
"z.z.z.z.z.z.z.z.z.z.x.c.l.e. .u r r u u u u u u y r f %.p.x.v.x.s.$.c v ` C.G.H.F.G.G.G.F.F.F.H.F.7.L l X.u.x.c.x.z.z.z.z.z.z.z.",
"z.z.z.z.z.z.z.z.z.z.z.z.d.3.j = @ $ $ # $ $ $ $ O @ : x q.h.z.h.y.m 4 V Z.]. X X|.|. X[. X X XXX[.U.G 4 l 9.g.z.z.z.z.z.z.z.z.z.",
"z.z.z.z.z.z.z.z.x.x.d.e.=.:.L Z C Z C Z Z Z Z F Z C F P >.=.-.-.<.I H [ R. X.X.X.X.X.X.X.X.X.X.XXX(.m.G L >.3.i.g.z.x.z.z.z.z.z.",
"z.z.z.z.z.z.z.z.x.z.y.| d L n.U.T.Y.U.Y.U.U.U.U.Y.E.K.7.k w > w k ` L.^.{.XX.X.X.X.X.X.X.X.X.X.X.X[.(.U.1.S h +.a.c.x.z.z.z.z.z.",
"z.z.z.z.z.z.z.z.k.d.3.j 5 ~ T. X.X.XXXXXXXXXXXXX.X.X[.L.F %   X 5 M._..X.X.X.X.X.X.X.X.X.X.X.X.X.X.X.X[.A.B = h 9.g.l.z.z.z.z.z.",
"z.z.z.z.z.x.z.f.e.$.:.T / C.).XX.X.X.X.X.X.X.X.X.X.X X~.N.G 2 . 2 M.]..X.X.X.X.X.X.X.X.X.X.X.X.X.X.X.X}.G.0 o - z =.u.h.x.x.z.z.",
"z.z.z.z.z.x.z.i.X.p k n.!.'. X.X.X.X.X.X.X.X.X.X.X.X.X|._.I.~ 1 2 b.'..X.X.X.X.X.X.X.X.X.X.X.X.X.X.X.X}.H.B X   & u 4.d.x.x.z.z.",
"z.z.z.z.z.x.z.y.l & 9 F.|..X.X.X.X.X.X.X.X.X.X.X.X.X.X.X.X].V.V V S.]..X.X.X.X.X.X.X.X.X.X.X.X.X.X.X.X XU.G 2 % 1 a :.e.s.h.l.z.",
"z.z.z.z.x.v.x.y.z $ 9 G.|..X.X.X.X.X.X.X.X.X.X.X.X.X.X.X.X}.!.S.Z.!. X.X.X.X.X.X.X.X.X.X.X.X.X.X.X.X.XXX).H.b.[ [ ] P M +.y.l.v.",
"z.z.z.z.z.x.z.r.l & 8 G. X.X.X.X.X.X.X.X.X.X.X.X.X.X.X.X.XXX[.].].[.XX.X.X.X.X.X.X.X.X.X.X.X.X.X.X.X.X.X X]._.`._.T._ 6 u =.g.c.",
"z.z.x.z.l.f.y.#.r O B H.[..X.X.X.X.X.X.X.X.X.X.X.X.X.X.X.X.X.X.X.X.X.X.X.X.X.X.X.X.X.X.X.X.X.X.X.X.X.X.X.X.X.X.X.X_.B.C k o.q.r.",
"z.z.x.c.g.w.M e o X B H. X.X.X.X.X.X.X.X.X.X.X.X.X.X.X.X.X.X.X.X.X.X.X.X.X.X.X.X.X.X.X.X.X.X.X.X.X.X.X.X.X.X.X.X.X[./.F.1.I b l ",
"z.z.z.z.a.%.w +   . V H. X.X.X.X.X.X.X.X.X.X.X.X.X.X.X.X.X.X.X.X.X.X.X.X.X.X.X.X.X.X.X.X.X.X.X.X.X.X.X.X.X.X.X.X.X.X.X[.U.^ = X ",
"x.l.s.e.4.U A B 0 C [ W. X.X.X.X.X.X.X.X.X.X.X.X.X.X.X.X.X.X.X.X.X.X.X.X.X.X.X.X.X.X.X.X.X.X.X.X.X.X.X.X.X.X.X.X.X.X.X.X!.Y @   ",
"v.j.w.n j R V.K.K.K.!.].XX.X.X.X.X.X.X.X.X.X.X.X.X.X.X.X.X.X.X.X.X.X.X.X.X.X.X.X.X.X.X.X.X.X.X.X.X.X.X.X.X.X.X.X.X.X.XXXW.~ @   ",
"l.a.$.t 8 [ ). X.X X X.X.X.X.X.X.X.X.X.X.X.X.X.X.X.X.X.X.X.X.X.X.X.X.X.X.X.X.X.X.X.X.X.X.X.X.X.X.X.X.X.X.X.X.X.X.X.X.X.XW.~ @   ",
"=.@.W P ( J.]..X.X.X.X.X.X.X.X.X.X.X.X.X.X.X.X.X.X.X.X.X.X.X.X.X.X.X.X.X.X.X.X.X.X.X.X.X.X.X.X.X.X.X.X.X.X.X.X.X.X.X.X.X!.K @   ",
", p T Z./.]. X.X.X.X.X.X.X.X.X.X.X.X.X.X.X.X.X.X.X.X.X.X.X.X.X.X.X.X.X.X.X.X.X.X.X.X.X.X.X.X.X.X.X.X.X.X.X.X.X.X.X.X.X.X!.P @   ",
"  # ~ R.XX.X.X.X.X.X.X.X.X.X.X.X.X.X.X.X.X.X.X.X.X.X.X.X.X.X.X.X.X.X.X.X.X.X.X.X.X.X.X.X.X.X.X.X.X.X.X.X.X.X.X.X.XXXXX].P.Y ; + ",
"  @ K !..X.X.X.X.X.X.X.X.X.X.X.X.X.X.X.X.X.X.X.X.X.X.X.X.X.X.X.X.X.X.X.X.X.X.X.X.X.X.X.X.X.X.X.X.X.X.X.X.X.X.X.X.X[.W.V.{ E N n ",
"  @ ~ !..X.X.X.X.X.X.X.X.X.X.X.X.X.X.X.X.X.X.X.X.X.X.X.X.X.X.X.X.X.X.X.X.X.X.X.X.X.X.X.X.X.X.X.X.X.X.X.X.X.X.X.X.X_.m.V s >.e.p.",
"  @ G !..X.X.X.X.X.X.X.X.X.X.X.X.X.X.X.X.X.X.X.X.X.X.X.X.X.X.X.X.X.X.X.X.X.X.X.X.X.X.X.X.X.X.X.X.X.X.X.X.X.XXX|._.I./ a h 2.g.c.",
"  @ ~ !..X.X.X.X.X.X.X.X.X.X.X.X.X.X.X.X.X.X.X.X.X.X.X.X.X.X.X.X.X.X.X.X.X.X.X.X.X.X.X.X.X.X.X.X.X.X.X.X.X.X XW.n.R I ..-.i.l.c.",
"  @ ~ !.XX.X.X.X.X.X.X.X.X.X.X.X.X.X.X.X.X.X.X.X.X.X.X.X.X.X.X.X.X.X.X.X.X.X.X.X.X.X.X.X.X.X.X.X.X.X.X.X.X.X].C.V 6 N e.f.h.z.z.",
"  @ G !..X.X.X.X.X.X.X.X.X.X.X.X.X.X.X.X.X.X.X.X.X.X.X.X.X.X.X.X.X.X.X.X.X.X.X.X.X.X.X.X.X.X.X.X.X.X.X.X.X.X[.J.J g N w.i.g.l.x.",
"  @ ~ !..X.X.X.X.X.X.X.X.X.X.X.X.X.X.X.X.X.X.X.X.X.X.X.X.X.X.X.X.X.X.X.X.X.X.X.X.X.X.X.X.X.X.X.X.X.X.X.X.X.X X).P.D.! b O.t.j.z.",
"  % Y T. X.X.X.X.X.X.X.X.X.X.X.X.X.X.X.X.X.X.X.X.X.X.X.X.X.X.X.X.X.X.X.X.X.X.X.X.X.X.X.X.X.X.X.X.X.X.X.X.X.X.X.XXX~./ 2 e *.f.c.",
"y j Q n.U.). X.X.X.X.X.X.X.X.X.X.X.X.X.X.X.X.X.X.X.X.X.X.X.X.X.X.X.X.X.X.X.X.X.X.X.X.X.X.X.X.X.X.X.X.X.X.X.X.X.X.X).' 1 , #.f.c.",
"9.3.:.S J C.'..X.X.X.X.X.X.X.X.X.X.X.X.X.X.X.X.X.X.X.X.X.X.X.X.X.X.X.X.X.X.X.X.X.X.X.X.X.X.X.X.X.X.X.X.X.X.X.X.X.X).' 1 , #.f.c.",
"z.d.=.r 6 ] !.[.}.{.[.[.[.[.XX.X.X.X.X.X.X.X.X.X.X.X.X.X.X.X.X.X.X.X.X.X.X.X.X.X.X.X.X.X.X.X.X.X.X.X.X.X.X.X.X.X.X).' 1 , #.f.c.",
"v.l.e. .v T b.V.S.V.B.B.A.R.]..X.X.X.X.X.X.X.X.X.X.X.X.X.X.X.X.X.X.X.X.X.X.X.X.X.X.X.X.X.X.X.X.X.X.X.X.X.X.X.X.X.X).' 1 , #.f.c.",
"x.l.f.i.6.U g 7 7 7 3 5 B [ ^.XX.X.X.X.X.X.X.X.X.X.X.X.X.X.X.X.X.X.X.X.X.X.X.X.X.X.X.X.X.X.X.X.X.X.X.X.X.X.X.X.X.X).' 1 , #.f.c.",
"z.z.x.z.s.@.r & O & o X . H T.XX.X.X.X.X.X.X.X.X.X.X.X.X.X.X.X.XXX[._.].[..X.X.X.X.X.X.X.X.X.X.X.X.X.X.X.X.X.X X'.E.) 6 d 2.f.z.",
"z.z.x.x.g.q.X.n n n y o @ F T.XX.X.X.X.X.X.X.X.X.X.X.X.X.X.X.X.X].U.N.C.^. X.X.X.X.X.X.X.X.X.X.X.X.X.X.X.X.X|./.S.] Q N *.y.h.z.",
"z.z.x.z.l.g.a.a.a.i.$.q @ F U.XX.X.X.X.X.X.X.X.X.X.X.X.X.X.X.X.X).b.B F K. X.X.X.X.X.X.X.X.X.X.X.X.X.X.X.X.X{.A.Z a N e.d.h.z.z.",
"z.z.z.z.z.z.z.x.c.z.e.M p D Z.^.].XX.X.X.X.X.X.X.X.X.X.X.XXX[.).K.R a k 8.R.(.^.^._. X.X.X.X.X.X.X.X.X.X|._.U.{ s u #.d.x.x.z.z.",
"z.z.z.z.z.z.x.x.x.x.d.w.@.W T ' J.'..X.X.X.X.X.X.X.X.X.X.X[.T.} R I ....Q ^ K K ' J.`..X.X.X.X.X.X.X.X X~.B.^ P  .$.e.j.x.x.z.z.",
"z.z.z.z.z.z.z.z.z.z.z.h.a.&.d 8 ' ^.XX.XXXXXXXXXXXXXXX.X.X_.B.0 a o.u.w.b ; @ @ 7 ] ^.XX.XXXXXXXXX.X.X[.J.F 6 x 0.g.l.z.z.z.z.z.",
"z.z.z.z.z.z.z.z.z.z.x.x.l.0.m d T Z.Y.T.Y.Y.U.U.Y.U.U.T.Y.L.` j l 2.d.p.X.r > > p T Z.U.T.Y.U.U.U.T.T.K.7.k d O.a.x.x.z.z.z.z.z.",
"z.z.z.z.z.z.z.z.z.z.z.x.x.s.w.$.W D Z Z Z Z Z Z Z F Z Z Z F I %.5.p.j.f.e.2.*.=.$.W L Z Z Z Z F Z C Z F L ,.;.y.g.x.z.z.z.z.z.z.",
"z.z.z.z.z.z.z.z.z.z.z.z.l.z.z.a.@.p $ + $ $ $ $ $ $ $ @ @ < N u.h.z.z.z.j.j.j.k.s.<.p $ @ $ $ & $ O @ : x w.g.z.z.z.z.z.z.z.z.z.",
"z.z.z.z.z.z.z.z.z.z.z.z.z.x.c.g.9.M y r u u u u y y u r y l &.d.x.x.z.z.x.x.c.c.j.w.M y r u u u u r r d #.i.x.c.z.z.z.z.z.z.z.z.",
"z.z.z.z.z.z.z.z.z.z.z.z.z.z.x.l.s.e.9.5.5.9.5.5.9.9.9.5.5.t.a.h.z.x.z.z.z.z.x.x.l.s.r.5.5.0.5.5.9.5.5.0.y.g.z.z.z.z.z.z.z.z.z.z.",
"z.z.z.z.z.z.z.z.z.z.z.z.z.z.z.z.z.l.z.l.k.k.l.z.l.l.z.k.k.l.z.z.z.z.z.z.z.z.z.z.z.z.z.k.l.h.z.l.l.k.k.k.z.z.z.z.z.z.z.z.z.z.z.z.",
"z.z.z.z.z.z.z.z.z.z.z.z.z.z.z.z.z.x.x.x.x.x.x.x.x.x.x.x.x.x.z.z.z.z.z.z.z.z.z.z.z.z.x.x.x.x.x.x.c.c.c.x.x.z.z.z.z.z.z.z.z.z.z.z.",
"z.z.z.z.z.z.z.z.z.z.z.z.z.z.z.z.z.z.z.z.x.z.z.x.z.x.z.z.x.z.z.z.z.z.z.z.z.z.z.z.z.z.z.x.z.z.z.x.z.z.x.z.z.z.z.z.z.z.z.z.z.z.z.z.",
"z.z.z.z.z.z.z.z.z.z.z.z.z.z.z.z.z.z.z.z.z.z.z.z.z.z.z.z.z.z.z.z.z.z.z.z.z.z.z.z.z.z.z.z.z.z.z.z.z.z.z.z.z.z.z.z.z.z.z.z.z.z.z.z.",
"z.z.z.z.z.z.z.z.z.z.z.z.z.z.z.z.z.z.z.z.z.z.z.z.z.z.z.z.z.z.z.z.z.z.z.z.z.z.z.z.z.z.z.z.z.z.z.z.z.z.z.z.z.z.z.z.z.z.z.z.z.z.z.z.",
"z.z.z.z.z.z.z.z.z.z.z.z.z.z.z.z.z.z.z.z.z.z.z.z.z.z.z.z.z.z.z.z.z.z.z.z.z.z.z.z.z.z.z.z.z.z.z.z.z.z.z.z.z.z.z.z.z.z.z.z.z.z.z.z.",
"z.z.z.z.z.z.z.z.z.z.z.z.z.z.z.z.z.z.z.z.z.z.z.z.z.z.z.z.z.z.z.z.z.z.z.z.z.z.z.z.z.z.z.z.z.z.z.z.z.z.z.z.z.z.z.z.z.z.z.z.z.z.z.z.",
"z.z.z.z.z.z.z.z.z.z.z.z.z.z.z.z.z.z.z.z.z.z.z.z.z.z.z.z.z.z.z.z.z.z.z.z.z.z.z.z.z.z.z.z.z.z.z.z.z.z.z.z.z.z.z.z.z.z.z.z.z.z.z.z.",
"z.z.z.z.z.z.z.z.z.z.z.z.z.z.z.z.z.z.z.z.z.z.z.z.z.z.z.z.z.z.z.z.z.z.z.z.z.z.z.z.z.z.z.z.z.z.z.z.z.z.z.z.z.z.z.z.z.z.z.z.z.z.z.z.",
"z.z.z.z.z.z.z.z.z.z.z.z.z.z.z.z.z.z.z.z.z.z.z.z.z.z.z.z.z.z.z.z.z.z.z.z.z.z.z.z.z.z.z.z.z.z.z.z.z.z.z.z.z.z.z.z.z.z.z.z.z.z.z.z."
};
